%
O1001
(T1 D=6. CR=0. - ZMIN=-30.5 - FLAT END MILL)
N10 G90 G94 G17 G49 G40 G80
N15 G21
(WHEN USING FUSION 360 FOR PERSONAL USE, THE FEEDRATE OF)
(RAPID MOVES IS REDUCED TO MATCH THE FEEDRATE OF CUTTING)
(MOVES, WHICH CAN INCREASE MACHINING TIME. UNRESTRICTED RAPID)
(MOVES ARE AVAILABLE WITH A FUSION 360 SUBSCRIPTION.)
N20 G28 G91 Z0.
N25 G90

(2D CONTOUR4 2)
N30 T1 M06
N35 S5000 M03
N40 G54
N45 M08
N50 G00 X22.7 Y74.4
N55 G43 Z10. H01
N60 G91
N65 G01 Z-7. F1000.
N70 Z-1.
N75 Z-31.9 F333.
N80 G18 G02 X0.6 Z-0.6 I0.6 F1000.
N85 G01 X0.6
N90 G17 G03 X0.6 Y0.6 J0.6
N95 X-49. I-24.5
N100 X49. I24.5
N105 X-0.6 Y0.6 I-0.6
N110 G01 X-0.6
N115 G18 G03 X-0.6 Z0.6 K0.6
N120 G01 Z34.9
N125 X1.275 Y80.274
N130 Z-2.
N135 Z-32.9 F333.
N140 X0.001 Y-0.007 Z-0.094 F1000.
N145 X0.004 Y-0.022 Z-0.091
N150 X0.007 Y-0.035 Z-0.087
N155 X0.009 Y-0.048 Z-0.081
N160 X0.011 Y-0.06 Z-0.071
N165 X0.013 Y-0.071 Z-0.061
N170 X0.015 Y-0.079 Z-0.05
N175 X0.016 Y-0.085 Z-0.036
N180 X0.017 Y-0.09 Z-0.022
N185 X0.017 Y-0.092 Z-0.007
N190 X1.349 Y-7.203
N195 G17 G03 X0.7 Y-0.479 I0.59 J0.11
N200 G02 X18.103 Y-36.079 I3.866 J-20.641
N205 G03 X-2.181 Y-13.388 I7.457 J-8.086
N210 G02 Y-46.272 I-42.056 J-23.136
N215 G03 X2.181 Y-13.388 I9.638 J-5.302
N220 G02 X-0.976 Y-31.721 I-14.237 J-15.437
N225 X-31.261 Y5.467 I-13.261 J16.283
N230 G03 X-24. I-12. J-7.211
N235 G02 X-31.261 Y-5.467 I-18. J10.817
N240 X-0.976 Y31.721 I13.261 J16.283
N245 G03 X2.181 Y13.388 I-7.457 J8.086
N250 G02 Y46.272 I42.056 J23.136
N255 G03 X-2.181 Y13.388 I-9.638 J5.302
N260 G02 X0.975 Y31.721 I14.236 J15.438
N265 X31.262 Y-5.467 I13.262 J-16.283
N270 G03 X24. I12. J7.211
N275 G02 X14.134 Y9.825 I18. J-10.816
N280 G03 X0.48 Y0.7 I-0.11 J0.59
N285 G01 X-0.111 Y0.59
N290 X-0.017 Y0.092 Z0.007
N295 X-0.017 Y0.09 Z0.022
N300 X-0.016 Y0.086 Z0.036
N305 X-0.015 Y0.079 Z0.05
N310 X-0.013 Y0.07 Z0.061
N315 X-0.011 Y0.06 Z0.071
N320 X-0.009 Y0.048 Z0.081
N325 X-0.007 Y0.036 Z0.087
N330 X-0.004 Y0.021 Z0.091
N335 X-0.001 Y0.008 Z0.094
N340 Z39.9
N345 G90
(WHEN USING FUSION 360 FOR PERSONAL USE, THE FEEDRATE OF)
(RAPID MOVES IS REDUCED TO MATCH THE FEEDRATE OF CUTTING)
(MOVES, WHICH CAN INCREASE MACHINING TIME. UNRESTRICTED RAPID)
(MOVES ARE AVAILABLE WITH A FUSION 360 SUBSCRIPTION.)

(2D ADAPTIVE4)
N350 G00 Z15.
N355 X43.164 Y46.821
N360 G91
N365 G01 Z-10. F1000.
N370 Z-13.8
N375 Z-0.6
N380 X0.004 Y0.006 Z-0.094
N385 X0.012 Y0.018 Z-0.091
N390 X0.02 Y0.03 Z-0.087
N395 X0.028 Y0.04 Z-0.081
N400 X0.035 Y0.051 Z-0.071
N405 X0.04 Y0.059 Z-0.061
N410 X0.045 Y0.067 Z-0.05
N415 X0.049 Y0.071 Z-0.036
N420 X0.051 Y0.076 Z-0.022
N425 X0.053 Y0.078 Z-0.007
N430 G03 X-2.391 Y2.037 I-1.307 J0.889
N435 G01 X-0.799 Y-1.305
N440 X-0.082 Y-0.122
N445 X-0.374 Y-0.53
N450 X-0.125 Y-0.198
N455 X-0.158 Y-0.301
N460 X-0.121 Y-0.283
N465 X-0.106 Y-0.317
N470 X-0.099 Y-0.399
N475 X-0.082 Y-0.507
N480 X-0.047 Y-0.566
N485 X-0.001 Y-0.505
N490 X0.052 Y-0.65
N495 X0.131 Y-0.818
N500 X0.152 Y-0.622
N505 X0.272 Y-0.823
N510 X0.356 Y-0.841
N515 X0.392 Y-0.752
N520 X0.51 Y-0.811
N525 X0.558 Y-0.778
N530 X0.591 Y-0.753
N535 X0.613 Y-0.736
N540 X0.617 Y-0.733
N545 X0.593 Y-0.751
N550 X0.578 Y-0.764
N555 X0.55 Y-0.784
N560 X0.51 Y-0.811
N565 X0.481 Y-0.828
N570 X0.439 Y-0.851
N575 X0.392 Y-0.874
N580 X0.359 Y-0.888
N585 X0.305 Y-0.908
N590 X0.256 Y-0.922
N595 X0.222 Y-0.932
N600 X0.161 Y-0.944
N605 X0.111 Y-0.951
N610 X0.078 Y-0.955
N615 X0.01 Y-0.958
N620 X-0.036 Y-0.956
N625 X-0.075 Y-0.955
N630 X-0.139 Y-0.948
N635 X-0.183 Y-0.94
N640 X-0.224 Y-0.931
N645 X-0.285 Y-0.914
N650 X-0.324 Y-0.901
N655 X-0.369 Y-0.884
N660 X-0.422 Y-0.86
N665 X-0.459 Y-0.841
N670 X-0.504 Y-0.814
N675 X-0.55 Y-0.784
N680 X-0.582 Y-0.76
N685 X-0.626 Y-0.725
N690 X-0.665 Y-0.689
N695 X-0.691 Y-0.663
N700 X-0.733 Y-0.617
N705 X-0.764 Y-0.578
N710 X-0.784 Y-0.549
N715 X-0.821 Y-0.494
N720 X-0.844 Y-0.452
N725 X-0.861 Y-0.419
N730 X-0.888 Y-0.359
N735 X-0.904 Y-0.317
N740 X-0.916 Y-0.278
N745 X-0.933 Y-0.217
N750 X-0.942 Y-0.175
N755 X-0.949 Y-0.129
N760 X-0.955 Y-0.07
N765 X-0.957 Y-0.028
N770 X-0.957 Y0.022
N775 X-0.955 Y0.079
N780 X-0.95 Y0.118
N785 X-0.942 Y0.173
N790 X-0.931 Y0.226
N795 X-0.921 Y0.262
N800 X-0.903 Y0.32
N805 X-0.884 Y0.367
N810 X-0.871 Y0.4
N815 X-0.841 Y0.458
N820 X-0.816 Y0.5
N825 X-0.798 Y0.53
N830 X-0.759 Y0.584
N835 X-0.73 Y0.62
N840 X-0.703 Y0.651
N845 X-0.658 Y0.695
N850 X-0.627 Y0.725
N855 X-0.603 Y0.744
N860 X-0.587 Y0.756
N865 X-0.576 Y0.765
N870 X-0.594 Y0.751
N875 X-0.618 Y0.732
N880 X-0.637 Y0.715
N885 X-0.679 Y0.675
N890 X-0.707 Y0.647
N895 X-0.743 Y0.604
N900 X-0.776 Y0.561
N905 X-0.8 Y0.527
N910 X-0.836 Y0.466
N915 X-0.858 Y0.427
N920 X-0.883 Y0.37
N925 X-0.903 Y0.317
N930 X-0.918 Y0.274
N935 X-0.936 Y0.206
N940 X-0.944 Y0.16
N945 X-0.952 Y0.098
N950 X-0.957 Y0.041
N955 X-0.958 Y-0.005
N960 X-0.955 Y-0.076
N965 X-0.95 Y-0.121
N970 X-0.939 Y-0.184
N975 X-0.928 Y-0.239
N980 X-0.914 Y-0.285
N985 X-0.892 Y-0.35
N990 X-0.873 Y-0.392
N995 X-0.846 Y-0.45
N1000 X-0.817 Y-0.499
N1005 X-0.792 Y-0.539
N1010 X-0.75 Y-0.595
N1015 X-0.723 Y-0.629
N1020 X-0.677 Y-0.677
N1025 X-0.637 Y-0.715
N1030 X-0.61 Y-0.738
N1035 X-0.591 Y-0.754
N1040 X-0.579 Y-0.763
N1045 X-0.588 Y-0.755
N1050 X-0.613 Y-0.736
N1055 X-0.63 Y-0.722
N1060 X-0.662 Y-0.692
N1065 X-0.695 Y-0.659
N1070 X-0.715 Y-0.636
N1075 X-0.753 Y-0.592
N1080 X-0.782 Y-0.554
N1085 X-0.8 Y-0.526
N1090 X-0.834 Y-0.471
N1095 X-0.856 Y-0.429
N1100 X-0.872 Y-0.396
N1105 X-0.897 Y-0.336
N1110 X-0.911 Y-0.294
N1115 X-0.924 Y-0.254
N1120 X-0.938 Y-0.193
N1125 X-0.946 Y-0.15
N1130 X-0.952 Y-0.105
N1135 X-0.956 Y-0.046
N1140 X-0.958 Y-0.004
N1145 X-0.956 Y0.046
N1150 X-0.953 Y0.104
N1155 X-0.947 Y0.142
N1160 X-0.937 Y0.197
N1165 X-0.924 Y0.249
N1170 X-0.915 Y0.286
N1175 X-0.894 Y0.342
N1180 X-0.875 Y0.39
N1185 X-0.86 Y0.421
N1190 X-0.829 Y0.479
N1195 X-0.804 Y0.521
N1200 X-0.784 Y0.55
N1205 X-0.744 Y0.603
N1210 X-0.714 Y0.639
N1215 X-0.686 Y0.667
N1220 X-0.641 Y0.712
N1225 X-0.608 Y0.74
N1230 X-0.572 Y0.768
N1235 X-0.523 Y0.802
N1240 X-0.487 Y0.825
N1245 X-0.444 Y0.848
N1250 X-0.392 Y0.874
N1255 X-0.355 Y0.89
N1260 X-0.305 Y0.908
N1265 X-0.252 Y0.923
N1270 X-0.215 Y0.934
N1275 X-0.158 Y0.944
N1280 X-0.105 Y0.952
N1285 X-0.07 Y0.955
N1290 X-0.007 Y0.958
N1295 X0.043 Y0.957
N1300 X0.077 Y0.954
N1305 X0.145 Y0.947
N1310 X0.19 Y0.939
N1315 X0.228 Y0.93
N1320 X0.291 Y0.912
N1325 X0.332 Y0.899
N1330 X0.372 Y0.882
N1335 X0.429 Y0.856
N1340 X0.466 Y0.837
N1345 X0.507 Y0.813
N1350 X0.556 Y0.779
N1355 X0.588 Y0.756
N1360 X0.609 Y0.739
N1365 X0.621 Y0.729
N1370 X0.626 Y0.725
N1375 X0.592 Y0.753
N1380 X0.57 Y0.77
N1385 X0.52 Y0.804
N1390 X0.475 Y0.831
N1395 X0.422 Y0.86
N1400 X0.36 Y0.888
N1405 X0.155 Y0.453
N1410 X0.27 Y0.919
N1415 X0.204 Y0.935
N1420 X0.141 Y0.947
N1425 X0.003 Y0.039
N1430 X-0.005 Y0.248
N1435 X-0.049 Y0.243
N1440 X-0.091 Y0.231
N1445 X-0.131 Y0.211
N1450 X-0.908 Y1.214
N1455 X-0.435 Y0.617
N1460 X-0.082 Y0.122
N1465 X-0.532 Y0.87
N1470 G03 X-0.691 Y0.238 I-0.5 J-0.331
N1475 G01 X-0.089 Y-0.03 Z0.007
N1480 X-0.087 Y-0.029 Z0.022
N1485 X-0.082 Y-0.027 Z0.036
N1490 X-0.076 Y-0.026 Z0.05
N1495 X-0.068 Y-0.022 Z0.061
N1500 X-0.058 Y-0.02 Z0.071
N1505 X-0.047 Y-0.015 Z0.081
N1510 X-0.034 Y-0.012 Z0.087
N1515 X-0.021 Y-0.007 Z0.091
N1520 X-0.007 Y-0.002 Z0.094
N1525 Z14.4
N1530 X83.121 Y-0.837
N1535 Z-13.8
N1540 Z-0.6
N1545 X-0.007 Y-0.003 Z-0.094
N1550 X-0.02 Y-0.009 Z-0.091
N1555 X-0.033 Y-0.015 Z-0.087
N1560 X-0.045 Y-0.02 Z-0.081
N1565 X-0.056 Y-0.025 Z-0.071
N1570 X-0.065 Y-0.029 Z-0.061
N1575 X-0.073 Y-0.033 Z-0.05
N1580 X-0.08 Y-0.035 Z-0.036
N1585 X-0.083 Y-0.038 Z-0.022
N1590 X-0.086 Y-0.038 Z-0.007
N1595 G03 X-0.615 Y-0.488 I0.646 J-1.445
N1600 G01 X-0.061 Y-0.087
N1605 X-1.399 Y-1.871
N1610 X-0.18 Y-0.267
N1615 X-0.128 Y-0.227
N1620 X-0.123 Y-0.269
N1625 X-0.109 Y-0.297
N1630 X-0.097 Y-0.348
N1635 X-0.073 Y-0.379
N1640 X-0.051 Y-0.46
N1645 X-0.014 Y-0.48
N1650 X0.029 Y-0.575
N1655 X0.08 Y-0.609
N1660 X0.14 Y-0.653
N1665 X0.224 Y-0.745
N1670 X0.321 Y-0.824
N1675 X0.419 Y-0.862
N1680 X0.48 Y-0.828
N1685 X0.526 Y-0.801
N1690 X0.557 Y-0.779
N1695 X0.568 Y-0.77
N1700 X0.57 Y-0.771
N1705 X0.558 Y-0.777
N1710 X0.539 Y-0.792
N1715 X0.513 Y-0.809
N1720 X0.479 Y-0.829
N1725 X0.443 Y-0.849
N1730 X0.397 Y-0.872
N1735 X0.351 Y-0.891
N1740 X0.302 Y-0.909
N1745 X0.248 Y-0.925
N1750 X0.198 Y-0.937
N1755 X0.142 Y-0.947
N1760 X0.084 Y-0.954
N1765 X0.028 Y-0.957
N1770 X-0.032 Y-0.957
N1775 X-0.087 Y-0.954
N1780 X-0.145 Y-0.947
N1785 X-0.201 Y-0.936
N1790 X-0.258 Y-0.922
N1795 X-0.314 Y-0.905
N1800 X-0.368 Y-0.884
N1805 X-0.421 Y-0.861
N1810 X-0.471 Y-0.834
N1815 X-0.519 Y-0.804
N1820 X-0.57 Y-0.77
N1825 X-0.613 Y-0.735
N1830 X-0.659 Y-0.696
N1835 X-0.698 Y-0.656
N1840 X-0.736 Y-0.612
N1845 X-0.772 Y-0.566
N1850 X-0.805 Y-0.52
N1855 X-0.836 Y-0.467
N1860 X-0.862 Y-0.417
N1865 X-0.886 Y-0.363
N1870 X-0.907 Y-0.309
N1875 X-0.922 Y-0.256
N1880 X-0.938 Y-0.197
N1885 X-0.947 Y-0.14
N1890 X-0.954 Y-0.083
N1895 X-0.958 Y-0.024
N1900 X-0.957 Y0.032
N1905 X-0.953 Y0.091
N1910 X-0.947 Y0.147
N1915 X-0.935 Y0.206
N1920 X-0.921 Y0.262
N1925 X-0.904 Y0.316
N1930 X-0.883 Y0.371
N1935 X-0.86 Y0.422
N1940 X-0.831 Y0.475
N1945 X-0.801 Y0.525
N1950 X-0.768 Y0.572
N1955 X-0.731 Y0.619
N1960 X-0.696 Y0.658
N1965 X-0.664 Y0.69
N1970 X-0.638 Y0.714
N1975 X-0.623 Y0.728
N1980 X-0.617 Y0.732
N1985 X-0.621 Y0.729
N1990 X-0.631 Y0.721
N1995 X-0.649 Y0.704
N2000 X-0.67 Y0.684
N2005 X-0.695 Y0.659
N2010 X-0.722 Y0.629
N2015 X-0.749 Y0.597
N2020 X-0.775 Y0.562
N2025 X-0.801 Y0.525
N2030 X-0.826 Y0.485
N2035 X-0.848 Y0.444
N2040 X-0.87 Y0.401
N2045 X-0.888 Y0.359
N2050 X-0.906 Y0.309
N2055 X-0.921 Y0.263
N2060 X-0.934 Y0.215
N2065 X-0.943 Y0.166
N2070 X-0.95 Y0.117
N2075 X-0.956 Y0.071
N2080 X-0.957 Y0.019
N2085 X-0.957 Y-0.028
N2090 X-0.955 Y-0.08
N2095 X-0.948 Y-0.132
N2100 X-0.941 Y-0.179
N2105 X-0.93 Y-0.227
N2110 X-0.918 Y-0.276
N2115 X-0.902 Y-0.321
N2120 X-0.884 Y-0.369
N2125 X-0.863 Y-0.413
N2130 X-0.842 Y-0.457
N2135 X-0.815 Y-0.503
N2140 X-0.789 Y-0.543
N2145 X-0.759 Y-0.584
N2150 X-0.728 Y-0.623
N2155 X-0.695 Y-0.658
N2160 X-0.667 Y-0.688
N2165 X-0.641 Y-0.711
N2170 X-0.622 Y-0.729
N2175 X-0.614 Y-0.735
N2180 X-0.616 Y-0.733
N2185 X-0.626 Y-0.724
N2190 X-0.646 Y-0.708
N2195 X-0.667 Y-0.687
N2200 X-0.696 Y-0.658
N2205 X-0.726 Y-0.624
N2210 X-0.755 Y-0.589
N2215 X-0.787 Y-0.546
N2220 X-0.814 Y-0.504
N2225 X-0.842 Y-0.457
N2230 X-0.867 Y-0.407
N2235 X-0.889 Y-0.356
N2240 X-0.909 Y-0.301
N2245 X-0.926 Y-0.247
N2250 X-0.938 Y-0.191
N2255 X-0.948 Y-0.135
N2260 X-0.955 Y-0.079
N2265 X-0.957 Y-0.019
N2270 X-0.957 Y0.038
N2275 X-0.953 Y0.097
N2280 X-0.945 Y0.152
N2285 X-0.935 Y0.209
N2290 X-0.92 Y0.266
N2295 X-0.903 Y0.32
N2300 X-0.88 Y0.376
N2305 X-0.857 Y0.428
N2310 X-0.83 Y0.478
N2315 X-0.799 Y0.529
N2320 X-0.766 Y0.574
N2325 X-0.729 Y0.621
N2330 X-0.689 Y0.665
N2335 X-0.648 Y0.705
N2340 X-0.604 Y0.743
N2345 X-0.56 Y0.778
N2350 X-0.51 Y0.81
N2355 X-0.461 Y0.84
N2360 X-0.408 Y0.866
N2365 X-0.355 Y0.889
N2370 X-0.302 Y0.909
N2375 X-0.245 Y0.926
N2380 X-0.191 Y0.939
N2385 X-0.132 Y0.948
N2390 X-0.074 Y0.955
N2395 X-0.017 Y0.958
N2400 X0.042 Y0.956
N2405 X0.099 Y0.953
N2410 X0.156 Y0.945
N2415 X0.215 Y0.933
N2420 X0.27 Y0.919
N2425 X0.327 Y0.9
N2430 X0.379 Y0.879
N2435 X0.432 Y0.855
N2440 X0.482 Y0.828
N2445 X0.524 Y0.802
N2450 X0.555 Y0.78
N2455 X0.579 Y0.763
N2460 X0.584 Y0.759
N2465 X0.581 Y0.761
N2470 X0.568 Y0.772
N2475 X0.545 Y0.787
N2480 X0.517 Y0.806
N2485 X0.483 Y0.827
N2490 X0.443 Y0.849
N2495 X0.395 Y0.873
N2500 X0.349 Y0.892
N2505 X0.299 Y0.909
N2510 X0.148 Y0.551
N2515 X0.044 Y0.272
N2520 X-0.009 Y0.274
N2525 X-0.063 Y0.268
N2530 X-0.114 Y0.25
N2535 X-0.161 Y0.223
N2540 X-0.263 Y0.3
N2545 X-0.179 Y0.217
N2550 X-1.305 Y1.744
N2555 G03 X-0.709 Y0.173 I-0.468 J-0.376
N2560 G01 X-0.086 Y-0.038 Z0.007
N2565 X-0.084 Y-0.037 Z0.022
N2570 X-0.08 Y-0.035 Z0.036
N2575 X-0.073 Y-0.033 Z0.05
N2580 X-0.066 Y-0.029 Z0.061
N2585 X-0.056 Y-0.024 Z0.071
N2590 X-0.045 Y-0.02 Z0.081
N2595 X-0.033 Y-0.015 Z0.087
N2600 X-0.02 Y-0.008 Z0.091
N2605 X-0.006 Y-0.003 Z0.094
N2610 Z14.4
N2615 X79.722 Y0.112
N2620 Z-13.8
N2625 Z-0.6
N2630 X-0.007 Y-0.003 Z-0.094
N2635 X-0.02 Y-0.008 Z-0.091
N2640 X-0.034 Y-0.014 Z-0.087
N2645 X-0.045 Y-0.019 Z-0.081
N2650 X-0.057 Y-0.023 Z-0.071
N2655 X-0.066 Y-0.027 Z-0.061
N2660 X-0.074 Y-0.031 Z-0.05
N2665 X-0.08 Y-0.033 Z-0.036
N2670 X-0.085 Y-0.035 Z-0.022
N2675 X-0.087 Y-0.036 Z-0.007
N2680 G03 X-0.628 Y-0.471 I0.605 J-1.462
N2685 G01 X-0.814 Y-1.087
N2690 X-0.18 Y-0.218
N2695 X-0.382 Y-0.435
N2700 X-0.141 Y-0.172
N2705 X-0.127 Y-0.184
N2710 X-0.117 Y-0.203
N2715 X-0.117 Y-0.244
N2720 X-0.107 Y-0.283
N2725 X-0.092 Y-0.315
N2730 X-0.078 Y-0.38
N2735 X-0.049 Y-0.4
N2740 X-0.021 Y-0.491
N2745 X0.019 Y-0.505
N2750 X0.073 Y-0.611
N2755 X0.131 Y-0.651
N2760 X0.213 Y-0.744
N2765 X0.327 Y-0.87
N2770 X0.408 Y-0.866
N2775 X0.461 Y-0.839
N2780 X0.499 Y-0.818
N2785 X0.521 Y-0.804
N2790 X0.529 Y-0.798
N2795 X0.527 Y-0.8
N2800 X0.514 Y-0.808
N2805 X0.492 Y-0.821
N2810 X0.459 Y-0.841
N2815 X0.421 Y-0.86
N2820 X0.375 Y-0.881
N2825 X0.325 Y-0.901
N2830 X0.271 Y-0.919
N2835 X0.211 Y-0.934
N2840 X0.147 Y-0.946
N2845 X0.082 Y-0.954
N2850 X0.017 Y-0.958
N2855 X-0.049 Y-0.956
N2860 X-0.119 Y-0.951
N2865 X-0.187 Y-0.939
N2870 X-0.253 Y-0.924
N2875 X-0.319 Y-0.903
N2880 X-0.382 Y-0.878
N2885 X-0.445 Y-0.848
N2890 X-0.507 Y-0.813
N2895 X-0.563 Y-0.774
N2900 X-0.618 Y-0.732
N2905 X-0.669 Y-0.686
N2910 X-0.716 Y-0.635
N2915 X-0.762 Y-0.58
N2920 X-0.803 Y-0.523
N2925 X-0.837 Y-0.464
N2930 X-0.869 Y-0.404
N2935 X-0.896 Y-0.337
N2940 X-0.919 Y-0.271
N2945 X-0.935 Y-0.204
N2950 X-0.948 Y-0.135
N2955 X-0.956 Y-0.068
N2960 X-0.957 Y0.002
N2965 X-0.955 Y0.073
N2970 X-0.947 Y0.143
N2975 X-0.935 Y0.209
N2980 X-0.917 Y0.276
N2985 X-0.894 Y0.343
N2990 X-0.867 Y0.407
N2995 X-0.834 Y0.47
N3000 X-0.799 Y0.528
N3005 X-0.762 Y0.58
N3010 X-0.727 Y0.625
N3015 X-0.695 Y0.658
N3020 X-0.671 Y0.684
N3025 X-0.655 Y0.698
N3030 X-1.294 Y1.412
N3035 X-0.653 Y0.701
N3040 X-0.665 Y0.69
N3045 X-0.679 Y0.674
N3050 X-0.699 Y0.655
N3055 X-0.719 Y0.633
N3060 X-0.74 Y0.608
N3065 X-0.763 Y0.579
N3070 X-0.784 Y0.549
N3075 X-0.808 Y0.515
N3080 X-0.829 Y0.48
N3085 X-0.848 Y0.444
N3090 X-0.867 Y0.406
N3095 X-0.885 Y0.367
N3100 X-0.9 Y0.327
N3105 X-0.914 Y0.286
N3110 X-0.926 Y0.245
N3115 X-0.936 Y0.202
N3120 X-0.945 Y0.158
N3125 X-0.95 Y0.115
N3130 X-0.956 Y0.07
N3135 X-0.957 Y0.027
N3140 X-0.957 Y-0.018
N3145 X-0.956 Y-0.062
N3150 X-0.952 Y-0.106
N3155 X-0.946 Y-0.149
N3160 X-0.938 Y-0.192
N3165 X-0.928 Y-0.236
N3170 X-0.916 Y-0.28
N3175 X-0.902 Y-0.321
N3180 X-0.887 Y-0.363
N3185 X-0.869 Y-0.403
N3190 X-0.849 Y-0.443
N3195 X-0.827 Y-0.482
N3200 X-0.805 Y-0.518
N3205 X-0.781 Y-0.556
N3210 X-0.753 Y-0.591
N3215 X-0.727 Y-0.624
N3220 X-0.7 Y-0.653
N3225 X-0.677 Y-0.677
N3230 X-0.657 Y-0.697
N3235 X-0.644 Y-0.709
N3240 X-0.637 Y-0.715
N3245 X-0.639 Y-0.713
N3250 X-0.649 Y-0.705
N3255 X-0.666 Y-0.688
N3260 X-0.689 Y-0.666
N3265 X-0.716 Y-0.635
N3270 X-0.746 Y-0.601
N3275 X-0.777 Y-0.56
N3280 X-0.809 Y-0.513
N3285 X-0.839 Y-0.46
N3290 X-0.868 Y-0.405
N3295 X-0.893 Y-0.346
N3300 X-0.914 Y-0.285
N3305 X-0.932 Y-0.221
N3310 X-0.946 Y-0.154
N3315 X-0.954 Y-0.085
N3320 X-0.957 Y-0.018
N3325 X-0.956 Y0.05
N3330 X-0.951 Y0.119
N3335 X-0.939 Y0.188
N3340 X-0.923 Y0.256
N3345 X-0.902 Y0.321
N3350 X-0.877 Y0.385
N3355 X-0.846 Y0.448
N3360 X-0.812 Y0.509
N3365 X-0.771 Y0.567
N3370 X-0.729 Y0.621
N3375 X-0.682 Y0.672
N3380 X-0.632 Y0.72
N3385 X-0.577 Y0.765
N3390 X-0.52 Y0.804
N3395 X-0.46 Y0.84
N3400 X-0.398 Y0.871
N3405 X-0.336 Y0.897
N3410 X-0.268 Y0.919
N3415 X-0.2 Y0.937
N3420 X-0.132 Y0.949
N3425 X-0.063 Y0.955
N3430 X0.006 Y0.958
N3435 X0.076 Y0.954
N3440 X0.147 Y0.947
N3445 X0.214 Y0.933
N3450 X0.282 Y0.916
N3455 X0.346 Y0.893
N3460 X0.406 Y0.867
N3465 X0.457 Y0.841
N3470 X0.498 Y0.818
N3475 X0.526 Y0.801
N3480 X0.543 Y0.789
N3485 X0.55 Y0.784
N3490 X0.548 Y0.785
N3495 X0.538 Y0.793
N3500 X0.52 Y0.804
N3505 X0.498 Y0.818
N3510 X0.469 Y0.835
N3515 X0.437 Y0.852
N3520 X0.401 Y0.87
N3525 X0.363 Y0.886
N3530 X0.233 Y0.682
N3535 X0.035 Y0.136
N3540 X0.041 Y0.272
N3545 X-0.012 Y0.275
N3550 X-0.066 Y0.267
N3555 X-0.118 Y0.249
N3560 X-0.163 Y0.221
N3565 X-1.626 Y1.798
N3570 X-0.12 Y0.136
N3575 G03 X-0.721 Y0.116 I-0.436 J-0.412
N3580 G01 X-0.083 Y-0.045 Z0.007
N3585 X-0.08 Y-0.043 Z0.022
N3590 X-0.077 Y-0.042 Z0.036
N3595 X-0.07 Y-0.038 Z0.05
N3600 X-0.063 Y-0.034 Z0.061
N3605 X-0.054 Y-0.029 Z0.071
N3610 X-0.043 Y-0.023 Z0.081
N3615 X-0.032 Y-0.017 Z0.087
N3620 X-0.019 Y-0.011 Z0.091
N3625 X-0.007 Y-0.003 Z0.094
N3630 Z14.4
N3635 X76.65 Y0.621
N3640 Z-13.8
N3645 Z-0.6
N3650 X-0.007 Y-0.003 Z-0.094
N3655 X-0.021 Y-0.006 Z-0.091
N3660 X-0.035 Y-0.011 Z-0.087
N3665 X-0.047 Y-0.014 Z-0.081
N3670 X-0.058 Y-0.018 Z-0.071
N3675 X-0.069 Y-0.021 Z-0.061
N3680 X-0.076 Y-0.024 Z-0.05
N3685 X-0.084 Y-0.026 Z-0.036
N3690 X-0.087 Y-0.027 Z-0.022
N3695 X-0.09 Y-0.027 Z-0.007
N3700 G03 X-0.669 Y-0.411 I0.467 J-1.512
N3705 G01 X-1.485 Y-1.642
N3710 X-0.12 Y-0.146
N3715 X-0.13 Y-0.189
N3720 X-0.119 Y-0.205
N3725 X-0.12 Y-0.252
N3730 X-0.108 Y-0.284
N3735 X-0.094 Y-0.325
N3740 X-0.079 Y-0.382
N3745 X-0.051 Y-0.412
N3750 X-0.021 Y-0.503
N3755 X0.02 Y-0.521
N3760 X0.074 Y-0.625
N3765 X0.142 Y-0.704
N3770 X0.232 Y-0.809
N3775 X0.337 Y-0.896
N3780 X0.399 Y-0.87
N3785 X0.444 Y-0.849
N3790 X0.472 Y-0.833
N3795 X0.487 Y-0.825
N3800 X0.489 Y-0.824
N3805 X0.478 Y-0.829
N3810 X0.456 Y-0.843
N3815 X0.423 Y-0.859
N3820 X0.383 Y-0.878
N3825 X0.334 Y-0.897
N3830 X0.273 Y-0.918
N3835 X0.206 Y-0.935
N3840 X0.136 Y-0.948
N3845 X0.062 Y-0.956
N3850 X-0.019 Y-0.958
N3855 X-0.102 Y-0.952
N3860 X-0.182 Y-0.94
N3865 X-0.263 Y-0.921
N3870 X-0.345 Y-0.893
N3875 X-0.425 Y-0.859
N3880 X-0.499 Y-0.817
N3885 X-0.569 Y-0.77
N3890 X-0.638 Y-0.714
N3895 X-0.701 Y-0.653
N3900 X-0.757 Y-0.586
N3905 X-0.807 Y-0.517
N3910 X-0.851 Y-0.439
N3915 X-0.888 Y-0.359
N3920 X-0.917 Y-0.277
N3925 X-0.937 Y-0.194
N3930 X-0.952 Y-0.106
N3935 X-0.958 Y-0.018
N3940 X-0.955 Y0.069
N3945 X-0.945 Y0.154
N3950 X-0.927 Y0.241
N3955 X-0.901 Y0.325
N3960 X-0.868 Y0.404
N3965 X-0.832 Y0.475
N3970 X-0.793 Y0.537
N3975 X-0.757 Y0.586
N3980 X-0.726 Y0.625
N3985 X-0.702 Y0.652
N3990 X-0.685 Y0.669
N3995 X-0.675 Y0.679
N4000 X-0.672 Y0.683
N4005 X-0.674 Y0.68
N4010 X-0.682 Y0.672
N4015 X-0.694 Y0.66
N4020 X-0.708 Y0.645
N4025 X-0.724 Y0.627
N4030 X-0.742 Y0.606
N4035 X-0.76 Y0.582
N4040 X-0.78 Y0.556
N4045 X-0.799 Y0.528
N4050 X-0.817 Y0.499
N4055 X-0.836 Y0.468
N4060 X-0.853 Y0.435
N4065 X-0.87 Y0.4
N4070 X-0.886 Y0.365
N4075 X-0.899 Y0.329
N4080 X-0.523 Y0.168
N4085 X-0.187 Y0.046
N4090 X-0.192 Y0.02
N4095 X-0.192 Y-0.006
N4100 X-0.384 Y-0.04
N4105 X-3.48 Y-0.324
N4110 X-0.217 Y-0.019
N4115 X-0.217 Y-0.011
N4120 X-0.435 Y-0.003
N4125 X-3.48
N4130 X-0.435 Y0.003
N4135 X-0.217 Y0.011
N4140 X-0.217 Y0.019
N4145 X-1.74 Y0.162
N4150 X-0.82 Y0.035
N4155 X-0.658 Y-0.025
N4160 X-0.787 Y-0.093
N4165 X-0.918 Y-0.184
N4170 X-0.921 Y-0.264
N4175 X-0.9 Y-0.326
N4180 X-0.879 Y-0.379
N4185 X-0.858 Y-0.427
N4190 X-0.835 Y-0.468
N4195 X-0.813 Y-0.507
N4200 X-0.789 Y-0.542
N4205 X-0.766 Y-0.576
N4210 X-0.741 Y-0.606
N4215 X-0.719 Y-0.632
N4220 X-0.698 Y-0.656
N4225 X-0.68 Y-0.674
N4230 X-0.667 Y-0.688
N4235 X-0.658 Y-0.696
N4240 X-0.657 Y-0.696
N4245 X-0.664 Y-0.691
N4250 X-0.677 Y-0.677
N4255 X-0.697 Y-0.657
N4260 X-0.722 Y-0.629
N4265 X-0.754 Y-0.591
N4270 X-0.787 Y-0.545
N4275 X-0.821 Y-0.493
N4280 X-0.853 Y-0.435
N4285 X-0.884 Y-0.368
N4290 X-0.911 Y-0.296
N4295 X-0.933 Y-0.219
N4300 X-0.947 Y-0.142
N4305 X-0.956 Y-0.058
N4310 X-0.957 Y0.027
N4315 X-0.951 Y0.111
N4320 X-0.938 Y0.195
N4325 X-0.916 Y0.278
N4330 X-0.887 Y0.362
N4335 X-0.851 Y0.44
N4340 X-0.808 Y0.514
N4345 X-0.757 Y0.587
N4350 X-0.699 Y0.654
N4355 X-0.638 Y0.714
N4360 X-0.571 Y0.769
N4365 X-0.497 Y0.818
N4370 X-0.42 Y0.861
N4375 X-0.341 Y0.895
N4380 X-0.259 Y0.922
N4385 X-0.172 Y0.942
N4390 X-0.085 Y0.954
N4395 X0.002 Y0.958
N4400 X0.089 Y0.954
N4405 X0.176 Y0.941
N4410 X0.258 Y0.922
N4415 X0.33 Y0.899
N4420 X0.392 Y0.874
N4425 X0.439 Y0.851
N4430 X0.476 Y0.831
N4435 X0.499 Y0.818
N4440 X0.513 Y0.808
N4445 X0.517 Y0.806
N4450 X0.514 Y0.808
N4455 X0.505 Y0.814
N4460 X0.489 Y0.824
N4465 X0.469 Y0.835
N4470 X0.445 Y0.847
N4475 X0.418 Y0.862
N4480 X0.378 Y0.872
N4485 X0.198 Y0.58
N4490 X0.034 Y0.136
N4495 X0.043 Y0.298
N4500 X-0.023 Y0.3
N4505 X-0.086 Y0.288
N4510 X-0.145 Y0.263
N4515 X-0.199 Y0.226
N4520 X-0.26 Y0.24
N4525 X-0.362 Y0.338
N4530 X-0.102 Y0.097
N4535 X-0.2 Y0.217
N4540 X-0.734 Y0.812
N4545 Z15.
N4550 X32.259 Y-15.801
N4555 Z-13.8
N4560 Z-0.6
N4565 X-0.006 Y0.005 Z-0.094
N4570 X-0.018 Y0.013 Z-0.091
N4575 X-0.029 Y0.021 Z-0.087
N4580 X-0.04 Y0.029 Z-0.081
N4585 X-0.049 Y0.036 Z-0.071
N4590 X-0.058 Y0.042 Z-0.061
N4595 X-0.065 Y0.047 Z-0.05
N4600 X-0.07 Y0.051 Z-0.036
N4605 X-0.074 Y0.054 Z-0.022
N4610 X-0.076 Y0.056 Z-0.007
N4615 G03 X-0.73 Y0.29 I-0.931 J-1.279
N4620 G01 X-1.74 Y0.162
N4625 X-0.652 Y0.067
N4630 X-0.217 Y0.037
N4635 X-0.653 Y0.121
N4640 X-0.87 Y0.163
N4645 X-0.363 Y0.05
N4650 X-0.38 Y0.021
N4655 X-0.448 Y-0.011
N4660 X-0.513 Y-0.055
N4665 X-0.6 Y-0.112
N4670 X-0.712 Y-0.194
N4675 X-0.818 Y-0.296
N4680 X-0.872 Y-0.396
N4685 X-0.84 Y-0.46
N4690 X-0.811 Y-0.509
N4695 X-0.784 Y-0.551
N4700 X-0.758 Y-0.585
N4705 X-0.735 Y-0.614
N4710 X-0.714 Y-0.638
N4715 X-0.698 Y-0.656
N4720 X-0.684 Y-0.67
N4725 X-0.677 Y-0.677
N4730 X-0.676 Y-0.679
N4735 X-0.681 Y-0.673
N4740 X-0.694 Y-0.661
N4745 X-0.715 Y-0.636
N4750 X-0.744 Y-0.603
N4755 X-0.777 Y-0.56
N4760 X-0.813 Y-0.507
N4765 X-0.851 Y-0.44
N4770 X-0.886 Y-0.362
N4775 X-0.917 Y-0.277
N4780 X-0.941 Y-0.179
N4785 X-0.955 Y-0.076
N4790 X-0.957 Y0.028
N4795 X-0.947 Y0.141
N4800 X-0.924 Y0.252
N4805 X-0.888 Y0.359
N4810 X-0.836 Y0.466
N4815 X-0.775 Y0.564
N4820 X-0.699 Y0.654
N4825 X-0.612 Y0.737
N4830 X-0.518 Y0.806
N4835 X-0.413 Y0.864
N4840 X-0.302 Y0.908
N4845 X-0.189 Y0.939
N4850 X-0.069 Y0.955
N4855 X0.046 Y0.957
N4860 X0.152 Y0.946
N4865 X0.244 Y0.926
N4870 X0.32 Y0.902
N4875 X0.38 Y0.88
N4880 X0.423 Y0.859
N4885 X0.454 Y0.843
N4890 X0.474 Y0.832
N4895 X0.483 Y0.827
N4900 X0.485 Y0.826
N4905 X0.481 Y0.828
N4910 X0.469 Y0.835
N4915 X0.455 Y0.843
N4920 X0.434 Y0.854
N4925 X0.404 Y0.868
N4930 X0.259 Y0.666
N4935 X0.156 Y0.524
N4940 X0.014 Y0.064
N4945 X0.031 Y0.288
N4950 X-0.03 Y0.289
N4955 X-0.088 Y0.277
N4960 X-0.143 Y0.252
N4965 X-0.192 Y0.217
N4970 X-1.779 Y1.633
N4975 G03 X-0.729 Y0.039 I-0.39 J-0.456
N4980 G01 X-0.077 Y-0.053 Z0.007
N4985 X-0.076 Y-0.052 Z0.022
N4990 X-0.072 Y-0.049 Z0.036
N4995 X-0.066 Y-0.045 Z0.05
N5000 X-0.059 Y-0.041 Z0.061
N5005 X-0.05 Y-0.034 Z0.071
N5010 X-0.041 Y-0.028 Z0.081
N5015 X-0.03 Y-0.02 Z0.087
N5020 X-0.018 Y-0.013 Z0.091
N5025 X-0.006 Y-0.004 Z0.094
N5030 Z14.4
N5035 X27.628 Y-13.356
N5040 Z-13.8
N5045 Z-0.6
N5050 X-0.005 Y0.005 Z-0.094
N5055 X-0.017 Y0.014 Z-0.091
N5060 X-0.027 Y0.024 Z-0.087
N5065 X-0.037 Y0.033 Z-0.081
N5070 X-0.046 Y0.04 Z-0.071
N5075 X-0.053 Y0.047 Z-0.061
N5080 X-0.06 Y0.053 Z-0.05
N5085 X-0.066 Y0.058 Z-0.036
N5090 X-0.068 Y0.06 Z-0.022
N5095 X-0.071 Y0.062 Z-0.007
N5100 G03 X-0.7 Y0.357 I-1.046 J-1.188
N5105 G01 X-2.174 Y0.409
N5110 X-0.435 Y0.084
N5115 X-0.435 Y0.118
N5120 X-0.239 Y0.053
N5125 X-0.281 Y0.038
N5130 X-0.343 Y0.019
N5135 X-0.389 Y-0.009
N5140 X-0.444 Y-0.047
N5145 X-0.516 Y-0.097
N5150 X-0.597 Y-0.163
N5155 X-0.676 Y-0.243
N5160 X-0.803 Y-0.365
N5165 X-0.837 Y-0.465
N5170 X-0.803 Y-0.522
N5175 X-0.773 Y-0.566
N5180 X-0.747 Y-0.599
N5185 X-0.726 Y-0.624
N5190 X-0.711 Y-0.642
N5195 X-0.7 Y-0.654
N5200 X-0.695 Y-0.658
N5205 X-0.699 Y-0.655
N5210 X-0.711 Y-0.642
N5215 X-0.731 Y-0.619
N5220 X-0.762 Y-0.58
N5225 X-0.799 Y-0.527
N5230 X-0.841 Y-0.459
N5235 X-0.886 Y-0.364
N5240 X-0.923 Y-0.255
N5245 X-0.95 Y-0.12
N5250 X-0.957 Y0.026
N5255 X-0.94 Y0.187
N5260 X-0.891 Y0.35
N5265 X-0.813 Y0.506
N5270 X-0.699 Y0.655
N5275 X-0.558 Y0.778
N5280 X-0.396 Y0.872
N5285 X-0.222 Y0.932
N5290 X-0.062 Y0.955
N5295 X0.076 Y0.955
N5300 X0.189 Y0.939
N5305 X0.277 Y0.917
N5310 X0.341 Y0.895
N5315 X0.388 Y0.875
N5320 X0.419 Y0.861
N5325 X0.439 Y0.852
N5330 X0.449 Y0.846
N5335 X0.45 Y0.845
N5340 X0.446 Y0.848
N5345 X0.433 Y0.854
N5350 X0.409 Y0.865
N5355 X0.339 Y0.809
N5360 X0.182 Y0.558
N5365 X0.087 Y0.362
N5370 X0.038 Y0.321
N5375 X-0.036 Y0.321
N5380 X-0.108 Y0.304
N5385 X-0.176 Y0.271
N5390 X-0.233 Y0.224
N5395 X-0.425 Y0.324
N5400 X-0.435 Y0.334
N5405 X-0.217 Y0.193
N5410 X-0.643 Y0.59
N5415 G03 X-0.73 Y0.039 I-0.39 J-0.456
N5420 G01 X-0.077 Y-0.053 Z0.007
N5425 X-0.076 Y-0.052 Z0.022
N5430 X-0.071 Y-0.049 Z0.036
N5435 X-0.067 Y-0.045 Z0.05
N5440 X-0.059 Y-0.041 Z0.061
N5445 X-0.05 Y-0.034 Z0.071
N5450 X-0.041 Y-0.028 Z0.081
N5455 X-0.029 Y-0.02 Z0.087
N5460 X-0.019 Y-0.013 Z0.091
N5465 X-0.006 Y-0.004 Z0.094
N5470 Z14.4
N5475 X22.742 Y-11.202
N5480 Z-13.8
N5485 Z-0.6
N5490 X-0.005 Y0.005 Z-0.094
N5495 X-0.016 Y0.016 Z-0.091
N5500 X-0.025 Y0.026 Z-0.087
N5505 X-0.034 Y0.035 Z-0.081
N5510 X-0.042 Y0.044 Z-0.071
N5515 X-0.05 Y0.052 Z-0.061
N5520 X-0.056 Y0.058 Z-0.05
N5525 X-0.06 Y0.062 Z-0.036
N5530 X-0.064 Y0.066 Z-0.022
N5535 X-0.065 Y0.068 Z-0.007
N5540 G03 X-0.669 Y0.411 I-1.138 J-1.1
N5545 G01 X-0.217 Y0.06
N5550 X-2.392 Y0.683
N5555 X-0.27 Y0.063
N5560 X-0.269 Y0.04
N5565 X-0.328 Y0.022
N5570 X-0.374 Y-0.004
N5575 X-0.413 Y-0.039
N5580 X-0.49 Y-0.085
N5585 X-0.542 Y-0.141
N5590 X-0.635 Y-0.22
N5595 X-0.748 Y-0.329
N5600 X-0.843 Y-0.455
N5605 X-0.807 Y-0.516
N5610 X-0.775 Y-0.562
N5615 X-0.752 Y-0.594
N5620 X-0.734 Y-0.615
N5625 X-0.723 Y-0.628
N5630 X-0.722 Y-0.629
N5635 X-0.73 Y-0.62
N5640 X-0.748 Y-0.597
N5645 X-0.783 Y-0.553
N5650 X-0.828 Y-0.48
N5655 X-0.888 Y-0.361
N5660 X-0.941 Y-0.177
N5665 X-0.475 Y0.056
N5670 X-0.456 Y0.149
N5675 X-0.412 Y0.243
N5680 X-0.352 Y0.325
N5685 X-0.569 Y0.77
N5690 X-0.3 Y0.909
N5695 X-0.085 Y0.954
N5700 X0.076 Y0.955
N5705 X0.194 Y0.938
N5710 X0.277 Y0.917
N5715 X0.334 Y0.897
N5720 X0.37 Y0.884
N5725 X0.391 Y0.874
N5730 X0.398 Y0.871
N5735 X0.393 Y0.873
N5740 X0.372 Y0.883
N5745 X0.282 Y0.778
N5750 X0.151 Y0.554
N5755 X0.061 Y0.322
N5760 X0.023 Y0.308
N5765 X-0.045 Y0.306
N5770 X-0.111 Y0.289
N5775 X-0.171 Y0.257
N5780 X-0.225 Y0.214
N5785 X-1.88 Y1.429
N5790 G03 X-0.73 Y-0.029 I-0.346 J-0.49
N5795 G01 X-0.072 Y-0.06 Z0.007
N5800 X-0.07 Y-0.058 Z0.022
N5805 X-0.067 Y-0.056 Z0.036
N5810 X-0.062 Y-0.051 Z0.05
N5815 X-0.055 Y-0.046 Z0.061
N5820 X-0.047 Y-0.039 Z0.071
N5825 X-0.038 Y-0.032 Z0.081
N5830 X-0.027 Y-0.023 Z0.087
N5835 X-0.017 Y-0.014 Z0.091
N5840 X-0.006 Y-0.005 Z0.094
N5845 Z14.4
N5850 X18.368 Y-8.918
N5855 Z-13.8
N5860 Z-0.6
N5865 X-0.005 Y0.005 Z-0.094
N5870 X-0.015 Y0.016 Z-0.091
N5875 X-0.025 Y0.026 Z-0.087
N5880 X-0.034 Y0.036 Z-0.081
N5885 X-0.042 Y0.045 Z-0.071
N5890 X-0.049 Y0.052 Z-0.061
N5895 X-0.055 Y0.058 Z-0.05
N5900 X-0.06 Y0.063 Z-0.036
N5905 X-0.062 Y0.067 Z-0.022
N5910 X-0.065 Y0.068 Z-0.007
N5915 G03 X-0.663 Y0.42 I-1.152 J-1.085
N5920 G01 X-1.088 Y0.312
N5925 X-0.217 Y0.068
N5930 X-0.652 Y0.242
N5935 X-0.192 Y0.075
N5940 X-0.33 Y0.11
N5945 X-0.243 Y0.06
N5950 X-0.267 Y0.043
N5955 X-0.327 Y0.026
N5960 X-0.361
N5965 X-0.407 Y-0.032
N5970 X-0.477 Y-0.078
N5975 X-0.531 Y-0.13
N5980 X-0.62 Y-0.207
N5985 X-0.739 Y-0.313
N5990 X-0.848 Y-0.444
N5995 X-0.813 Y-0.507
N6000 X-0.785 Y-0.549
N6005 X-0.766 Y-0.575
N6010 X-0.756 Y-0.587
N6015 X-0.571 Y-0.436
N6020 X-0.193 Y-0.141
N6025 X-0.098 Y-0.07
N6030 G03 X-0.112 Y-0.841 Z0.2 I0.365 J-0.477
N6035 X0.718 Y-0.185 I0.477 J0.364
N6040 G01 X8.531 Y3.756
N6045 G03 X0.31 Y0.312 I-0.242 J0.549
N6050 X-0.315 Y0.788 Z-0.2 I-0.551 J0.237
N6055 G01 X-2.418 Y0.942
N6060 X-0.211 Y0.07
N6065 X-0.256 Y0.063
N6070 X-0.275 Y0.045
N6075 X-0.338 Y0.027
N6080 X-0.376
N6085 X-0.42 Y-0.034
N6090 X-0.495 Y-0.08
N6095 X-0.559 Y-0.137
N6100 X-0.66 Y-0.22
N6105 X-0.41 Y-0.174
N6110 X-0.216 Y-0.102
N6115 X-0.107 Y-0.053
N6120 X-0.107 Y-0.054
N6125 X-0.851 Y-0.44
N6130 X-0.206 Y-0.122
N6135 X-0.204 Y-0.125
N6140 G03 X-0.17 Y-0.831 Z0.2 I0.331 J-0.5
N6145 X0.647 Y-0.251 I0.501 J0.331
N6150 G01 X5.123 Y1.285
N6155 G03 X0.405 Y0.345 I-0.146 J0.582
N6160 X-0.314 Y0.788 Z-0.2 I-0.551 J0.237
N6165 G01 X-0.435 Y0.17
N6170 X-0.489 Y0.193
N6175 X-0.163 Y0.076
N6180 X-0.218 Y0.105
N6185 X-0.652 Y0.327
N6190 X-0.22 Y0.096
N6195 X-0.211 Y0.074
N6200 X-0.249 Y0.064
N6205 X-0.282 Y0.05
N6210 X-0.332 Y0.03
N6215 X-0.408 Y0.006
N6220 X-0.238 Y-0.017
N6225 X-0.239 Y0.025
N6230 X-0.23 Y0.065
N6235 X-0.216 Y0.103
N6240 X-0.195 Y0.139
N6245 X-0.676 Y0.679
N6250 X-0.158 Y0.332
N6255 X-0.136 Y0.226
N6260 X-0.177 Y0.197
N6265 X-0.21 Y0.16
N6270 G03 X-0.819 Y-0.22 Z0.2 I-0.299 J-0.52
N6275 X0.237 Y-0.829 I0.52 J-0.3
N6280 G01 X4.189 Y-2.236
N6285 G03 X0.81 Y0.242 I0.283 J0.529
N6290 X-0.24 Y0.814 Z-0.2 I-0.527 J0.287
N6295 G01 X-2.46 Y1.232
N6300 X-0.149 Y0.076
N6305 X-0.665 Y0.359
N6310 X-2.815 Y1.753
N6315 X-0.671 Y0.422
N6320 X-0.198 Y0.133
N6325 X-0.74 Y0.561
N6330 G03 X-0.729 Y-0.029 I-0.346 J-0.49
N6335 G01 X-0.073 Y-0.06 Z0.007
N6340 X-0.07 Y-0.059 Z0.022
N6345 X-0.067 Y-0.055 Z0.036
N6350 X-0.062 Y-0.052 Z0.05
N6355 X-0.055 Y-0.045 Z0.061
N6360 X-0.047 Y-0.04 Z0.071
N6365 X-0.037 Y-0.031 Z0.081
N6370 X-0.028 Y-0.023 Z0.087
N6375 X-0.017 Y-0.014 Z0.091
N6380 X-0.006 Y-0.005 Z0.094
N6385 Z14.4
N6390 X66.324 Y7.364
N6395 Z-13.8
N6400 Z-0.6
N6405 X-0.007 Y-0.003 Z-0.094
N6410 X-0.021 Y-0.006 Z-0.091
N6415 X-0.034 Y-0.011 Z-0.087
N6420 X-0.047 Y-0.014 Z-0.081
N6425 X-0.059 Y-0.018 Z-0.071
N6430 X-0.068 Y-0.021 Z-0.061
N6435 X-0.077 Y-0.024 Z-0.05
N6440 X-0.083 Y-0.026 Z-0.036
N6445 X-0.088 Y-0.027 Z-0.022
N6450 X-0.089 Y-0.027 Z-0.007
N6455 G03 X-0.67 Y-0.411 I0.467 J-1.512
N6460 G01 X-0.875 Y-0.968
N6465 X-0.2 Y-0.217
N6470 X-0.102 Y-0.097
N6475 X-0.129 Y-0.121
N6480 X-0.173 Y-0.178
N6485 X-0.122 Y-0.148
N6490 X-0.13 Y-0.187
N6495 X-0.126 Y-0.215
N6500 X-0.12 Y-0.248
N6505 X-0.116 Y-0.302
N6510 X-0.095 Y-0.322
N6515 X-0.084 Y-0.401
N6520 X-0.054 Y-0.419
N6525 X-0.024 Y-0.514
N6530 X0.019 Y-0.55
N6535 X0.075 Y-0.664
N6540 X0.148 Y-0.751
N6545 X0.257 Y-0.912
N6550 X0.333 Y-0.898
N6555 X0.386 Y-0.877
N6560 X0.42 Y-0.86
N6565 X0.441 Y-0.851
N6570 X0.444 Y-0.848
N6575 X0.435 Y-0.854
N6580 X0.412 Y-0.864
N6585 X0.378 Y-0.88
N6590 X0.329 Y-0.899
N6595 X0.266 Y-0.92
N6600 X0.192 Y-0.939
N6605 X0.11 Y-0.951
N6610 X0.015 Y-0.958
N6615 X-0.084 Y-0.954
N6620 X-0.186 Y-0.939
N6625 X-0.291 Y-0.912
N6630 X-0.396 Y-0.873
N6635 X-0.494 Y-0.82
N6640 X-0.59 Y-0.754
N6645 X-0.678 Y-0.677
N6650 X-0.754 Y-0.59
N6655 X-0.823 Y-0.49
N6660 X-0.876 Y-0.387
N6665 X-0.917 Y-0.275
N6670 X-0.945 Y-0.159
N6675 X-0.956 Y-0.042
N6680 X-0.955 Y0.079
N6685 X-0.937 Y0.195
N6690 X-0.909 Y0.302
N6695 X-0.873 Y0.395
N6700 X-0.833 Y0.473
N6705 X-0.794 Y0.534
N6710 X-0.762 Y0.58
N6715 X-0.736 Y0.614
N6720 X-0.716 Y0.636
N6725 X-0.703 Y0.65
N6730 X-0.697 Y0.656
N6735 X-0.697 Y0.658
N6740 X-0.7 Y0.653
N6745 X-0.708 Y0.644
N6750 X-0.72 Y0.633
N6755 X-0.732 Y0.617
N6760 X-0.747 Y0.599
N6765 X-0.763 Y0.579
N6770 X-0.78 Y0.556
N6775 X-0.796 Y0.533
N6780 X-0.812 Y0.507
N6785 X-0.829 Y0.48
N6790 X-0.844 Y0.451
N6795 X-0.355 Y0.174
N6800 X-0.281 Y0.103
N6805 X-0.297 Y0.04
N6810 X-0.299 Y-0.024
N6815 X-3.186 Y-0.599
N6820 X-0.435 Y-0.08
N6825 X-0.217 Y-0.037
N6830 X-0.268 Y-0.027
N6835 G03 X-0.513 Y-0.521 I0.083 J-0.594
N6840 G01 X-0.012 Y-0.093 Z0.007
N6845 X-0.011 Y-0.091 Z0.022
N6850 X-0.011 Y-0.086 Z0.036
N6855 X-0.01 Y-0.08 Z0.05
N6860 X-0.009 Y-0.071 Z0.061
N6865 X-0.007 Y-0.06 Z0.071
N6870 X-0.006 Y-0.049 Z0.081
N6875 X-0.005 Y-0.036 Z0.087
N6880 X-0.002 Y-0.022 Z0.091
N6885 X-0.001 Y-0.007 Z0.094
N6890 Z14.4
N6895 X29.63 Y15.305
N6900 Z-13.8
N6905 Z-0.6
N6910 X-0.007 Y-0.002 Z-0.094
N6915 X-0.022 Y-0.005 Z-0.091
N6920 X-0.035 Y-0.007 Z-0.087
N6925 X-0.048 Y-0.011 Z-0.081
N6930 X-0.06 Y-0.013 Z-0.071
N6935 X-0.07 Y-0.015 Z-0.061
N6940 X-0.078 Y-0.017 Z-0.05
N6945 X-0.085 Y-0.019 Z-0.036
N6950 X-0.09 Y-0.019 Z-0.022
N6955 X-0.091 Y-0.02 Z-0.007
N6960 G03 X-0.702 Y-0.353 I0.337 J-1.546
N6965 G01 X-0.306 Y-0.284
N6970 X-1.217 Y-1.118
N6975 X-0.158 Y-0.161
N6980 X-0.139 Y-0.166
N6985 X-0.132 Y-0.185
N6990 X-0.14 Y-0.235
N6995 X-0.125 Y-0.256
N7000 X-0.122 Y-0.309
N7005 X-0.108 Y-0.353
N7010 X-0.087 Y-0.398
N7015 X-0.066 Y-0.481
N7020 X-0.027 Y-0.508
N7025 X0.015 Y-0.613
N7030 X0.075 Y-0.704
N7035 X0.155 Y-0.824
N7040 X0.252 Y-0.924
N7045 X0.317 Y-0.904
N7050 X0.36 Y-0.887
N7055 X0.385 Y-0.877
N7060 X0.395 Y-0.873
N7065 X0.387 Y-0.876
N7070 X0.362 Y-0.886
N7075 X0.319 Y-0.903
N7080 X0.257 Y-0.923
N7085 X0.17 Y-0.942
N7090 X0.068 Y-0.956
N7095 X-0.059 Y-0.956
N7100 X-0.194 Y-0.937
N7105 X-0.343 Y-0.895
N7110 X-0.49 Y-0.822
N7115 X-0.629 Y-0.722
N7120 X-0.755 Y-0.59
N7125 X-0.854 Y-0.433
N7130 X-0.922 Y-0.259
N7135 X-0.955 Y-0.076
N7140 X-0.953 Y0.093
N7145 X-0.928 Y0.236
N7150 X-0.89 Y0.354
N7155 X-0.85 Y0.442
N7160 X-0.811 Y0.509
N7165 X-0.779 Y0.557
N7170 X-0.754 Y0.59
N7175 X-0.737 Y0.612
N7180 X-0.726 Y0.624
N7185 X-1.443 Y1.261
N7190 X-0.725 Y0.625
N7195 X-0.733 Y0.616
N7200 X-0.743 Y0.605
N7205 X-0.755 Y0.589
N7210 X-0.768 Y0.572
N7215 X-0.783 Y0.552
N7220 X-0.796 Y0.532
N7225 X-0.811 Y0.509
N7230 X-0.149 Y0.087
N7235 X-0.257 Y0.117
N7240 X-0.275 Y0.064
N7245 X-0.283 Y0.007
N7250 X-0.278 Y-0.05
N7255 X-1.948 Y-0.556
N7260 X-0.652 Y-0.178
N7265 X-0.435 Y-0.084
N7270 X-0.076 Y-0.014
N7275 G03 X-0.467 Y-0.562 I0.132 J-0.585
N7280 G01 X-0.004 Y-0.094 Z0.007
N7285 X-0.004 Y-0.091 Z0.022
N7290 X-0.003 Y-0.087 Z0.036
N7295 X-0.003 Y-0.08 Z0.05
N7300 X-0.003 Y-0.072 Z0.061
N7305 X-0.002 Y-0.061 Z0.071
N7310 X-0.002 Y-0.049 Z0.081
N7315 X-0.002 Y-0.036 Z0.087
N7320 X-0.001 Y-0.022 Z0.091
N7325 Y-0.007 Z0.094
N7330 Z14.4
N7335 X23.909 Y13.193
N7340 Z-13.8
N7345 Z-0.6
N7350 X-0.007 Y-0.001 Z-0.094
N7355 X-0.022 Y-0.005 Z-0.091
N7360 X-0.035 Y-0.007 Z-0.087
N7365 X-0.048 Y-0.01 Z-0.081
N7370 X-0.06 Y-0.013 Z-0.071
N7375 X-0.07 Y-0.014 Z-0.061
N7380 X-0.079 Y-0.017 Z-0.05
N7385 X-0.085 Y-0.018 Z-0.036
N7390 X-0.09 Y-0.018 Z-0.022
N7395 X-0.091 Y-0.02 Z-0.007
N7400 G03 X-0.705 Y-0.346 I0.324 J-1.549
N7405 G01 X-1.392 Y-1.278
N7410 X-0.166 Y-0.147
N7415 X-0.157 Y-0.154
N7420 X-0.145 Y-0.167
N7425 X-0.139 Y-0.188
N7430 X-0.141 Y-0.227
N7435 X-0.14 Y-0.273
N7440 X-0.124 Y-0.299
N7445 X-0.122 Y-0.375
N7450 X-0.094 Y-0.394
N7455 X-0.076 Y-0.488
N7460 X-0.039 Y-0.532
N7465 X0.005 Y-0.646
N7470 X0.065 Y-0.734
N7475 X0.155 Y-0.917
N7480 X0.235 Y-0.928
N7485 X0.29 Y-0.913
N7490 X0.323 Y-0.901
N7495 X0.336 Y-0.897
N7500 X0.326 Y-0.901
N7505 X0.292 Y-0.912
N7510 X0.225 Y-0.931
N7515 X0.114 Y-0.951
N7520 X-0.064 Y-0.955
N7525 X-0.16 Y-0.452
N7530 X-0.239 Y-0.415
N7535 X-0.318 Y-0.358
N7540 X-0.385 Y-0.284
N7545 X-0.863 Y-0.415
N7550 X-0.95 Y-0.12
N7555 X-0.952 Y0.104
N7560 X-0.92 Y0.268
N7565 X-0.877 Y0.385
N7570 X-0.837 Y0.465
N7575 X-0.804 Y0.52
N7580 X-0.779 Y0.557
N7585 X-0.763 Y0.579
N7590 X-0.754 Y0.591
N7595 X-0.75 Y0.595
N7600 X-0.752 Y0.594
N7605 X-0.756 Y0.587
N7610 X-0.765 Y0.577
N7615 X-0.774 Y0.563
N7620 X-0.785 Y0.549
N7625 X-0.37 Y0.241
N7630 X-0.235 Y0.124
N7635 X-0.254 Y0.077
N7640 X-0.265 Y0.028
N7645 X-0.264 Y-0.023
N7650 X-0.256 Y-0.073
N7655 X-0.354 Y-0.138
N7660 X-0.652 Y-0.242
N7665 X-0.217 Y-0.068
N7670 X-1.532 Y-0.439
N7675 G03 X-0.414 Y-0.602 I0.185 J-0.571
N7680 G01 X0.004 Y-0.093 Z0.007
N7685 X0.005 Y-0.092 Z0.022
N7690 X0.005 Y-0.087 Z0.036
N7695 X0.004 Y-0.08 Z0.05
N7700 X0.004 Y-0.071 Z0.061
N7705 X0.003 Y-0.061 Z0.071
N7710 X0.002 Y-0.05 Z0.081
N7715 X0.002 Y-0.035 Z0.087
N7720 X0.001 Y-0.022 Z0.091
N7725 X0.001 Y-0.008 Z0.094
N7730 Z14.4
N7735 X19.141 Y10.953
N7740 Z-13.8
N7745 Z-0.6
N7750 X-0.008 Y-0.001 Z-0.094
N7755 X-0.021 Y-0.004 Z-0.091
N7760 X-0.036 Y-0.007 Z-0.087
N7765 X-0.048 Y-0.009 Z-0.081
N7770 X-0.06 Y-0.012 Z-0.071
N7775 X-0.07 Y-0.013 Z-0.061
N7780 X-0.079 Y-0.015 Z-0.05
N7785 X-0.086 Y-0.017 Z-0.036
N7790 X-0.09 Y-0.017 Z-0.022
N7795 X-0.092 Y-0.017 Z-0.007
N7800 G03 X-0.711 Y-0.334 I0.296 J-1.555
N7805 G01 X-0.051 Y-0.046
N7810 X-0.507 Y-0.389
N7815 X-0.945 Y-0.718
N7820 X-0.158 Y-0.134
N7825 X-0.114 Y-0.097
N7830 X-0.107 Y-0.105
N7835 X-0.102 Y-0.11
N7840 X-0.095 Y-0.116
N7845 X-0.09 Y-0.12
N7850 X-0.084 Y-0.124
N7855 X-0.078 Y-0.128
N7860 X-0.073 Y-0.131
N7865 X-0.069 Y-0.134
N7870 X-0.063 Y-0.136
N7875 X-0.058 Y-0.138
N7880 X-0.054 Y-0.14
N7885 X-0.049 Y-0.142
N7890 X-0.045 Y-0.143
N7895 X-0.041 Y-0.144
N7900 X-0.037 Y-0.146
N7905 X-0.033 Y-0.146
N7910 X-0.03 Y-0.147
N7915 X-0.025 Y-0.148
N7920 X-0.022 Y-0.148
N7925 X-0.019 Y-0.149
N7930 X-0.015 Y-0.149
N7935 X-0.013 Y-0.15
N7940 X-0.009 Y-0.149
N7945 X-0.007 Y-0.15
N7950 X-0.003 Y-0.15
N7955 X-0.001 Y-0.15
N7960 X0.002 Y-0.15
N7965 X0.004 Y-0.15
N7970 X0.007 Y-0.15
N7975 X0.009 Y-0.15
N7980 X0.011 Y-0.149
N7985 X0.013 Y-0.15
N7990 X0.016 Y-0.149
N7995 X0.017 Y-0.149
N8000 X0.019 Y-0.149
N8005 X0.021 Y-0.148
N8010 X0.023 Y-0.148
N8015 X0.024 Y-0.149
N8020 X0.026 Y-0.147
N8025 X0.027 Y-0.148
N8030 X0.029 Y-0.147
N8035 X0.03 Y-0.147
N8040 X0.031 Y-0.149
N8045 X0.034 Y-0.157
N8050 X0.038 Y-0.166
N8055 X0.051 Y-0.219
N8060 X0.069 Y-0.289
N8065 X0.08 Y-0.321
N8070 X0.208 Y-0.812
N8075 X0.057 Y-0.232
N8080 X0.056 Y-0.233
N8085 X0.014 Y-0.239
N8090 X-0.026 Y-0.238
N8095 X-0.066 Y-0.23
N8100 X-0.105 Y-0.215
N8105 X-0.139 Y-0.195
N8110 X-0.171 Y-0.167
N8115 X-0.197 Y-0.137
N8120 X-0.217 Y-0.1
N8125 X-0.232 Y-0.062
N8130 X-0.238 Y-0.022
N8135 X-0.477 Y0.038
N8140 X-0.88 Y0.379
N8145 X-0.845 Y0.451
N8150 X-0.818 Y0.498
N8155 X-0.799 Y0.528
N8160 X-0.788 Y0.544
N8165 X-1.174 Y0.828
N8170 X-0.435 Y0.305
N8175 X-0.165 Y0.114
N8180 X-0.156 Y0.106
N8185 X-0.132 Y0.089
N8190 X-0.126 Y0.083
N8195 X-0.126 Y0.081
N8200 X-0.162 Y0.102
N8205 X-0.293 Y0.136
N8210 X-0.316 Y0.064
N8215 X-0.323 Y-0.009
N8220 X-0.311 Y-0.083
N8225 X-0.431 Y-0.169
N8230 X-2.473 Y-0.964
N8235 G03 X-0.357 Y-0.637 I0.237 J-0.551
N8240 G01 X0.014 Y-0.093 Z0.007
N8245 X0.013 Y-0.091 Z0.022
N8250 X0.013 Y-0.086 Z0.036
N8255 X0.011 Y-0.079 Z0.05
N8260 X0.01 Y-0.071 Z0.061
N8265 X0.009 Y-0.061 Z0.071
N8270 X0.007 Y-0.048 Z0.081
N8275 X0.006 Y-0.036 Z0.087
N8280 X0.003 Y-0.022 Z0.091
N8285 X0.001 Y-0.007 Z0.094
N8290 Z14.4
N8295 X14.799 Y8.844
N8300 Z-13.8
N8305 Z-0.6
N8310 X-0.007 Z-0.094
N8315 X-0.022 Y-0.003 Z-0.091
N8320 X-0.036 Y-0.004 Z-0.087
N8325 X-0.048 Y-0.006 Z-0.081
N8330 X-0.061 Y-0.006 Z-0.071
N8335 X-0.071 Y-0.009 Z-0.061
N8340 X-0.08 Y-0.009 Z-0.05
N8345 X-0.086 Y-0.01 Z-0.036
N8350 X-0.091 Y-0.01 Z-0.022
N8355 X-0.094 Y-0.011 Z-0.007
N8360 G03 X-0.734 Y-0.279 I0.179 J-1.572
N8365 G01 X-1.81 Y-1.376
N8370 X-0.152 Y-0.128
N8375 X-0.155 Y-0.153
N8380 X-0.159 Y-0.184
N8385 X-0.16 Y-0.221
N8390 X-0.16 Y-0.26
N8395 X-0.155 Y-0.305
N8400 X-0.147 Y-0.358
N8405 X-0.073 Y-0.228
N8410 X-0.111 Y-0.212
N8415 X-0.145 Y-0.191
N8420 X-0.175 Y-0.162
N8425 X-0.201 Y-0.131
N8430 X-0.44 Y-0.189
N8435 X-0.946 Y-0.15
N8440 X-0.935 Y0.056
N8445 X-0.244 Y-0.007
N8450 X-0.239 Y-0.049
N8455 X-0.227 Y-0.09
N8460 G03 X-0.24 Y-0.814 Z0.2 I0.287 J-0.527
N8465 X0.841 Y-0.224 I0.527 J0.287
N8470 G01 X4.883 Y2.998
N8475 G03 X0.176 Y0.857 I-0.314 J0.511
N8480 X-0.836 Y0.145 Z-0.2 I-0.49 J-0.346
N8485 G01 X-0.218 Y-0.165
N8490 X-0.198 Y-0.133
N8495 X-0.693 Y-0.435
N8500 X-2.793 Y-1.74
N8505 X-0.665 Y-0.359
N8510 X-0.217 Y-0.11
N8515 X-3.044 Y-1.525
N8520 X-0.218 Y-0.105
N8525 X-0.163 Y-0.076
N8530 X-0.276 Y-0.109
N8535 G03 X-0.354 Y-0.639 I0.239 J-0.55
N8540 G01 X0.013 Y-0.093 Z0.007
N8545 X0.014 Y-0.09 Z0.022
N8550 X0.013 Y-0.086 Z0.036
N8555 X0.012 Y-0.08 Z0.05
N8560 X0.01 Y-0.071 Z0.061
N8565 X0.009 Y-0.06 Z0.071
N8570 X0.008 Y-0.049 Z0.081
N8575 X0.005 Y-0.035 Z0.087
N8580 X0.003 Y-0.022 Z0.091
N8585 X0.001 Y-0.007 Z0.094
N8590 Z24.4
N8595 X-62.248 Y73.87
N8600 Z-10.
N8605 Z-13.8
N8610 Z-0.6
N8615 X-0.004 Y-0.006 Z-0.094
N8620 X-0.012 Y-0.019 Z-0.091
N8625 X-0.02 Y-0.029 Z-0.087
N8630 X-0.028 Y-0.041 Z-0.081
N8635 X-0.034 Y-0.051 Z-0.071
N8640 X-0.041 Y-0.059 Z-0.061
N8645 X-0.045 Y-0.066 Z-0.05
N8650 X-0.049 Y-0.072 Z-0.036
N8655 X-0.051 Y-0.076 Z-0.022
N8660 X-0.053 Y-0.078 Z-0.007
N8665 G03 X2.393 Y-2.036 I1.307 J-0.888
N8670 G01 X0.799 Y1.305
N8675 X0.081 Y0.122
N8680 X0.375 Y0.531
N8685 X0.124 Y0.197
N8690 X0.158 Y0.3
N8695 X0.121 Y0.283
N8700 X0.106 Y0.318
N8705 X0.099 Y0.398
N8710 X0.082 Y0.507
N8715 X0.047 Y0.566
N8720 X0.001 Y0.506
N8725 X-0.051 Y0.649
N8730 X-0.132 Y0.819
N8735 X-0.152 Y0.622
N8740 X-0.272 Y0.822
N8745 X-0.356 Y0.842
N8750 X-0.391 Y0.75
N8755 X-0.509 Y0.811
N8760 X-0.559 Y0.778
N8765 X-0.591 Y0.754
N8770 X-0.613 Y0.736
N8775 X-0.616 Y0.732
N8780 X-0.594 Y0.752
N8785 X-0.577 Y0.764
N8790 X-0.551 Y0.784
N8795 X-0.51 Y0.81
N8800 X-0.482 Y0.828
N8805 X-0.438 Y0.851
N8810 X-0.392 Y0.874
N8815 X-0.359 Y0.888
N8820 X-0.306 Y0.908
N8825 X-0.256 Y0.923
N8830 X-0.222 Y0.931
N8835 X-0.16 Y0.944
N8840 X-0.112 Y0.951
N8845 X-0.078 Y0.955
N8850 X-0.01 Y0.958
N8855 X0.036 Y0.957
N8860 X0.075 Y0.954
N8865 X0.138 Y0.948
N8870 X0.183 Y0.94
N8875 X0.225 Y0.931
N8880 X0.284 Y0.915
N8885 X0.324 Y0.901
N8890 X0.369 Y0.884
N8895 X0.422 Y0.859
N8900 X0.459 Y0.841
N8905 X0.504 Y0.815
N8910 X0.55 Y0.783
N8915 X0.582 Y0.761
N8920 X0.626 Y0.725
N8925 X0.665 Y0.689
N8930 X0.691 Y0.663
N8935 X0.732 Y0.617
N8940 X0.764 Y0.577
N8945 X0.785 Y0.55
N8950 X0.82 Y0.494
N8955 X0.844 Y0.452
N8960 X0.861 Y0.419
N8965 X0.888 Y0.36
N8970 X0.904 Y0.317
N8975 X0.916 Y0.278
N8980 X0.933 Y0.217
N8985 X0.942 Y0.175
N8990 X0.949 Y0.129
N8995 X0.955 Y0.07
N9000 X0.957 Y0.028
N9005 X0.957 Y-0.022
N9010 X0.955 Y-0.079
N9015 X0.95 Y-0.118
N9020 X0.942 Y-0.173
N9025 X0.931 Y-0.226
N9030 X0.921 Y-0.262
N9035 X0.903 Y-0.319
N9040 X0.884 Y-0.368
N9045 X0.871 Y-0.399
N9050 X0.841 Y-0.458
N9055 X0.817 Y-0.5
N9060 X0.797 Y-0.53
N9065 X0.759 Y-0.584
N9070 X0.73 Y-0.62
N9075 X0.703 Y-0.65
N9080 X0.659 Y-0.695
N9085 X0.626 Y-0.725
N9090 X0.603 Y-0.744
N9095 X0.588 Y-0.757
N9100 X0.576 Y-0.765
N9105 X0.594 Y-0.75
N9110 X0.617 Y-0.733
N9115 X0.637 Y-0.715
N9120 X0.68 Y-0.675
N9125 X0.706 Y-0.647
N9130 X0.743 Y-0.604
N9135 X0.776 Y-0.561
N9140 X0.8 Y-0.527
N9145 X0.836 Y-0.466
N9150 X0.858 Y-0.427
N9155 X0.883 Y-0.37
N9160 X0.904 Y-0.317
N9165 X0.917 Y-0.275
N9170 X0.936 Y-0.205
N9175 X0.944 Y-0.161
N9180 X0.952 Y-0.098
N9185 X0.957 Y-0.041
N9190 X0.958 Y0.005
N9195 X0.955 Y0.076
N9200 X0.95 Y0.12
N9205 X0.939 Y0.185
N9210 X0.928 Y0.239
N9215 X0.914 Y0.284
N9220 X0.892 Y0.35
N9225 X0.874 Y0.392
N9230 X0.845 Y0.45
N9235 X0.818 Y0.499
N9240 X0.791 Y0.539
N9245 X0.751 Y0.594
N9250 X0.722 Y0.629
N9255 X0.677 Y0.678
N9260 X0.637 Y0.715
N9265 X0.61 Y0.738
N9270 X0.591 Y0.754
N9275 X0.579 Y0.763
N9280 X0.589 Y0.755
N9285 X0.613 Y0.736
N9290 X0.629 Y0.722
N9295 X0.663 Y0.691
N9300 X0.694 Y0.66
N9305 X0.716 Y0.636
N9310 X0.753 Y0.592
N9315 X0.781 Y0.554
N9320 X0.8 Y0.526
N9325 X0.834 Y0.471
N9330 X0.857 Y0.429
N9335 X0.871 Y0.397
N9340 X0.897 Y0.336
N9345 X0.912 Y0.293
N9350 X0.923 Y0.254
N9355 X0.938 Y0.194
N9360 X0.946 Y0.15
N9365 X0.952 Y0.105
N9370 X0.956 Y0.046
N9375 X0.958 Y0.004
N9380 X0.957 Y-0.046
N9385 X0.952 Y-0.103
N9390 X0.947 Y-0.143
N9395 X0.937 Y-0.196
N9400 X0.925 Y-0.25
N9405 X0.914 Y-0.285
N9410 X0.894 Y-0.342
N9415 X0.875 Y-0.39
N9420 X0.86 Y-0.422
N9425 X0.829 Y-0.478
N9430 X0.804 Y-0.521
N9435 X0.785 Y-0.55
N9440 X0.743 Y-0.603
N9445 X0.714 Y-0.638
N9450 X0.687 Y-0.668
N9455 X0.641 Y-0.711
N9460 X0.608 Y-0.74
N9465 X0.572 Y-0.768
N9470 X0.523 Y-0.803
N9475 X0.487 Y-0.824
N9480 X0.444 Y-0.849
N9485 X0.392 Y-0.873
N9490 X0.356 Y-0.89
N9495 X0.305 Y-0.908
N9500 X0.252 Y-0.924
N9505 X0.215 Y-0.933
N9510 X0.157 Y-0.944
N9515 X0.106 Y-0.952
N9520 X0.07 Y-0.955
N9525 X0.007 Y-0.958
N9530 X-0.043 Y-0.957
N9535 X-0.077 Y-0.954
N9540 X-0.144 Y-0.947
N9545 X-0.191 Y-0.939
N9550 X-0.228 Y-0.93
N9555 X-0.29 Y-0.912
N9560 X-0.332 Y-0.899
N9565 X-0.373 Y-0.882
N9570 X-0.428 Y-0.857
N9575 X-0.466 Y-0.836
N9580 X-0.506 Y-0.813
N9585 X-0.556 Y-0.78
N9590 X-0.589 Y-0.756
N9595 X-0.608 Y-0.739
N9600 X-0.622 Y-0.729
N9605 X-0.626 Y-0.724
N9610 X-0.592 Y-0.753
N9615 X-0.57 Y-0.77
N9620 X-0.52 Y-0.804
N9625 X-0.475 Y-0.832
N9630 X-0.423 Y-0.859
N9635 X-0.359 Y-0.888
N9640 X-0.155 Y-0.453
N9645 X-0.27 Y-0.919
N9650 X-0.205 Y-0.935
N9655 X-0.141 Y-0.947
N9660 X-0.003 Y-0.041
N9665 X0.005 Y-0.248
N9670 X0.049 Y-0.243
N9675 X0.091 Y-0.231
N9680 X0.131 Y-0.211
N9685 X0.908 Y-1.214
N9690 X0.435 Y-0.617
N9695 X0.081 Y-0.122
N9700 X0.533 Y-0.87
N9705 G03 X0.691 Y-0.238 I0.5 J0.331
N9710 G01 X0.089 Y0.03 Z0.007
N9715 X0.086 Y0.029 Z0.022
N9720 X0.083 Y0.028 Z0.036
N9725 X0.076 Y0.025 Z0.05
N9730 X0.068 Y0.023 Z0.061
N9735 X0.058 Y0.019 Z0.071
N9740 X0.047 Y0.016 Z0.081
N9745 X0.034 Y0.011 Z0.087
N9750 X0.021 Y0.007 Z0.091
N9755 X0.007 Y0.002 Z0.094
N9760 Z14.4
N9765 X-83.12 Y0.838
N9770 Z-13.8
N9775 Z-0.6
N9780 X0.007 Y0.003 Z-0.094
N9785 X0.02 Y0.008 Z-0.091
N9790 X0.033 Y0.015 Z-0.087
N9795 X0.044 Y0.02 Z-0.081
N9800 X0.056 Y0.025 Z-0.071
N9805 X0.066 Y0.029 Z-0.061
N9810 X0.073 Y0.033 Z-0.05
N9815 X0.079 Y0.036 Z-0.036
N9820 X0.084 Y0.037 Z-0.022
N9825 X0.086 Y0.038 Z-0.007
N9830 G03 X0.615 Y0.489 I-0.646 J1.445
N9835 G01 X0.06 Y0.086
N9840 X1.4 Y1.871
N9845 X0.179 Y0.267
N9850 X0.128 Y0.227
N9855 X0.123 Y0.269
N9860 X0.109 Y0.297
N9865 X0.097 Y0.348
N9870 X0.073 Y0.379
N9875 X0.051 Y0.46
N9880 X0.014 Y0.48
N9885 X-0.029 Y0.576
N9890 X-0.08 Y0.608
N9895 X-0.14 Y0.653
N9900 X-0.224 Y0.745
N9905 X-0.321 Y0.824
N9910 X-0.419 Y0.861
N9915 X-0.48 Y0.829
N9920 X-0.526 Y0.8
N9925 X-0.557 Y0.779
N9930 X-0.568 Y0.771
N9935 X-0.569 Y0.77
N9940 X-0.559 Y0.778
N9945 X-0.539 Y0.792
N9950 X-0.513 Y0.808
N9955 X-0.479 Y0.83
N9960 X-0.443 Y0.849
N9965 X-0.397 Y0.871
N9970 X-0.35 Y0.892
N9975 X-0.302 Y0.908
N9980 X-0.249 Y0.925
N9985 X-0.198 Y0.937
N9990 X-0.142 Y0.947
N9995 X-0.084 Y0.954
N10000 X-0.028 Y0.958
N10005 X0.032 Y0.957
N10010 X0.087 Y0.954
N10015 X0.145 Y0.946
N10020 X0.201 Y0.937
N10025 X0.258 Y0.922
N10030 X0.314 Y0.905
N10035 X0.368 Y0.884
N10040 X0.42 Y0.86
N10045 X0.471 Y0.834
N10050 X0.52 Y0.805
N10055 X0.569 Y0.77
N10060 X0.614 Y0.735
N10065 X0.658 Y0.696
N10070 X0.698 Y0.655
N10075 X0.736 Y0.613
N10080 X0.773 Y0.566
N10085 X0.804 Y0.52
N10090 X0.836 Y0.467
N10095 X0.863 Y0.417
N10100 X0.886 Y0.363
N10105 X0.906 Y0.309
N10110 X0.923 Y0.256
N10115 X0.937 Y0.197
N10120 X0.948 Y0.141
N10125 X0.954 Y0.082
N10130 X0.957 Y0.024
N10135 X0.957 Y-0.032
N10140 X0.954 Y-0.091
N10145 X0.946 Y-0.147
N10150 X0.935 Y-0.206
N10155 X0.921 Y-0.262
N10160 X0.904 Y-0.316
N10165 X0.883 Y-0.371
N10170 X0.86 Y-0.422
N10175 X0.832 Y-0.474
N10180 X0.801 Y-0.525
N10185 X0.768 Y-0.573
N10190 X0.731 Y-0.618
N10195 X0.696 Y-0.658
N10200 X0.664 Y-0.69
N10205 X0.638 Y-0.715
N10210 X0.622 Y-0.727
N10215 X0.618 Y-0.733
N10220 X0.62 Y-0.729
N10225 X0.631 Y-0.72
N10230 X0.65 Y-0.704
N10235 X0.669 Y-0.685
N10240 X0.695 Y-0.659
N10245 X0.723 Y-0.628
N10250 X0.748 Y-0.598
N10255 X0.776 Y-0.562
N10260 X0.801 Y-0.524
N10265 X0.825 Y-0.486
N10270 X0.849 Y-0.444
N10275 X0.87 Y-0.401
N10280 X0.888 Y-0.359
N10285 X0.906 Y-0.309
N10290 X0.921 Y-0.263
N10295 X0.933 Y-0.215
N10300 X0.944 Y-0.165
N10305 X0.95 Y-0.118
N10310 X0.955 Y-0.071
N10315 X0.958 Y-0.019
N10320 X0.957 Y0.028
N10325 X0.954 Y0.081
N10330 X0.949 Y0.131
N10335 X0.941 Y0.179
N10340 X0.93 Y0.227
N10345 X0.917 Y0.276
N10350 X0.902 Y0.321
N10355 X0.884 Y0.369
N10360 X0.864 Y0.413
N10365 X0.842 Y0.457
N10370 X0.815 Y0.503
N10375 X0.789 Y0.543
N10380 X0.759 Y0.584
N10385 X0.727 Y0.623
N10390 X0.696 Y0.658
N10395 X0.666 Y0.688
N10400 X0.641 Y0.711
N10405 X0.622 Y0.729
N10410 X0.614 Y0.735
N10415 X0.616 Y0.733
N10420 X0.627 Y0.724
N10425 X0.645 Y0.708
N10430 X0.668 Y0.687
N10435 X0.695 Y0.658
N10440 X0.727 Y0.624
N10445 X0.755 Y0.589
N10450 X0.787 Y0.546
N10455 X0.814 Y0.504
N10460 X0.842 Y0.457
N10465 X0.867 Y0.407
N10470 X0.889 Y0.356
N10475 X0.909 Y0.3
N10480 X0.925 Y0.248
N10485 X0.939 Y0.191
N10490 X0.948 Y0.135
N10495 X0.954 Y0.079
N10500 X0.958 Y0.019
N10505 X0.957 Y-0.038
N10510 X0.952 Y-0.096
N10515 X0.946 Y-0.153
N10520 X0.935 Y-0.209
N10525 X0.92 Y-0.266
N10530 X0.902 Y-0.32
N10535 X0.881 Y-0.376
N10540 X0.857 Y-0.428
N10545 X0.83 Y-0.478
N10550 X0.798 Y-0.529
N10555 X0.767 Y-0.573
N10560 X0.728 Y-0.622
N10565 X0.69 Y-0.665
N10570 X0.648 Y-0.705
N10575 X0.604 Y-0.743
N10580 X0.559 Y-0.777
N10585 X0.511 Y-0.811
N10590 X0.461 Y-0.839
N10595 X0.408 Y-0.867
N10600 X0.355 Y-0.889
N10605 X0.301 Y-0.909
N10610 X0.245 Y-0.926
N10615 X0.192 Y-0.938
N10620 X0.132 Y-0.949
N10625 X0.074 Y-0.955
N10630 X0.017 Y-0.957
N10635 X-0.042 Y-0.957
N10640 X-0.099 Y-0.952
N10645 X-0.156 Y-0.945
N10650 X-0.215 Y-0.934
N10655 X-0.27 Y-0.918
N10660 X-0.327 Y-0.901
N10665 X-0.379 Y-0.879
N10670 X-0.432 Y-0.855
N10675 X-0.482 Y-0.827
N10680 X-0.523 Y-0.802
N10685 X-0.556 Y-0.78
N10690 X-0.579 Y-0.764
N10695 X-0.584 Y-0.758
N10700 X-0.581 Y-0.762
N10705 X-0.567 Y-0.771
N10710 X-0.545 Y-0.788
N10715 X-0.517 Y-0.806
N10720 X-0.484 Y-0.826
N10725 X-0.443 Y-0.85
N10730 X-0.395 Y-0.872
N10735 X-0.348 Y-0.892
N10740 X-0.3 Y-0.91
N10745 X-0.148 Y-0.551
N10750 X-0.044 Y-0.272
N10755 X0.009 Y-0.274
N10760 X0.063 Y-0.268
N10765 X0.114 Y-0.25
N10770 X0.161 Y-0.223
N10775 X0.263 Y-0.3
N10780 X0.179 Y-0.216
N10785 X1.305 Y-1.745
N10790 G03 X0.709 Y-0.173 I0.468 J0.376
N10795 G01 X0.086 Y0.038 Z0.007
N10800 X0.084 Y0.037 Z0.022
N10805 X0.08 Y0.035 Z0.036
N10810 X0.073 Y0.032 Z0.05
N10815 X0.066 Y0.029 Z0.061
N10820 X0.056 Y0.025 Z0.071
N10825 X0.045 Y0.02 Z0.081
N10830 X0.033 Y0.014 Z0.087
N10835 X0.02 Y0.009 Z0.091
N10840 X0.006 Y0.003 Z0.094
N10845 Z14.4
N10850 X-79.721 Y-0.112
N10855 Z-13.8
N10860 Z-0.6
N10865 X0.007 Y0.003 Z-0.094
N10870 X0.02 Y0.008 Z-0.091
N10875 X0.033 Y0.014 Z-0.087
N10880 X0.046 Y0.019 Z-0.081
N10885 X0.056 Y0.023 Z-0.071
N10890 X0.066 Y0.028 Z-0.061
N10895 X0.074 Y0.03 Z-0.05
N10900 X0.081 Y0.033 Z-0.036
N10905 X0.084 Y0.035 Z-0.022
N10910 X0.087 Y0.036 Z-0.007
N10915 G03 X0.629 Y0.471 I-0.605 J1.462
N10920 G01 X0.813 Y1.088
N10925 X0.18 Y0.217
N10930 X0.383 Y0.435
N10935 X0.14 Y0.172
N10940 X0.127 Y0.184
N10945 X0.118 Y0.203
N10950 X0.116 Y0.245
N10955 X0.107 Y0.282
N10960 X0.092 Y0.316
N10965 X0.078 Y0.379
N10970 X0.05 Y0.4
N10975 X0.02 Y0.491
N10980 X-0.019 Y0.505
N10985 X-0.073 Y0.611
N10990 X-0.131 Y0.651
N10995 X-0.213 Y0.744
N11000 X-0.327 Y0.87
N11005 X-0.408 Y0.867
N11010 X-0.462 Y0.839
N11015 X-0.498 Y0.817
N11020 X-0.521 Y0.804
N11025 X-0.53 Y0.798
N11030 X-0.527 Y0.8
N11035 X-0.514 Y0.808
N11040 X-0.491 Y0.822
N11045 X-0.46 Y0.84
N11050 X-0.42 Y0.861
N11055 X-0.375 Y0.881
N11060 X-0.325 Y0.901
N11065 X-0.272 Y0.918
N11070 X-0.21 Y0.935
N11075 X-0.147 Y0.946
N11080 X-0.082 Y0.954
N11085 X-0.017 Y0.958
N11090 X0.05 Y0.956
N11095 X0.118 Y0.95
N11100 X0.187 Y0.94
N11105 X0.254 Y0.923
N11110 X0.318 Y0.903
N11115 X0.382 Y0.878
N11120 X0.446 Y0.848
N11125 X0.506 Y0.813
N11130 X0.564 Y0.774
N11135 X0.617 Y0.732
N11140 X0.669 Y0.686
N11145 X0.717 Y0.635
N11150 X0.762 Y0.58
N11155 X0.802 Y0.523
N11160 X0.838 Y0.464
N11165 X0.868 Y0.404
N11170 X0.896 Y0.338
N11175 X0.919 Y0.27
N11180 X0.936 Y0.204
N11185 X0.948 Y0.136
N11190 X0.955 Y0.067
N11195 X0.958 Y-0.002
N11200 X0.955 Y-0.074
N11205 X0.947 Y-0.142
N11210 X0.934 Y-0.21
N11215 X0.917 Y-0.275
N11220 X0.895 Y-0.343
N11225 X0.866 Y-0.408
N11230 X0.835 Y-0.469
N11235 X0.799 Y-0.529
N11240 X0.762 Y-0.58
N11245 X0.726 Y-0.624
N11250 X0.695 Y-0.659
N11255 X0.671 Y-0.683
N11260 X0.655 Y-0.698
N11265 X1.295 Y-1.412
N11270 X0.653 Y-0.701
N11275 X0.664 Y-0.69
N11280 X0.68 Y-0.674
N11285 X0.698 Y-0.656
N11290 X0.719 Y-0.632
N11295 X0.74 Y-0.608
N11300 X0.763 Y-0.579
N11305 X0.785 Y-0.549
N11310 X0.807 Y-0.515
N11315 X0.829 Y-0.48
N11320 X0.848 Y-0.444
N11325 X0.868 Y-0.406
N11330 X0.884 Y-0.368
N11335 X0.9 Y-0.326
N11340 X0.914 Y-0.287
N11345 X0.926 Y-0.244
N11350 X0.937 Y-0.202
N11355 X0.944 Y-0.159
N11360 X0.951 Y-0.114
N11365 X0.955 Y-0.07
N11370 X0.957 Y-0.027
N11375 X0.958 Y0.018
N11380 X0.956 Y0.062
N11385 X0.951 Y0.106
N11390 X0.946 Y0.149
N11395 X0.939 Y0.193
N11400 X0.928 Y0.235
N11405 X0.916 Y0.28
N11410 X0.902 Y0.321
N11415 X0.886 Y0.363
N11420 X0.869 Y0.403
N11425 X0.849 Y0.443
N11430 X0.828 Y0.482
N11435 X0.805 Y0.519
N11440 X0.78 Y0.555
N11445 X0.753 Y0.591
N11450 X0.727 Y0.624
N11455 X0.7 Y0.653
N11460 X0.677 Y0.678
N11465 X0.657 Y0.697
N11470 X0.644 Y0.709
N11475 X0.637 Y0.715
N11480 X0.639 Y0.713
N11485 X0.649 Y0.705
N11490 X0.666 Y0.688
N11495 X0.689 Y0.665
N11500 X0.716 Y0.636
N11505 X0.746 Y0.6
N11510 X0.777 Y0.56
N11515 X0.809 Y0.513
N11520 X0.84 Y0.461
N11525 X0.868 Y0.404
N11530 X0.893 Y0.346
N11535 X0.914 Y0.285
N11540 X0.932 Y0.222
N11545 X0.945 Y0.153
N11550 X0.954 Y0.085
N11555 X0.958 Y0.018
N11560 X0.956 Y-0.05
N11565 X0.95 Y-0.119
N11570 X0.939 Y-0.188
N11575 X0.923 Y-0.256
N11580 X0.902 Y-0.321
N11585 X0.877 Y-0.385
N11590 X0.847 Y-0.448
N11595 X0.811 Y-0.509
N11600 X0.772 Y-0.567
N11605 X0.728 Y-0.622
N11610 X0.683 Y-0.672
N11615 X0.631 Y-0.719
N11620 X0.577 Y-0.765
N11625 X0.52 Y-0.804
N11630 X0.46 Y-0.84
N11635 X0.399 Y-0.871
N11640 X0.335 Y-0.897
N11645 X0.268 Y-0.92
N11650 X0.2 Y-0.936
N11655 X0.132 Y-0.949
N11660 X0.063 Y-0.955
N11665 X-0.006 Y-0.958
N11670 X-0.076 Y-0.955
N11675 X-0.147 Y-0.946
N11680 X-0.215 Y-0.934
N11685 X-0.281 Y-0.915
N11690 X-0.346 Y-0.893
N11695 X-0.406 Y-0.867
N11700 X-0.457 Y-0.842
N11705 X-0.498 Y-0.818
N11710 X-0.526 Y-0.8
N11715 X-0.543 Y-0.789
N11720 X-0.55 Y-0.784
N11725 X-0.548 Y-0.786
N11730 X-0.538 Y-0.792
N11735 X-0.52 Y-0.804
N11740 X-0.498 Y-0.818
N11745 X-0.469 Y-0.835
N11750 X-0.437 Y-0.852
N11755 X-0.401 Y-0.87
N11760 X-0.363 Y-0.886
N11765 X-0.233 Y-0.682
N11770 X-0.035 Y-0.136
N11775 X-0.041 Y-0.272
N11780 X0.012 Y-0.275
N11785 X0.066 Y-0.267
N11790 X0.118 Y-0.249
N11795 X0.163 Y-0.221
N11800 X1.625 Y-1.798
N11805 X0.121 Y-0.136
N11810 G03 X0.721 Y-0.116 I0.436 J0.412
N11815 G01 X0.083 Y0.045 Z0.007
N11820 X0.08 Y0.043 Z0.022
N11825 X0.077 Y0.041 Z0.036
N11830 X0.07 Y0.039 Z0.05
N11835 X0.063 Y0.034 Z0.061
N11840 X0.054 Y0.029 Z0.071
N11845 X0.043 Y0.023 Z0.081
N11850 X0.032 Y0.017 Z0.087
N11855 X0.019 Y0.011 Z0.091
N11860 X0.007 Y0.003 Z0.094
N11865 Z14.4
N11870 X-76.649 Y-0.62
N11875 Z-13.8
N11880 Z-0.6
N11885 X0.007 Y0.002 Z-0.094
N11890 X0.021 Y0.006 Z-0.091
N11895 X0.034 Y0.011 Z-0.087
N11900 X0.047 Y0.014 Z-0.081
N11905 X0.059 Y0.018 Z-0.071
N11910 X0.068 Y0.021 Z-0.061
N11915 X0.077 Y0.024 Z-0.05
N11920 X0.083 Y0.026 Z-0.036
N11925 X0.087 Y0.027 Z-0.022
N11930 X0.09 Y0.028 Z-0.007
N11935 G03 X0.67 Y0.41 I-0.467 J1.512
N11940 G01 X1.484 Y1.642
N11945 X0.12 Y0.147
N11950 X0.13 Y0.188
N11955 X0.119 Y0.206
N11960 X0.12 Y0.252
N11965 X0.108 Y0.284
N11970 X0.094 Y0.325
N11975 X0.079 Y0.381
N11980 X0.051 Y0.413
N11985 X0.021 Y0.502
N11990 X-0.02 Y0.522
N11995 X-0.074 Y0.624
N12000 X-0.142 Y0.704
N12005 X-0.232 Y0.809
N12010 X-0.337 Y0.897
N12015 X-0.4 Y0.87
N12020 X-0.443 Y0.849
N12025 X-0.473 Y0.833
N12030 X-0.486 Y0.825
N12035 X-0.489 Y0.823
N12040 X-0.478 Y0.83
N12045 X-0.456 Y0.843
N12050 X-0.423 Y0.858
N12055 X-0.383 Y0.878
N12060 X-0.334 Y0.898
N12065 X-0.273 Y0.918
N12070 X-0.206 Y0.935
N12075 X-0.136 Y0.948
N12080 X-0.062 Y0.956
N12085 X0.019 Y0.957
N12090 X0.102 Y0.953
N12095 X0.182 Y0.94
N12100 X0.263 Y0.921
N12105 X0.345 Y0.893
N12110 X0.425 Y0.859
N12115 X0.499 Y0.817
N12120 X0.569 Y0.77
N12125 X0.639 Y0.714
N12130 X0.701 Y0.652
N12135 X0.757 Y0.587
N12140 X0.806 Y0.517
N12145 X0.852 Y0.438
N12150 X0.888 Y0.359
N12155 X0.916 Y0.277
N12160 X0.938 Y0.194
N12165 X0.952 Y0.106
N12170 X0.957 Y0.018
N12175 X0.956 Y-0.069
N12180 X0.945 Y-0.154
N12185 X0.927 Y-0.241
N12190 X0.9 Y-0.326
N12195 X0.869 Y-0.404
N12200 X0.831 Y-0.474
N12205 X0.794 Y-0.537
N12210 X0.757 Y-0.587
N12215 X0.726 Y-0.624
N12220 X0.701 Y-0.652
N12225 X0.685 Y-0.669
N12230 X0.676 Y-0.68
N12235 X0.671 Y-0.682
N12240 X0.675 Y-0.68
N12245 X0.682 Y-0.672
N12250 X0.694 Y-0.661
N12255 X0.707 Y-0.645
N12260 X0.724 Y-0.627
N12265 X0.742 Y-0.605
N12270 X0.761 Y-0.582
N12275 X0.78 Y-0.556
N12280 X0.798 Y-0.529
N12285 X0.818 Y-0.498
N12290 X0.835 Y-0.468
N12295 X0.854 Y-0.435
N12300 X0.87 Y-0.401
N12305 X0.885 Y-0.365
N12310 X0.9 Y-0.329
N12315 X0.522 Y-0.167
N12320 X0.187 Y-0.046
N12325 X0.192 Y-0.02
N12330 X0.193 Y0.006
N12335 X0.383 Y0.04
N12340 X3.48 Y0.325
N12345 X0.217 Y0.018
N12350 X0.217 Y0.012
N12355 X0.435 Y0.003
N12360 X3.48
N12365 X0.435 Y-0.003
N12370 X0.217 Y-0.012
N12375 X0.217 Y-0.018
N12380 X1.74 Y-0.163
N12385 X0.819 Y-0.035
N12390 X0.658 Y0.025
N12395 X0.786 Y0.093
N12400 X0.918 Y0.184
N12405 X0.921 Y0.263
N12410 X0.9 Y0.326
N12415 X0.88 Y0.38
N12420 X0.857 Y0.426
N12425 X0.836 Y0.468
N12430 X0.812 Y0.507
N12435 X0.79 Y0.542
N12440 X0.765 Y0.576
N12445 X0.742 Y0.606
N12450 X0.719 Y0.632
N12455 X0.698 Y0.656
N12460 X0.68 Y0.674
N12465 X0.666 Y0.688
N12470 X0.659 Y0.696
N12475 X0.657 Y0.696
N12480 X0.663 Y0.691
N12485 X0.677 Y0.677
N12490 X0.697 Y0.657
N12495 X0.723 Y0.629
N12500 X0.753 Y0.591
N12505 X0.787 Y0.545
N12510 X0.821 Y0.494
N12515 X0.854 Y0.434
N12520 X0.884 Y0.369
N12525 X0.911 Y0.296
N12530 X0.932 Y0.219
N12535 X0.947 Y0.142
N12540 X0.956 Y0.058
N12545 X0.957 Y-0.027
N12550 X0.951 Y-0.111
N12555 X0.938 Y-0.194
N12560 X0.916 Y-0.279
N12565 X0.887 Y-0.361
N12570 X0.851 Y-0.44
N12575 X0.808 Y-0.514
N12580 X0.757 Y-0.586
N12585 X0.7 Y-0.654
N12590 X0.638 Y-0.715
N12595 X0.571 Y-0.768
N12600 X0.497 Y-0.819
N12605 X0.421 Y-0.86
N12610 X0.34 Y-0.895
N12615 X0.26 Y-0.922
N12620 X0.172 Y-0.942
N12625 X0.085 Y-0.954
N12630 X-0.002 Y-0.958
N12635 X-0.088 Y-0.954
N12640 X-0.176 Y-0.941
N12645 X-0.258 Y-0.922
N12650 X-0.33 Y-0.899
N12655 X-0.392 Y-0.874
N12660 X-0.439 Y-0.851
N12665 X-0.476 Y-0.832
N12670 X-0.499 Y-0.817
N12675 X-0.513 Y-0.809
N12680 X-0.517 Y-0.806
N12685 X-0.514 Y-0.808
N12690 X-0.505 Y-0.814
N12695 X-0.489 Y-0.823
N12700 X-0.469 Y-0.835
N12705 X-0.445 Y-0.848
N12710 X-0.418 Y-0.861
N12715 X-0.379 Y-0.873
N12720 X-0.198 Y-0.58
N12725 X-0.034 Y-0.137
N12730 X-0.043 Y-0.297
N12735 X0.023 Y-0.3
N12740 X0.086 Y-0.289
N12745 X0.145 Y-0.263
N12750 X0.199 Y-0.226
N12755 X0.26 Y-0.24
N12760 X0.362 Y-0.338
N12765 X0.102 Y-0.097
N12770 X0.2 Y-0.217
N12775 X0.734 Y-0.812
N12780 Z15.
N12785 X-32.259 Y15.801
N12790 Z-13.8
N12795 Z-0.6
N12800 X0.006 Y-0.004 Z-0.094
N12805 X0.018 Y-0.013 Z-0.091
N12810 X0.029 Y-0.022 Z-0.087
N12815 X0.04 Y-0.029 Z-0.081
N12820 X0.049 Y-0.036 Z-0.071
N12825 X0.058 Y-0.042 Z-0.061
N12830 X0.065 Y-0.047 Z-0.05
N12835 X0.07 Y-0.051 Z-0.036
N12840 X0.074 Y-0.054 Z-0.022
N12845 X0.076 Y-0.055 Z-0.007
N12850 G03 X0.73 Y-0.291 I0.932 J1.279
N12855 G01 X1.74 Y-0.162
N12860 X0.652 Y-0.067
N12865 X0.217 Y-0.037
N12870 X0.653 Y-0.121
N12875 X0.87 Y-0.163
N12880 X0.363 Y-0.05
N12885 X0.38 Y-0.021
N12890 X0.449 Y0.011
N12895 X0.512 Y0.055
N12900 X0.6 Y0.112
N12905 X0.712 Y0.194
N12910 X0.819 Y0.296
N12915 X0.872 Y0.396
N12920 X0.84 Y0.46
N12925 X0.811 Y0.51
N12930 X0.783 Y0.551
N12935 X0.758 Y0.585
N12940 X0.735 Y0.614
N12945 X0.715 Y0.638
N12950 X0.697 Y0.656
N12955 X0.685 Y0.67
N12960 X0.677 Y0.677
N12965 X0.675 Y0.679
N12970 X0.682 Y0.673
N12975 X0.693 Y0.66
N12980 X0.716 Y0.637
N12985 X0.744 Y0.603
N12990 X0.777 Y0.56
N12995 X0.812 Y0.507
N13000 X0.851 Y0.439
N13005 X0.887 Y0.362
N13010 X0.917 Y0.277
N13015 X0.941 Y0.179
N13020 X0.954 Y0.077
N13025 X0.957 Y-0.029
N13030 X0.948 Y-0.142
N13035 X0.924 Y-0.251
N13040 X0.887 Y-0.359
N13045 X0.837 Y-0.467
N13050 X0.774 Y-0.563
N13055 X0.699 Y-0.655
N13060 X0.612 Y-0.736
N13065 X0.518 Y-0.806
N13070 X0.413 Y-0.864
N13075 X0.302 Y-0.909
N13080 X0.189 Y-0.939
N13085 X0.069 Y-0.955
N13090 X-0.046 Y-0.957
N13095 X-0.152 Y-0.945
N13100 X-0.244 Y-0.926
N13105 X-0.321 Y-0.903
N13110 X-0.379 Y-0.879
N13115 X-0.424 Y-0.859
N13120 X-0.454 Y-0.843
N13125 X-0.473 Y-0.833
N13130 X-0.483 Y-0.827
N13135 X-0.486 Y-0.825
N13140 X-0.48 Y-0.829
N13145 X-0.47 Y-0.834
N13150 X-0.454 Y-0.843
N13155 X-0.434 Y-0.854
N13160 X-0.404 Y-0.868
N13165 X-0.259 Y-0.666
N13170 X-0.156 Y-0.524
N13175 X-0.014 Y-0.064
N13180 X-0.031 Y-0.289
N13185 X0.03 Y-0.288
N13190 X0.088 Y-0.277
N13195 X0.143 Y-0.252
N13200 X0.192 Y-0.217
N13205 X1.779 Y-1.633
N13210 G03 X0.729 Y-0.039 I0.39 J0.456
N13215 G01 X0.078 Y0.053 Z0.007
N13220 X0.075 Y0.052 Z0.022
N13225 X0.072 Y0.049 Z0.036
N13230 X0.066 Y0.045 Z0.05
N13235 X0.059 Y0.041 Z0.061
N13240 X0.051 Y0.034 Z0.071
N13245 X0.04 Y0.028 Z0.081
N13250 X0.03 Y0.021 Z0.087
N13255 X0.018 Y0.012 Z0.091
N13260 X0.006 Y0.004 Z0.094
N13265 Z14.4
N13270 X-27.628 Y13.356
N13275 Z-13.8
N13280 Z-0.6
N13285 X0.005 Y-0.005 Z-0.094
N13290 X0.017 Y-0.014 Z-0.091
N13295 X0.027 Y-0.024 Z-0.087
N13300 X0.037 Y-0.033 Z-0.081
N13305 X0.045 Y-0.04 Z-0.071
N13310 X0.054 Y-0.047 Z-0.061
N13315 X0.06 Y-0.054 Z-0.05
N13320 X0.066 Y-0.057 Z-0.036
N13325 X0.068 Y-0.061 Z-0.022
N13330 X0.071 Y-0.062 Z-0.007
N13335 G03 X0.7 Y-0.356 I1.046 J1.188
N13340 G01 X2.174 Y-0.409
N13345 X0.435 Y-0.084
N13350 X0.435 Y-0.118
N13355 X0.238 Y-0.053
N13360 X0.281 Y-0.038
N13365 X0.344 Y-0.019
N13370 X0.389 Y0.009
N13375 X0.443 Y0.047
N13380 X0.516 Y0.097
N13385 X0.597 Y0.163
N13390 X0.676 Y0.243
N13395 X0.803 Y0.365
N13400 X0.837 Y0.465
N13405 X0.803 Y0.522
N13410 X0.773 Y0.566
N13415 X0.747 Y0.598
N13420 X0.726 Y0.625
N13425 X0.711 Y0.642
N13430 X0.7 Y0.654
N13435 X0.695 Y0.658
N13440 X0.699 Y0.654
N13445 X0.711 Y0.642
N13450 X0.731 Y0.619
N13455 X0.762 Y0.581
N13460 X0.799 Y0.527
N13465 X0.841 Y0.458
N13470 X0.886 Y0.365
N13475 X0.923 Y0.255
N13480 X0.95 Y0.12
N13485 X0.957 Y-0.026
N13490 X0.94 Y-0.186
N13495 X0.891 Y-0.35
N13500 X0.813 Y-0.507
N13505 X0.699 Y-0.654
N13510 X0.559 Y-0.778
N13515 X0.396 Y-0.872
N13520 X0.222 Y-0.932
N13525 X0.062 Y-0.955
N13530 X-0.076 Y-0.955
N13535 X-0.189 Y-0.939
N13540 X-0.276 Y-0.917
N13545 X-0.341 Y-0.895
N13550 X-0.388 Y-0.875
N13555 X-0.42 Y-0.861
N13560 X-0.438 Y-0.851
N13565 X-0.449 Y-0.847
N13570 X-0.451 Y-0.845
N13575 X-0.445 Y-0.847
N13580 X-0.433 Y-0.855
N13585 X-0.41 Y-0.865
N13590 X-0.338 Y-0.81
N13595 X-0.183 Y-0.557
N13600 X-0.087 Y-0.363
N13605 X-0.038 Y-0.321
N13610 X0.036 Y-0.321
N13615 X0.108 Y-0.304
N13620 X0.176 Y-0.271
N13625 X0.233 Y-0.224
N13630 X0.425 Y-0.324
N13635 X0.435 Y-0.334
N13640 X0.217 Y-0.193
N13645 X0.643 Y-0.59
N13650 G03 X0.73 Y-0.039 I0.39 J0.456
N13655 G01 X0.077 Y0.053 Z0.007
N13660 X0.076 Y0.052 Z0.022
N13665 X0.071 Y0.049 Z0.036
N13670 X0.067 Y0.045 Z0.05
N13675 X0.059 Y0.041 Z0.061
N13680 X0.05 Y0.034 Z0.071
N13685 X0.041 Y0.028 Z0.081
N13690 X0.029 Y0.021 Z0.087
N13695 X0.019 Y0.012 Z0.091
N13700 X0.006 Y0.004 Z0.094
N13705 Z14.4
N13710 X-22.742 Y11.202
N13715 Z-13.8
N13720 Z-0.6
N13725 X0.005 Y-0.005 Z-0.094
N13730 X0.016 Y-0.016 Z-0.091
N13735 X0.025 Y-0.026 Z-0.087
N13740 X0.034 Y-0.035 Z-0.081
N13745 X0.042 Y-0.044 Z-0.071
N13750 X0.05 Y-0.052 Z-0.061
N13755 X0.056 Y-0.057 Z-0.05
N13760 X0.06 Y-0.063 Z-0.036
N13765 X0.064 Y-0.066 Z-0.022
N13770 X0.065 Y-0.067 Z-0.007
N13775 G03 X0.669 Y-0.412 I1.138 J1.1
N13780 G01 X0.217 Y-0.06
N13785 X2.392 Y-0.683
N13790 X0.27 Y-0.063
N13795 X0.268 Y-0.04
N13800 X0.328 Y-0.023
N13805 X0.374 Y0.005
N13810 X0.413 Y0.038
N13815 X0.49 Y0.086
N13820 X0.542 Y0.141
N13825 X0.635 Y0.22
N13830 X0.748 Y0.329
N13835 X0.843 Y0.454
N13840 X0.806 Y0.517
N13845 X0.776 Y0.561
N13850 X0.752 Y0.594
N13855 X0.733 Y0.616
N13860 X0.724 Y0.627
N13865 X0.722 Y0.629
N13870 X0.729 Y0.621
N13875 X0.749 Y0.597
N13880 X0.782 Y0.552
N13885 X0.829 Y0.48
N13890 X0.887 Y0.362
N13895 X0.941 Y0.177
N13900 X0.476 Y-0.056
N13905 X0.455 Y-0.148
N13910 X0.413 Y-0.243
N13915 X0.352 Y-0.325
N13920 X0.57 Y-0.769
N13925 X0.3 Y-0.91
N13930 X0.085 Y-0.954
N13935 X-0.076 Y-0.954
N13940 X-0.194 Y-0.938
N13945 X-0.276 Y-0.917
N13950 X-0.334 Y-0.898
N13955 X-0.37 Y-0.883
N13960 X-0.391 Y-0.874
N13965 X-0.399 Y-0.871
N13970 X-0.393 Y-0.873
N13975 X-0.371 Y-0.883
N13980 X-0.282 Y-0.779
N13985 X-0.152 Y-0.554
N13990 X-0.061 Y-0.322
N13995 X-0.023 Y-0.309
N14000 X0.044 Y-0.306
N14005 X0.112 Y-0.289
N14010 X0.171 Y-0.257
N14015 X0.224 Y-0.214
N14020 X1.881 Y-1.429
N14025 G03 X0.73 Y0.029 I0.346 J0.49
N14030 G01 X0.072 Y0.06 Z0.007
N14035 X0.07 Y0.058 Z0.022
N14040 X0.067 Y0.056 Z0.036
N14045 X0.062 Y0.051 Z0.05
N14050 X0.055 Y0.046 Z0.061
N14055 X0.047 Y0.039 Z0.071
N14060 X0.038 Y0.032 Z0.081
N14065 X0.027 Y0.023 Z0.087
N14070 X0.017 Y0.014 Z0.091
N14075 X0.006 Y0.004 Z0.094
N14080 Z14.4
N14085 X-18.368 Y8.919
N14090 Z-13.8
N14095 Z-0.6
N14100 X0.005 Y-0.005 Z-0.094
N14105 X0.015 Y-0.016 Z-0.091
N14110 X0.025 Y-0.026 Z-0.087
N14115 X0.034 Y-0.036 Z-0.081
N14120 X0.042 Y-0.045 Z-0.071
N14125 X0.049 Y-0.052 Z-0.061
N14130 X0.055 Y-0.058 Z-0.05
N14135 X0.06 Y-0.063 Z-0.036
N14140 X0.062 Y-0.067 Z-0.022
N14145 X0.065 Y-0.068 Z-0.007
N14150 G03 X0.663 Y-0.42 I1.152 J1.085
N14155 G01 X1.088 Y-0.312
N14160 X0.217 Y-0.068
N14165 X0.652 Y-0.243
N14170 X0.19 Y-0.074
N14175 X0.332 Y-0.11
N14180 X0.242 Y-0.06
N14185 X0.268 Y-0.043
N14190 X0.327 Y-0.026
N14195 X0.361
N14200 X0.406 Y0.032
N14205 X0.477 Y0.078
N14210 X0.532 Y0.13
N14215 X0.62 Y0.207
N14220 X0.739 Y0.314
N14225 X0.848 Y0.443
N14230 X0.813 Y0.507
N14235 X0.785 Y0.549
N14240 X0.766 Y0.575
N14245 X0.756 Y0.587
N14250 X0.571 Y0.436
N14255 X0.193 Y0.142
N14260 X0.098 Y0.069
N14265 G03 X0.112 Y0.841 Z0.2 I-0.365 J0.477
N14270 X-0.718 Y0.185 I-0.477 J-0.364
N14275 G01 X-8.533 Y-3.755
N14280 G03 X-0.309 Y-0.313 I0.242 J-0.549
N14285 X0.314 Y-0.788 Z-0.2 I0.551 J-0.237
N14290 G01 X2.42 Y-0.942
N14295 X0.211 Y-0.07
N14300 X0.256 Y-0.063
N14305 X0.275 Y-0.045
N14310 X0.337 Y-0.027
N14315 X0.376
N14320 X0.421 Y0.034
N14325 X0.494 Y0.08
N14330 X0.56 Y0.137
N14335 X0.66 Y0.22
N14340 X0.409 Y0.174
N14345 X0.217 Y0.102
N14350 X0.107 Y0.053
N14355 X0.107 Y0.054
N14360 X0.851 Y0.44
N14365 X0.206 Y0.122
N14370 X0.204 Y0.125
N14375 G03 X0.17 Y0.831 Z0.2 I-0.331 J0.5
N14380 X-0.647 Y0.252 I-0.501 J-0.331
N14385 G01 X-5.123 Y-1.286
N14390 G03 X-0.405 Y-0.345 I0.146 J-0.582
N14395 X0.314 Y-0.788 Z-0.2 I0.551 J-0.237
N14400 G01 X0.435 Y-0.17
N14405 X0.488 Y-0.192
N14410 X0.164 Y-0.077
N14415 X0.218 Y-0.105
N14420 X0.652 Y-0.327
N14425 X0.22 Y-0.096
N14430 X0.211 Y-0.074
N14435 X0.249 Y-0.064
N14440 X0.282 Y-0.05
N14445 X0.332 Y-0.03
N14450 X0.408 Y-0.006
N14455 X0.239 Y0.017
N14460 X0.238 Y-0.025
N14465 X0.23 Y-0.065
N14470 X0.216 Y-0.103
N14475 X0.196 Y-0.139
N14480 X0.675 Y-0.679
N14485 X0.159 Y-0.331
N14490 X0.136 Y-0.227
N14495 X0.176 Y-0.197
N14500 X0.21 Y-0.16
N14505 G03 X0.819 Y0.22 Z0.2 I0.299 J0.52
N14510 X-0.237 Y0.829 I-0.52 J0.3
N14515 G01 X-4.189 Y2.236
N14520 G03 X-0.81 Y-0.242 I-0.283 J-0.529
N14525 X0.24 Y-0.814 Z-0.2 I0.527 J-0.287
N14530 G01 X2.46 Y-1.231
N14535 X0.149 Y-0.077
N14540 X0.665 Y-0.358
N14545 X2.815 Y-1.754
N14550 X0.67 Y-0.421
N14555 X0.199 Y-0.134
N14560 X0.739 Y-0.561
N14565 G03 X0.73 Y0.029 I0.346 J0.49
N14570 G01 X0.073 Y0.06 Z0.007
N14575 X0.07 Y0.059 Z0.022
N14580 X0.067 Y0.055 Z0.036
N14585 X0.062 Y0.052 Z0.05
N14590 X0.055 Y0.045 Z0.061
N14595 X0.047 Y0.04 Z0.071
N14600 X0.037 Y0.031 Z0.081
N14605 X0.028 Y0.023 Z0.087
N14610 X0.017 Y0.014 Z0.091
N14615 X0.006 Y0.005 Z0.094
N14620 Z14.4
N14625 X-66.324 Y-7.363
N14630 Z-13.8
N14635 Z-0.6
N14640 X0.007 Y0.002 Z-0.094
N14645 X0.021 Y0.006 Z-0.091
N14650 X0.035 Y0.011 Z-0.087
N14655 X0.047 Y0.014 Z-0.081
N14660 X0.058 Y0.018 Z-0.071
N14665 X0.068 Y0.022 Z-0.061
N14670 X0.077 Y0.023 Z-0.05
N14675 X0.083 Y0.026 Z-0.036
N14680 X0.088 Y0.027 Z-0.022
N14685 X0.089 Y0.028 Z-0.007
N14690 G03 X0.67 Y0.41 I-0.467 J1.512
N14695 G01 X0.875 Y0.968
N14700 X0.2 Y0.217
N14705 X0.102 Y0.097
N14710 X0.129 Y0.121
N14715 X0.173 Y0.178
N14720 X0.122 Y0.148
N14725 X0.13 Y0.187
N14730 X0.126 Y0.215
N14735 X0.119 Y0.248
N14740 X0.117 Y0.302
N14745 X0.095 Y0.322
N14750 X0.084 Y0.401
N14755 X0.054 Y0.419
N14760 X0.024 Y0.513
N14765 X-0.019 Y0.551
N14770 X-0.075 Y0.664
N14775 X-0.148 Y0.751
N14780 X-0.257 Y0.912
N14785 X-0.333 Y0.898
N14790 X-0.386 Y0.876
N14795 X-0.42 Y0.861
N14800 X-0.44 Y0.85
N14805 X-0.445 Y0.849
N14810 X-0.434 Y0.853
N14815 X-0.413 Y0.864
N14820 X-0.377 Y0.881
N14825 X-0.33 Y0.899
N14830 X-0.266 Y0.92
N14835 X-0.192 Y0.938
N14840 X-0.11 Y0.951
N14845 X-0.015 Y0.958
N14850 X0.084 Y0.954
N14855 X0.185 Y0.939
N14860 X0.292 Y0.913
N14865 X0.395 Y0.872
N14870 X0.494 Y0.821
N14875 X0.591 Y0.753
N14880 X0.677 Y0.677
N14885 X0.755 Y0.59
N14890 X0.822 Y0.491
N14895 X0.876 Y0.387
N14900 X0.917 Y0.275
N14905 X0.945 Y0.159
N14910 X0.957 Y0.042
N14915 X0.954 Y-0.079
N14920 X0.938 Y-0.195
N14925 X0.909 Y-0.301
N14930 X0.872 Y-0.395
N14935 X0.833 Y-0.473
N14940 X0.795 Y-0.534
N14945 X0.762 Y-0.581
N14950 X0.735 Y-0.613
N14955 X0.716 Y-0.636
N14960 X0.704 Y-0.65
N14965 X0.697 Y-0.657
N14970 X0.696 Y-0.657
N14975 X0.701 Y-0.653
N14980 X0.708 Y-0.645
N14985 X0.719 Y-0.632
N14990 X0.733 Y-0.617
N14995 X0.747 Y-0.599
N15000 X0.763 Y-0.579
N15005 X0.779 Y-0.557
N15010 X0.796 Y-0.533
N15015 X0.812 Y-0.507
N15020 X0.829 Y-0.48
N15025 X0.845 Y-0.451
N15030 X0.355 Y-0.174
N15035 X0.281 Y-0.103
N15040 X0.297 Y-0.04
N15045 X0.299 Y0.024
N15050 X3.186 Y0.599
N15055 X0.435 Y0.08
N15060 X0.217 Y0.037
N15065 X0.269 Y0.027
N15070 G03 X0.513 Y0.521 I-0.083 J0.594
N15075 G01 X0.011 Y0.093 Z0.007
N15080 X0.012 Y0.091 Z0.022
N15085 X0.01 Y0.086 Z0.036
N15090 X0.01 Y0.08 Z0.05
N15095 X0.009 Y0.071 Z0.061
N15100 X0.008 Y0.06 Z0.071
N15105 X0.006 Y0.049 Z0.081
N15110 X0.004 Y0.036 Z0.087
N15115 X0.003 Y0.022 Z0.091
N15120 X0.001 Y0.007 Z0.094
N15125 Z14.4
N15130 X-29.631 Y-15.304
N15135 Z-13.8
N15140 Z-0.6
N15145 X0.007 Y0.001 Z-0.094
N15150 X0.022 Y0.005 Z-0.091
N15155 X0.035 Y0.008 Z-0.087
N15160 X0.048 Y0.01 Z-0.081
N15165 X0.06 Y0.013 Z-0.071
N15170 X0.07 Y0.016 Z-0.061
N15175 X0.078 Y0.017 Z-0.05
N15180 X0.085 Y0.018 Z-0.036
N15185 X0.09 Y0.02 Z-0.022
N15190 X0.091 Y0.02 Z-0.007
N15195 G03 X0.702 Y0.352 I-0.337 J1.546
N15200 G01 X0.306 Y0.284
N15205 X1.217 Y1.119
N15210 X0.158 Y0.16
N15215 X0.139 Y0.166
N15220 X0.132 Y0.185
N15225 X0.139 Y0.235
N15230 X0.126 Y0.256
N15235 X0.122 Y0.309
N15240 X0.108 Y0.353
N15245 X0.087 Y0.397
N15250 X0.066 Y0.482
N15255 X0.027 Y0.508
N15260 X-0.015 Y0.613
N15265 X-0.075 Y0.703
N15270 X-0.155 Y0.824
N15275 X-0.252 Y0.924
N15280 X-0.316 Y0.904
N15285 X-0.36 Y0.888
N15290 X-0.386 Y0.876
N15295 X-0.395 Y0.873
N15300 X-0.387 Y0.876
N15305 X-0.362 Y0.887
N15310 X-0.319 Y0.903
N15315 X-0.256 Y0.922
N15320 X-0.171 Y0.943
N15325 X-0.068 Y0.955
N15330 X0.058 Y0.956
N15335 X0.195 Y0.938
N15340 X0.343 Y0.894
N15345 X0.49 Y0.822
N15350 X0.629 Y0.723
N15355 X0.755 Y0.589
N15360 X0.853 Y0.434
N15365 X0.922 Y0.259
N15370 X0.955 Y0.076
N15375 X0.953 Y-0.092
N15380 X0.928 Y-0.237
N15385 X0.891 Y-0.353
N15390 X0.849 Y-0.443
N15395 X0.811 Y-0.509
N15400 X0.779 Y-0.557
N15405 X0.755 Y-0.589
N15410 X0.737 Y-0.612
N15415 X0.726 Y-0.625
N15420 X1.442 Y-1.26
N15425 X0.726 Y-0.625
N15430 X0.732 Y-0.617
N15435 X0.743 Y-0.604
N15440 X0.755 Y-0.589
N15445 X0.769 Y-0.572
N15450 X0.782 Y-0.553
N15455 X0.796 Y-0.531
N15460 X0.812 Y-0.509
N15465 X0.149 Y-0.088
N15470 X0.257 Y-0.117
N15475 X0.276 Y-0.064
N15480 X0.282 Y-0.007
N15485 X0.279 Y0.05
N15490 X1.947 Y0.556
N15495 X0.652 Y0.178
N15500 X0.435 Y0.084
N15505 X0.076 Y0.014
N15510 G03 X0.467 Y0.562 I-0.132 J0.585
N15515 G01 X0.004 Y0.094 Z0.007
N15520 X0.004 Y0.091 Z0.022
N15525 X0.003 Y0.087 Z0.036
N15530 X0.003 Y0.08 Z0.05
N15535 X0.003 Y0.072 Z0.061
N15540 X0.002 Y0.061 Z0.071
N15545 X0.002 Y0.049 Z0.081
N15550 X0.002 Y0.036 Z0.087
N15555 X0.001 Y0.022 Z0.091
N15560 Y0.007 Z0.094
N15565 Z14.4
N15570 X-23.909 Y-13.193
N15575 Z-13.8
N15580 Z-0.6
N15585 X0.007 Y0.001 Z-0.094
N15590 X0.022 Y0.005 Z-0.091
N15595 X0.035 Y0.007 Z-0.087
N15600 X0.048 Y0.01 Z-0.081
N15605 X0.06 Y0.013 Z-0.071
N15610 X0.07 Y0.015 Z-0.061
N15615 X0.079 Y0.016 Z-0.05
N15620 X0.085 Y0.018 Z-0.036
N15625 X0.09 Y0.019 Z-0.022
N15630 X0.091 Y0.019 Z-0.007
N15635 G03 X0.705 Y0.347 I-0.324 J1.549
N15640 G01 X1.392 Y1.277
N15645 X0.166 Y0.147
N15650 X0.157 Y0.153
N15655 X0.145 Y0.167
N15660 X0.139 Y0.188
N15665 X0.14 Y0.227
N15670 X0.141 Y0.274
N15675 X0.124 Y0.299
N15680 X0.122 Y0.374
N15685 X0.094 Y0.395
N15690 X0.076 Y0.488
N15695 X0.038 Y0.531
N15700 X-0.004 Y0.646
N15705 X-0.065 Y0.734
N15710 X-0.155 Y0.917
N15715 X-0.235 Y0.928
N15720 X-0.29 Y0.913
N15725 X-0.323 Y0.902
N15730 X-0.336 Y0.897
N15735 X-0.326 Y0.9
N15740 X-0.292 Y0.912
N15745 X-0.225 Y0.931
N15750 X-0.114 Y0.951
N15755 X0.064 Y0.955
N15760 X0.16 Y0.452
N15765 X0.238 Y0.415
N15770 X0.318 Y0.358
N15775 X0.385 Y0.284
N15780 X0.863 Y0.416
N15785 X0.95 Y0.12
N15790 X0.953 Y-0.103
N15795 X0.919 Y-0.269
N15800 X0.877 Y-0.384
N15805 X0.837 Y-0.466
N15810 X0.804 Y-0.52
N15815 X0.78 Y-0.556
N15820 X0.763 Y-0.579
N15825 X0.753 Y-0.591
N15830 X0.75 Y-0.595
N15835 X0.752 Y-0.594
N15840 X0.757 Y-0.587
N15845 X0.764 Y-0.577
N15850 X0.774 Y-0.564
N15855 X0.785 Y-0.548
N15860 X0.371 Y-0.242
N15865 X0.235 Y-0.124
N15870 X0.255 Y-0.077
N15875 X0.264 Y-0.028
N15880 X0.265 Y0.023
N15885 X0.255 Y0.073
N15890 X0.354 Y0.137
N15895 X0.652 Y0.243
N15900 X0.217 Y0.068
N15905 X1.533 Y0.439
N15910 G03 X0.414 Y0.602 I-0.185 J0.571
N15915 G01 X-0.005 Y0.093 Z0.007
N15920 X-0.005 Y0.092 Z0.022
N15925 X-0.004 Y0.087 Z0.036
N15930 X-0.005 Y0.08 Z0.05
N15935 X-0.003 Y0.071 Z0.061
N15940 X-0.003 Y0.061 Z0.071
N15945 X-0.003 Y0.05 Z0.081
N15950 X-0.002 Y0.035 Z0.087
N15955 X-0.001 Y0.022 Z0.091
N15960 Y0.008 Z0.094
N15965 Z14.4
N15970 X-19.141 Y-10.953
N15975 Z-13.8
N15980 Z-0.6
N15985 X0.007 Y0.002 Z-0.094
N15990 X0.022 Y0.004 Z-0.091
N15995 X0.035 Y0.007 Z-0.087
N16000 X0.048 Y0.009 Z-0.081
N16005 X0.061 Y0.011 Z-0.071
N16010 X0.07 Y0.014 Z-0.061
N16015 X0.079 Y0.015 Z-0.05
N16020 X0.085 Y0.016 Z-0.036
N16025 X0.09 Y0.017 Z-0.022
N16030 X0.092 Y0.018 Z-0.007
N16035 G03 X0.711 Y0.333 I-0.296 J1.555
N16040 G01 X0.051 Y0.046
N16045 X0.508 Y0.389
N16050 X0.944 Y0.719
N16055 X0.158 Y0.133
N16060 X0.114 Y0.097
N16065 X0.107 Y0.105
N16070 X0.102 Y0.11
N16075 X0.095 Y0.116
N16080 X0.09 Y0.12
N16085 X0.084 Y0.124
N16090 X0.078 Y0.128
N16095 X0.073 Y0.131
N16100 X0.069 Y0.134
N16105 X0.063 Y0.136
N16110 X0.058 Y0.138
N16115 X0.054 Y0.14
N16120 X0.049 Y0.142
N16125 X0.045 Y0.143
N16130 X0.041 Y0.144
N16135 X0.037 Y0.146
N16140 X0.034 Y0.146
N16145 X0.029 Y0.147
N16150 X0.025 Y0.148
N16155 X0.022 Y0.148
N16160 X0.019 Y0.149
N16165 X0.015 Y0.149
N16170 X0.013 Y0.15
N16175 X0.009 Y0.149
N16180 X0.007 Y0.15
N16185 X0.003 Y0.15
N16190 X0.001 Y0.15
N16195 X-0.002 Y0.15
N16200 X-0.004 Y0.15
N16205 X-0.007 Y0.15
N16210 X-0.009 Y0.15
N16215 X-0.011 Y0.149
N16220 X-0.013 Y0.15
N16225 X-0.016 Y0.149
N16230 X-0.017 Y0.149
N16235 X-0.019 Y0.149
N16240 X-0.021 Y0.148
N16245 X-0.023 Y0.148
N16250 X-0.024 Y0.148
N16255 X-0.026 Y0.148
N16260 X-0.027 Y0.148
N16265 X-0.029 Y0.147
N16270 X-0.03 Y0.147
N16275 X-0.031 Y0.149
N16280 X-0.034 Y0.157
N16285 X-0.038 Y0.166
N16290 X-0.051 Y0.219
N16295 X-0.069 Y0.289
N16300 X-0.08 Y0.32
N16305 X-0.208 Y0.812
N16310 X-0.057 Y0.233
N16315 X-0.056 Y0.233
N16320 X-0.014 Y0.239
N16325 X0.026 Y0.238
N16330 X0.066 Y0.23
N16335 X0.105 Y0.215
N16340 X0.139 Y0.194
N16345 X0.171 Y0.168
N16350 X0.197 Y0.136
N16355 X0.217 Y0.101
N16360 X0.232 Y0.062
N16365 X0.238 Y0.022
N16370 X0.477 Y-0.038
N16375 X0.88 Y-0.379
N16380 X0.845 Y-0.451
N16385 X0.818 Y-0.498
N16390 X0.799 Y-0.528
N16395 X0.788 Y-0.544
N16400 X1.174 Y-0.828
N16405 X0.436 Y-0.306
N16410 X0.165 Y-0.114
N16415 X0.155 Y-0.106
N16420 X0.133 Y-0.089
N16425 X0.125 Y-0.082
N16430 X0.126 Y-0.082
N16435 X0.163 Y-0.101
N16440 X0.292 Y-0.136
N16445 X0.316 Y-0.064
N16450 X0.323 Y0.009
N16455 X0.311 Y0.083
N16460 X0.431 Y0.169
N16465 X2.473 Y0.964
N16470 G03 X0.357 Y0.637 I-0.237 J0.551
N16475 G01 X-0.014 Y0.093 Z0.007
N16480 X-0.013 Y0.091 Z0.022
N16485 X-0.012 Y0.086 Z0.036
N16490 X-0.012 Y0.079 Z0.05
N16495 X-0.01 Y0.071 Z0.061
N16500 X-0.009 Y0.061 Z0.071
N16505 X-0.007 Y0.048 Z0.081
N16510 X-0.005 Y0.036 Z0.087
N16515 X-0.003 Y0.022 Z0.091
N16520 X-0.001 Y0.007 Z0.094
N16525 Z14.4
N16530 X-14.8 Y-8.844
N16535 Z-13.8
N16540 Z-0.6
N16545 X0.007 Y0.001 Z-0.094
N16550 X0.022 Y0.002 Z-0.091
N16555 X0.036 Y0.004 Z-0.087
N16560 X0.049 Y0.006 Z-0.081
N16565 X0.06 Y0.007 Z-0.071
N16570 X0.072 Y0.008 Z-0.061
N16575 X0.079 Y0.009 Z-0.05
N16580 X0.087 Y0.01 Z-0.036
N16585 X0.091 Y0.01 Z-0.022
N16590 X0.093 Y0.011 Z-0.007
N16595 G03 X0.734 Y0.28 I-0.179 J1.572
N16600 G01 X1.81 Y1.375
N16605 X0.152 Y0.128
N16610 X0.155 Y0.153
N16615 X0.159 Y0.184
N16620 X0.16 Y0.221
N16625 X0.16 Y0.26
N16630 X0.155 Y0.305
N16635 X0.147 Y0.358
N16640 X0.073 Y0.228
N16645 X0.111 Y0.212
N16650 X0.145 Y0.191
N16655 X0.175 Y0.162
N16660 X0.201 Y0.131
N16665 X0.44 Y0.189
N16670 X0.946 Y0.15
N16675 X0.934 Y-0.055
N16680 X0.244 Y0.006
N16685 X0.239 Y0.049
N16690 X0.227 Y0.09
N16695 G03 X0.24 Y0.814 Z0.2 I-0.287 J0.527
N16700 X-0.841 Y0.224 I-0.527 J-0.287
N16705 G01 X-4.882 Y-2.998
N16710 G03 X-0.176 Y-0.857 I0.314 J-0.511
N16715 X0.836 Y-0.145 Z-0.2 I0.49 J0.346
N16720 G01 X0.218 Y0.165
N16725 X0.199 Y0.134
N16730 X0.692 Y0.435
N16735 X2.793 Y1.74
N16740 X0.665 Y0.358
N16745 X0.217 Y0.111
N16750 X3.044 Y1.524
N16755 X0.218 Y0.105
N16760 X0.164 Y0.077
N16765 X0.275 Y0.108
N16770 G03 X0.355 Y0.639 I-0.239 J0.55
N16775 G01 X-0.014 Y0.093 Z0.007
N16780 X-0.014 Y0.09 Z0.022
N16785 X-0.013 Y0.086 Z0.036
N16790 X-0.012 Y0.08 Z0.05
N16795 X-0.01 Y0.07 Z0.061
N16800 X-0.009 Y0.061 Z0.071
N16805 X-0.007 Y0.049 Z0.081
N16810 X-0.006 Y0.035 Z0.087
N16815 X-0.003 Y0.022 Z0.091
N16820 X-0.001 Y0.007 Z0.094
N16825 Z24.4
N16830 G90
(WHEN USING FUSION 360 FOR PERSONAL USE, THE FEEDRATE OF)
(RAPID MOVES IS REDUCED TO MATCH THE FEEDRATE OF CUTTING)
(MOVES, WHICH CAN INCREASE MACHINING TIME. UNRESTRICTED RAPID)
(MOVES ARE AVAILABLE WITH A FUSION 360 SUBSCRIPTION.)

(2D POCKET1 2)
N16835 G00 X25.6 Y33.355
N16840 G91
N16845 G01 Z-10. F1000.
N16850 Z-11.46
N16855 X-0.002 Y0.007 Z-0.084
N16860 X-0.007 Y0.018 Z-0.083
N16865 X-0.012 Y0.03 Z-0.078
N16870 X-0.016 Y0.042 Z-0.072
N16875 X-0.019 Y0.051 Z-0.065
N16880 X-0.023 Y0.06 Z-0.055
N16885 X-0.026 Y0.068 Z-0.044
N16890 X-0.028 Y0.073 Z-0.033
N16895 X-0.03 Y0.077 Z-0.019
N16900 X-0.03 Y0.078 Z-0.007
N16905 X-0.137 Y0.358
N16910 X-0.041 Y0.085
N16915 X-1.569 Y2.718
N16920 X-8.84 Y15.311
N16925 X-1.254 Y2.173
N16930 X-0.054 Y0.077
N16935 X-0.206 Y0.255
N16940 X-0.059 Y0.073 Z0.007
N16945 X-0.058 Y0.071 Z0.022
N16950 X-0.055 Y0.068 Z0.036
N16955 X-0.05 Y0.062 Z0.05
N16960 X-0.045 Y0.056 Z0.061
N16965 X-0.039 Y0.047 Z0.071
N16970 X-0.031 Y0.039 Z0.081
N16975 X-0.022 Y0.028 Z0.087
N16980 X-0.014 Y0.017 Z0.091
N16985 X-0.005 Y0.005 Z0.094
N16990 Z11.4
N16995 X-2.306 Y-1.415
N17000 Z-11.46
N17005 X0.002 Y-0.006 Z-0.084
N17010 X0.007 Y-0.019 Z-0.083
N17015 X0.012 Y-0.03 Z-0.078
N17020 X0.016 Y-0.041 Z-0.072
N17025 X0.019 Y-0.052 Z-0.065
N17030 X0.023 Y-0.06 Z-0.055
N17035 X0.026 Y-0.067 Z-0.044
N17040 X0.028 Y-0.073 Z-0.033
N17045 X0.03 Y-0.077 Z-0.019
N17050 X0.03 Y-0.079 Z-0.007
N17055 X0.115 Y-0.299
N17060 X0.04 Y-0.085
N17065 X1.252 Y-2.168
N17070 X8.84 Y-15.311
N17075 X1.572 Y-2.723
N17080 X0.053 Y-0.078
N17085 X0.207 Y-0.255
N17090 X0.059 Y-0.073 Z0.007
N17095 X0.057 Y-0.071 Z0.022
N17100 X0.055 Y-0.067 Z0.036
N17105 X0.051 Y-0.063 Z0.05
N17110 X0.045 Y-0.055 Z0.061
N17115 X0.038 Y-0.048 Z0.071
N17120 X0.031 Y-0.038 Z0.081
N17125 X0.023 Y-0.028 Z0.087
N17130 X0.014 Y-0.017 Z0.091
N17135 X0.004 Y-0.006 Z0.094
N17140 Z21.4
N17145 X-36.206 Y23.297
N17150 Z-10.
N17155 Z-11.46
N17160 X-0.004 Y-0.006 Z-0.084
N17165 X-0.013 Y-0.015 Z-0.083
N17170 X-0.02 Y-0.025 Z-0.078
N17175 X-0.028 Y-0.035 Z-0.072
N17180 X-0.035 Y-0.042 Z-0.065
N17185 X-0.04 Y-0.05 Z-0.055
N17190 X-0.046 Y-0.057 Z-0.044
N17195 X-0.049 Y-0.06 Z-0.033
N17200 X-0.052 Y-0.065 Z-0.019
N17205 X-0.053 Y-0.065 Z-0.007
N17210 X-0.236 Y-0.292
N17215 X-0.053 Y-0.077
N17220 X-1.256 Y-2.175
N17225 X-8.84 Y-15.311
N17230 X-1.572 Y-2.723
N17235 X-0.04 Y-0.085
N17240 X-0.118 Y-0.306
N17245 X-0.034 Y-0.088 Z0.007
N17250 X-0.033 Y-0.085 Z0.022
N17255 X-0.031 Y-0.082 Z0.036
N17260 X-0.028 Y-0.075 Z0.05
N17265 X-0.026 Y-0.066 Z0.061
N17270 X-0.022 Y-0.057 Z0.071
N17275 X-0.018 Y-0.046 Z0.081
N17280 X-0.013 Y-0.034 Z0.087
N17285 X-0.007 Y-0.021 Z0.091
N17290 X-0.003 Y-0.006 Z0.094
N17295 Z11.4
N17300 X2.36 Y-1.316
N17305 Z-11.46
N17310 X0.004 Y0.006 Z-0.084
N17315 X0.013 Y0.015 Z-0.083
N17320 X0.02 Y0.025 Z-0.078
N17325 X0.028 Y0.034 Z-0.072
N17330 X0.035 Y0.043 Z-0.065
N17335 X0.04 Y0.05 Z-0.055
N17340 X0.046 Y0.056 Z-0.044
N17345 X0.049 Y0.061 Z-0.033
N17350 X0.052 Y0.064 Z-0.019
N17355 X0.053 Y0.066 Z-0.007
N17360 X0.216 Y0.267
N17365 X0.054 Y0.078
N17370 X1.573 Y2.725
N17375 X8.84 Y15.311
N17380 X1.254 Y2.173
N17385 X0.041 Y0.085
N17390 X0.118 Y0.306
N17395 X0.033 Y0.088 Z0.007
N17400 X0.033 Y0.085 Z0.022
N17405 X0.031 Y0.081 Z0.036
N17410 X0.029 Y0.075 Z0.05
N17415 X0.026 Y0.067 Z0.061
N17420 X0.021 Y0.057 Z0.071
N17425 X0.018 Y0.046 Z0.081
N17430 X0.013 Y0.034 Z0.087
N17435 X0.008 Y0.02 Z0.091
N17440 X0.003 Y0.007 Z0.094
N17445 Z21.4
N17450 X-38.278 Y19.698
N17455 Z-10.
N17460 Z-11.46
N17465 X0.006 Y-0.001 Z-0.084
N17470 X0.02 Y-0.003 Z-0.083
N17475 X0.032 Y-0.005 Z-0.078
N17480 X0.044 Y-0.007 Z-0.072
N17485 X0.054 Y-0.009 Z-0.065
N17490 X0.064 Y-0.01 Z-0.055
N17495 X0.071 Y-0.011 Z-0.044
N17500 X0.077 Y-0.012 Z-0.033
N17505 X0.082 Y-0.013 Z-0.019
N17510 X0.083 Y-0.014 Z-0.007
N17515 X0.386 Y-0.061
N17520 X0.094 Y-0.007
N17525 X20.817
N17530 X2.509
N17535 X0.094 Y0.007
N17540 X0.324 Y0.052
N17545 X0.092 Y0.014 Z0.007
N17550 X0.091 Y0.015 Z0.022
N17555 X0.086 Y0.013 Z0.036
N17560 X0.079 Y0.013 Z0.05
N17565 X0.071 Y0.011 Z0.061
N17570 X0.06 Y0.01 Z0.071
N17575 X0.049 Y0.007 Z0.081
N17580 X0.035 Y0.006 Z0.087
N17585 X0.022 Y0.003 Z0.091
N17590 X0.007 Y0.002 Z0.094
N17595 Z11.4
N17600 X-0.01 Y2.696
N17605 Z-11.46
N17610 X-0.007 Y0.002 Z-0.084
N17615 X-0.019 Y0.003 Z-0.083
N17620 X-0.032 Y0.005 Z-0.078
N17625 X-0.044 Y0.007 Z-0.072
N17630 X-0.054 Y0.008 Z-0.065
N17635 X-0.064 Y0.01 Z-0.055
N17640 X-0.071 Y0.012 Z-0.044
N17645 X-0.077 Y0.012 Z-0.033
N17650 X-0.082 Y0.013 Z-0.019
N17655 X-0.083 Y0.013 Z-0.007
N17660 X-0.371 Y0.059
N17665 X-0.094 Y0.007
N17670 X-23.335
N17675 X-0.094 Y-0.007
N17680 X-0.324 Y-0.052
N17685 X-0.093 Y-0.014 Z0.007
N17690 X-0.09 Y-0.015 Z0.022
N17695 X-0.086 Y-0.013 Z0.036
N17700 X-0.079 Y-0.013 Z0.05
N17705 X-0.071 Y-0.011 Z0.061
N17710 X-0.06 Y-0.01 Z0.071
N17715 X-0.049 Y-0.007 Z0.081
N17720 X-0.035 Y-0.006 Z0.087
N17725 X-0.022 Y-0.003 Z0.091
N17730 X-0.007 Y-0.002 Z0.094
N17735 Z21.4
N17740 X23.298 Y40.239
N17745 Z-10.
N17750 Z-11.46
N17755 X0.002 Y-0.006 Z-0.084
N17760 X0.008 Y-0.018 Z-0.083
N17765 X0.011 Y-0.031 Z-0.078
N17770 X0.016 Y-0.041 Z-0.072
N17775 X0.02 Y-0.051 Z-0.065
N17780 X0.023 Y-0.06 Z-0.055
N17785 X0.026 Y-0.068 Z-0.044
N17790 X0.028 Y-0.073 Z-0.033
N17795 X0.029 Y-0.077 Z-0.019
N17800 X0.031 Y-0.079 Z-0.007
N17805 X0.114 Y-0.299
N17810 X0.041 Y-0.085
N17815 X1.569 Y-2.718
N17820 X8.84 Y-15.311
N17825 X1.254 Y-2.173
N17830 X0.054 Y-0.077
N17835 X0.206 Y-0.255
N17840 X0.059 Y-0.073 Z0.007
N17845 X0.058 Y-0.071 Z0.022
N17850 X0.055 Y-0.068 Z0.036
N17855 X0.05 Y-0.062 Z0.05
N17860 X0.045 Y-0.056 Z0.061
N17865 X0.039 Y-0.047 Z0.071
N17870 X0.031 Y-0.039 Z0.081
N17875 X0.022 Y-0.028 Z0.087
N17880 X0.014 Y-0.017 Z0.091
N17885 X0.005 Y-0.006 Z0.094
N17890 Z11.4
N17895 X2.326 Y1.365
N17900 Z-11.46
N17905 X-0.002 Y0.006 Z-0.084
N17910 X-0.007 Y0.019 Z-0.083
N17915 X-0.012 Y0.03 Z-0.078
N17920 X-0.016 Y0.041 Z-0.072
N17925 X-0.02 Y0.052 Z-0.065
N17930 X-0.023 Y0.06 Z-0.055
N17935 X-0.026 Y0.067 Z-0.044
N17940 X-0.028 Y0.073 Z-0.033
N17945 X-0.029 Y0.077 Z-0.019
N17950 X-0.03 Y0.079 Z-0.007
N17955 X-0.135 Y0.35
N17960 X-0.04 Y0.085
N17965 X-1.252 Y2.168
N17970 X-8.84 Y15.311
N17975 X-1.572 Y2.723
N17980 X-0.053 Y0.078
N17985 X-0.207 Y0.255
N17990 X-0.059 Y0.073 Z0.007
N17995 X-0.057 Y0.071 Z0.022
N18000 X-0.055 Y0.067 Z0.036
N18005 X-0.051 Y0.063 Z0.05
N18010 X-0.045 Y0.055 Z0.061
N18015 X-0.038 Y0.048 Z0.071
N18020 X-0.031 Y0.038 Z0.081
N18025 X-0.023 Y0.028 Z0.087
N18030 X-0.014 Y0.017 Z0.091
N18035 X-0.004 Y0.006 Z0.094
N18040 Z21.4
N18045 X36.221 Y-23.278
N18050 Z-10.
N18055 Z-11.46
N18060 X0.004 Y0.005 Z-0.084
N18065 X0.013 Y0.015 Z-0.083
N18070 X0.02 Y0.025 Z-0.078
N18075 X0.028 Y0.035 Z-0.072
N18080 X0.034 Y0.043 Z-0.065
N18085 X0.041 Y0.05 Z-0.055
N18090 X0.045 Y0.056 Z-0.044
N18095 X0.05 Y0.061 Z-0.033
N18100 X0.052 Y0.064 Z-0.019
N18105 X0.053 Y0.065 Z-0.007
N18110 X0.221 Y0.274
N18115 X0.053 Y0.077
N18120 X1.256 Y2.175
N18125 X8.84 Y15.311
N18130 X1.572 Y2.723
N18135 X0.04 Y0.085
N18140 X0.118 Y0.306
N18145 X0.034 Y0.088 Z0.007
N18150 X0.033 Y0.086 Z0.022
N18155 X0.031 Y0.081 Z0.036
N18160 X0.028 Y0.075 Z0.05
N18165 X0.026 Y0.067 Z0.061
N18170 X0.022 Y0.057 Z0.071
N18175 X0.018 Y0.046 Z0.081
N18180 X0.013 Y0.033 Z0.087
N18185 X0.007 Y0.021 Z0.091
N18190 X0.003 Y0.007 Z0.094
N18195 Z11.4
N18200 X-2.341 Y1.339
N18205 Z-11.46
N18210 X-0.004 Y-0.005 Z-0.084
N18215 X-0.012 Y-0.016 Z-0.083
N18220 X-0.021 Y-0.025 Z-0.078
N18225 X-0.028 Y-0.034 Z-0.072
N18230 X-0.034 Y-0.043 Z-0.065
N18235 X-0.041 Y-0.05 Z-0.055
N18240 X-0.045 Y-0.056 Z-0.044
N18245 X-0.05 Y-0.061 Z-0.033
N18250 X-0.051 Y-0.064 Z-0.019
N18255 X-0.054 Y-0.066 Z-0.007
N18260 X-0.236 Y-0.291
N18265 X-0.053 Y-0.078
N18270 X-1.573 Y-2.725
N18275 X-8.84 Y-15.311
N18280 X-1.254 Y-2.172
N18285 X-0.041 Y-0.085
N18290 X-0.118 Y-0.307
N18295 X-0.033 Y-0.087 Z0.007
N18300 X-0.033 Y-0.086 Z0.022
N18305 X-0.031 Y-0.081 Z0.036
N18310 X-0.029 Y-0.075 Z0.05
N18315 X-0.026 Y-0.067 Z0.061
N18320 X-0.021 Y-0.057 Z0.071
N18325 X-0.018 Y-0.046 Z0.081
N18330 X-0.013 Y-0.033 Z0.087
N18335 X-0.008 Y-0.021 Z0.091
N18340 X-0.003 Y-0.007 Z0.094
N18345 Z21.4
N18350 X38.263 Y-19.696
N18355 Z-10.
N18360 Z-11.46
N18365 X-0.007 Y0.002 Z-0.084
N18370 X-0.019 Y0.003 Z-0.083
N18375 X-0.032 Y0.005 Z-0.078
N18380 X-0.044 Y0.007 Z-0.072
N18385 X-0.055 Y0.008 Z-0.065
N18390 X-0.063 Y0.01 Z-0.055
N18395 X-0.072 Y0.012 Z-0.044
N18400 X-0.077 Y0.012 Z-0.033
N18405 X-0.081 Y0.013 Z-0.019
N18410 X-0.084 Y0.013 Z-0.007
N18415 X-0.37 Y0.059
N18420 X-0.094 Y0.007
N18425 X-20.817
N18430 X-2.509
N18435 X-0.094 Y-0.007
N18440 X-0.324 Y-0.052
N18445 X-0.092 Y-0.014 Z0.007
N18450 X-0.091 Y-0.015 Z0.022
N18455 X-0.086 Y-0.013 Z0.036
N18460 X-0.079 Y-0.013 Z0.05
N18465 X-0.071 Y-0.011 Z0.061
N18470 X-0.06 Y-0.01 Z0.071
N18475 X-0.049 Y-0.007 Z0.081
N18480 X-0.035 Y-0.006 Z0.087
N18485 X-0.022 Y-0.003 Z0.091
N18490 X-0.007 Y-0.002 Z0.094
N18495 Z11.4
N18500 X0.01 Y-2.696
N18505 Z-11.46
N18510 X0.007 Y-0.002 Z-0.084
N18515 X0.019 Y-0.003 Z-0.083
N18520 X0.032 Y-0.005 Z-0.078
N18525 X0.044 Y-0.007 Z-0.072
N18530 X0.054 Y-0.008 Z-0.065
N18535 X0.064 Y-0.01 Z-0.055
N18540 X0.071 Y-0.012 Z-0.044
N18545 X0.077 Y-0.012 Z-0.033
N18550 X0.082 Y-0.013 Z-0.019
N18555 X0.083 Y-0.013 Z-0.007
N18560 X0.371 Y-0.059
N18565 X0.094 Y-0.007
N18570 X23.335
N18575 X0.094 Y0.007
N18580 X0.324 Y0.052
N18585 X0.093 Y0.014 Z0.007
N18590 X0.09 Y0.015 Z0.022
N18595 X0.086 Y0.013 Z0.036
N18600 X0.079 Y0.013 Z0.05
N18605 X0.071 Y0.011 Z0.061
N18610 X0.06 Y0.01 Z0.071
N18615 X0.049 Y0.007 Z0.081
N18620 X0.035 Y0.006 Z0.087
N18625 X0.022 Y0.003 Z0.091
N18630 X0.007 Y0.002 Z0.094
N18635 Z21.4
N18640 G90

N18645 M09
N18650 G28 G91 Z0.
N18655 G49
N18660 G28 X0. Y0.
N18665 M30
%
