%
O1001
(T1 D=6. CR=0. - ZMIN=-30.5 - FLAT END MILL)
N10 G90 G94 G17 G49 G40 G80
N15 G21
(WHEN USING FUSION 360 FOR PERSONAL USE, THE FEEDRATE OF)
(RAPID MOVES IS REDUCED TO MATCH THE FEEDRATE OF CUTTING)
(MOVES, WHICH CAN INCREASE MACHINING TIME. UNRESTRICTED RAPID)
(MOVES ARE AVAILABLE WITH A FUSION 360 SUBSCRIPTION.)
N20 G28 G91 Z0.
N25 G90

(2D CONTOUR4 2)
N30 T1 M06
N35 S5000 M03
N40 G54
N45 M08
N50 G00 X22.7 Y74.4
N55 G43 Z10. H01
N60 G91
N65 G01 Z-7. F1000.
N70 Z-1.
N75 Z-31.9 F333.
N80 G18 G02 X0.6 Z-0.6 I0.6 F1000.
N85 G01 X0.6
N90 G17 G03 X0.6 Y0.6 J0.6
N95 X-49. I-24.5
N100 X49. I24.5
N105 X-0.6 Y0.6 I-0.6
N110 G01 X-0.6
N115 G18 G03 X-0.6 Z0.6 K0.6
N120 G01 Z34.9
N125 X1.275 Y80.274
N130 Z-2.
N135 Z-32.9 F333.
N140 X0.001 Y-0.007 Z-0.094 F1000.
N145 X0.004 Y-0.022 Z-0.091
N150 X0.007 Y-0.035 Z-0.087
N155 X0.009 Y-0.048 Z-0.081
N160 X0.011 Y-0.06 Z-0.071
N165 X0.013 Y-0.071 Z-0.061
N170 X0.015 Y-0.079 Z-0.05
N175 X0.016 Y-0.085 Z-0.036
N180 X0.017 Y-0.09 Z-0.022
N185 X0.017 Y-0.092 Z-0.007
N190 X1.349 Y-7.203
N195 G17 G03 X0.7 Y-0.479 I0.59 J0.11
N200 G02 X18.103 Y-36.079 I3.866 J-20.641
N205 G03 X-2.181 Y-13.388 I7.457 J-8.086
N210 G02 Y-46.272 I-42.056 J-23.136
N215 G03 X2.181 Y-13.388 I9.638 J-5.302
N220 G02 X-0.976 Y-31.721 I-14.237 J-15.437
N225 X-31.261 Y5.467 I-13.261 J16.283
N230 G03 X-24. I-12. J-7.211
N235 G02 X-31.261 Y-5.467 I-18. J10.817
N240 X-0.976 Y31.721 I13.261 J16.283
N245 G03 X2.181 Y13.388 I-7.457 J8.086
N250 G02 Y46.272 I42.056 J23.136
N255 G03 X-2.181 Y13.388 I-9.638 J5.302
N260 G02 X0.975 Y31.721 I14.236 J15.438
N265 X31.262 Y-5.467 I13.262 J-16.283
N270 G03 X24. I12. J7.211
N275 G02 X14.134 Y9.825 I18. J-10.816
N280 G03 X0.48 Y0.7 I-0.11 J0.59
N285 G01 X-0.111 Y0.59
N290 X-0.017 Y0.092 Z0.007
N295 X-0.017 Y0.09 Z0.022
N300 X-0.016 Y0.086 Z0.036
N305 X-0.015 Y0.079 Z0.05
N310 X-0.013 Y0.07 Z0.061
N315 X-0.011 Y0.06 Z0.071
N320 X-0.009 Y0.048 Z0.081
N325 X-0.007 Y0.036 Z0.087
N330 X-0.004 Y0.021 Z0.091
N335 X-0.001 Y0.008 Z0.094
N340 Z39.9
N345 G90

N350 M09
N355 G28 G91 Z0.
N360 G49
N365 G28 X0. Y0.
N370 M30
%
