%
#workpiece(0, 1024, 1, 300, 300, 30, -50, -100, -10)

O1001
(T18 D=20. CR=0. TAPER=118DEG - ZMIN=-40.5 - DRILL)
N10 G90 G94 G17 G49 G40 G80
N15 G21
N20 G28 G91 Z0.
N25 G90


//N790 G81 X-30 Y51.962 Z-21 Q1=31 Q3=500 Q5=-30 Q6=0.5

(DRILL1)
N30 T18 M06
N35 S800 M03
N40 G54

N50 G00 X-30. Y126.962
N55 G43 Z15. H18
N60 G91
N65 G00 Z-10.
N70 Z-10.5
N75 G01 Z-25. F1000.
N80 S500
N85 Z-10.
//N90 G04 P2000
//N95 S800
N100 Z35.

N105 G00 Z10.5
N110 X60.
N115 Z-10.5
N120 G01 Z-25. F1000.
//N125 S5000
N130 Z-10.
//N135 G04 P2000
//N140 S800
N145 Z35.

N150 G00 Z10.5
N155 Y-103.924
N160 Z-10.5
N165 G01 Z-25. F1000.
//N170 S5000
N175 Z-10.
//N180 G04 P2000
//N185 S800
N190 Z35.

N195 G00 Z10.5
N200 X-60.
N205 Z-10.5
N210 G01 Z-25. F1000.
//N215 S5000
N220 Z-10.
//N225 G04 P2000
//N230 S800
N235 Z35.
N240 G00 Z10.5
N245 Z10.
N250 G90

N50 G00 X-30 Y126.962 Z10
N60 G81 X-30 Y126.962 Z-21 Q1=31 Q3=500 Q5=-30 Q6=0.5
N65 G00 Z10

N75 G00 X30 Y126.962 Z10
N79 G81 X30 Y126.962 Z-21 Q1=31 Q3=500 Q5=-30 Q6=0.5
N85 G00 Z10

N90 G00 X30 Y23.038 Z10
N95 G81 X30 Y23.038 Z-21 Q1=31 Q3=500 Q5=-30 Q6=0.5
N100 G00 Z10

N105 G00 X-30 Y23.038 Z10
N110 G81 X-30 Y23.038 Z-21 Q1=31 Q3=500 Q5=-30 Q6=0.5
N115 G00 Z10


N255 M09
N260 G28 G91 Z0.
N265 G49
N270 G28 X0. Y0.
N275 M30
%
