%
O1001
(T18 D=20. CR=0. TAPER=118DEG - ZMIN=-40.5 - DRILL)
N10 G90 G94 G17 G49 G40 G80
N15 G21
N20 G28 G91 Z0.
N25 G90

(DRILL1 2)
N30 T18 M06
N35 S5000 M03
N40 G54
N45 M08
N50 G00 X-30. Y51.962
N55 G43 Z15. H18
N60 G91
N65 G00 Z-10.
N70 Z-10.5
N75 Z-3.
N80 G01 Z-8. F1000.
N85 G00 Z11.
N90 Z-9.
N95 G01 Z-8. F1000.

N100 G00 Z17.
N105 Z-15.
N110 G01 Z-8. F1000.
N115 G00 Z23.
N120 Z-21.
N125 G01 Z-8. F1000.
N130 G00 Z29.
N135 Z-27.
N140 G01 Z-8. F1000.
N145 G04 P2000
N150 G00 Z45.5
N155 X60.
N160 Z-10.5
N165 Z-3.
N170 G01 Z-8. F1000.
N175 G00 Z11.
N180 Z-9.
N185 G01 Z-8. F1000.
N190 G00 Z17.
N195 Z-15.
N200 G01 Z-8. F1000.
N205 G00 Z23.
N210 Z-21.
N215 G01 Z-8. F1000.
N220 G00 Z29.
N225 Z-27.
N230 G01 Z-8. F1000.
N235 G04 P2000
N240 G00 Z45.5
N245 Y-103.924
N250 Z-10.5
N255 Z-3.
N260 G01 Z-8. F1000.
N265 G00 Z11.
N270 Z-9.
N275 G01 Z-8. F1000.
N280 G00 Z17.
N285 Z-15.
N290 G01 Z-8. F1000.
N295 G00 Z23.
N300 Z-21.
N305 G01 Z-8. F1000.
N310 G00 Z29.
N315 Z-27.
N320 G01 Z-8. F1000.
N325 G04 P2000
N330 G00 Z45.5
N335 X-60.
N340 Z-10.5
N345 Z-3.
N350 G01 Z-8. F1000.
N355 G00 Z11.
N360 Z-9.
N365 G01 Z-8. F1000.
N370 G00 Z17.
N375 Z-15.
N380 G01 Z-8. F1000.
N385 G00 Z23.
N390 Z-21.
N395 G01 Z-8. F1000.
N400 G00 Z29.
N405 Z-27.
N410 G01 Z-8. F1000.
N415 G04 P2000
N420 G00 Z45.5
N425 Z10.
N430 G90

N435 M09
N440 G28 G91 Z0.
N445 G49
N450 G28 X0. Y0.
N455 M30
%
