%
O1005
(T18 D=10. CR=0. TAPER=118DEG - ZMIN=-16. - DRILL)
N10 G90 G94 G17 G49 G40 G80
N15 G21
N20 G28 G91 Z0.
N25 G90

(DRILL1 2)
N30 T18 M06
N35 S5000 M03
N40 G54
N45 M08
N50 G00 X73. Y28.5
N55 G43 Z15. H18
N60 G91
N65 G00 Z-10.
N70 Z-6.
N75 Z-3.
N80 G01 Z-4.5 F1000.
N85 G00 Z7.5
N90 Z-5.5
N95 G01 Z-4.5 F1000.
N100 G00 Z10.
N105 Z-8.
N110 G01 Z-4.5 F1000.
N115 G00 Z12.5
N120 Z-10.5
N125 G01 Z-4.5 F1000.
N130 G04 P1000
N135 G00 Z21.
N140 X-19.5
N145 Z-6.
N150 Z-3.
N155 G01 Z-4.5 F1000.
N160 G00 Z7.5
N165 Z-5.5
N170 G01 Z-4.5 F1000.
N175 G00 Z10.
N180 Z-8.
N185 G01 Z-4.5 F1000.
N190 G00 Z12.5
N195 Z-10.5
N200 G01 Z-4.5 F1000.
N205 G04 P1000
N210 G00 Z21.
N215 X-19.5
N220 Z-6.
N225 Z-3.
N230 G01 Z-4.5 F1000.
N235 G00 Z7.5
N240 Z-5.5
N245 G01 Z-4.5 F1000.
N250 G00 Z10.
N255 Z-8.
N260 G01 Z-4.5 F1000.
N265 G00 Z12.5
N270 Z-10.5
N275 G01 Z-4.5 F1000.
N280 G04 P1000
N285 G00 Z21.
N290 Z10.
N295 G90

N300 M09
N305 G28 G91 Z0.
N310 G49
N315 G28 X0. Y0.
N320 M30
%
