%
O1006
(T5 D=4. CR=0. - ZMIN=-15.5 - FLAT END MILL)
N10 G90 G94 G17 G49 G40 G80
N15 G21
(WHEN USING FUSION 360 FOR PERSONAL USE, THE FEEDRATE OF)
(RAPID MOVES IS REDUCED TO MATCH THE FEEDRATE OF CUTTING)
(MOVES, WHICH CAN INCREASE MACHINING TIME. UNRESTRICTED RAPID)
(MOVES ARE AVAILABLE WITH A FUSION 360 SUBSCRIPTION.)
N20 G28 G91 Z0.
N25 G90

(2D ADAPTIVE4)
N30 T5 M06
N35 S5000 M03
N40 G54
N45 M08
N50 G00 X35.761 Y27.373
N55 G43 Z15. H05
N60 G91
N65 G01 Z-10. F1000.
N70 Z-9.45
N75 G03 X-1.506 Y3.202 Z-0.147 I-1.761 J1.127 F333.
N80 X-2.233 Y-2.74 Z-0.148 I-0.254 J-2.072
N85 X3.432 Y-0.826 Z-0.147 I1.976 J0.667
N90 X-0.739 Y3.447 Z-0.147 I-1.454 J1.491
N95 X-2.784 Y-2.155 Z-0.148 I-0.714 J-1.954
N100 X3.143 Y-1.576 Z-0.147 I2.068 J0.201
N105 X0.061 Y3.512 Z-0.147 I-1.075 J1.775
N110 X-3.188 Y-1.463 Z-0.148 I-1.134 J-1.735
N115 X2.694 Y-2.239 Z-0.147 I2.052 J-0.272
N120 X0.852 Y3.394 Z-0.147 I-0.642 J1.965
N125 X-3.424 Y-0.7 Z-0.148 I-1.492 J-1.427
N130 X2.11 Y-2.781 Z-0.147 I1.93 J-0.727
N135 X1.592 Y3.101 Z-0.147 I-0.179 J2.052
N140 X-3.48 Y0.095 Z-0.148 I-1.77 J-1.048
N145 X1.419 Y-3.175 Z-0.147 I1.709 J-1.141
N150 X2.245 Y2.649 Z-0.147 I0.289 J2.031
N155 X-3.356 Y0.877 Z-0.148 I-1.954 J-0.618
N160 X0.661 Y-3.401 Z-0.147 I1.4 J-1.493
N165 X2.777 Y2.065 Z-0.147 I0.739 J1.906
N170 X-3.059 Y1.608 Z-0.148 I-2.036 J-0.158
N175 X-0.127 Y-3.449 Z-0.147 I1.022 J-1.765
N180 X3.161 Y1.376 Z-0.147 I1.147 J1.683
N185 X-2.605 Y2.252 Z-0.148 I-2.011 J0.306
N190 X-0.902 Y-3.319 Z-0.147 I0.593 J-1.943
N195 X3.378 Y0.622 Z-0.147 I1.493 J1.374
N200 X-2.02 Y2.773 Z-0.148 I-1.882 J0.751
N205 X-1.623 Y-3.017 Z-0.147 I0.137 J-2.019
N210 X3.417 Y-0.158 Z-0.147 I1.759 J0.996
N215 X-1.334 Y3.145 Z-0.148 I-1.657 J1.153
N220 X-2.256 Y-2.56 Z-0.147 I-0.323 J-1.99
N225 X3.28 Y-0.925 Z-0.147 I1.931 J0.569
N230 X-0.584 Y3.353 Z-0.148 I-1.347 J1.493
N235 X-2.767 Y-1.975 Z-0.147 I-0.762 J-1.858
N240 X2.974 Y-1.638 Z-0.147 I2.002 J0.117
N245 X0.19 Y3.386 Z-0.148 I-0.97 J1.753
N250 X-3.13 Y-1.292 Z-0.147 I-1.159 J-1.631
N255 X2.515 Y-2.261 Z-0.147 I1.969 J-0.339
N260 X0.949 Y3.242 Z-0.148 I-0.546 J1.919
N265 X-3.329 Y-0.546 Z-0.147 I-1.492 J-1.321
N270 X1.93 Y-2.761 Z-0.147 I1.834 J-0.773
N275 X1.652 Y2.931 Z-0.148 I-0.096 J1.985
N280 X-3.353 Y0.221 Z-0.147 I-1.746 J-0.944
N285 X1.25 Y-3.115 Z-0.147 I1.605 J-1.164
N290 X2.264 Y2.471 Z-0.148 I0.355 J1.948
N295 X-3.203 Y0.971 Z-0.147 I-1.907 J-0.522
N300 X0.51 Y-3.303 Z-0.147 I1.294 J-1.492
N305 X2.754 Y1.886 Z-0.148 I0.784 J1.81
N310 X-2.888 Y1.665 Z-0.147 I-1.968 J-0.076
N315 X-0.251 Y-3.32 Z-0.147 I0.919 J-1.739
N320 X3.098 Y1.208 Z-0.148 I1.169 J1.579
N325 X-2.427 Y2.267 Z-0.147 I-1.927 J0.37
N330 X-0.993 Y-3.164 Z-0.147 I0.499 J-1.895
N335 X3.278 Y0.473 Z-0.148 I1.49 J1.268
N340 X-1.842 Y2.747 Z-0.147 I-1.786 J0.794
N345 X-1.678 Y-2.846 Z-0.147 I0.057 J-1.951
N350 X3.288 Y-0.28 Z-0.148 I1.732 J0.894
N355 X-1.168 Y3.081 Z-0.147 I-1.553 J1.173
N360 X-2.27 Y-2.383 Z-0.147 I-0.385 J-1.905
N365 X3.126 Y-1.014 Z-0.148 I1.882 J0.476
N370 X-0.437 Y3.253 Z-0.147 I-1.242 J1.489
N375 X-2.74 Y-1.799 Z-0.147 I-0.804 J-1.762
N380 X2.804 Y-1.69 Z-0.148 I1.933 J0.037
N385 X0.309 Y3.254 Z-0.147 I-0.869 J1.724
N390 X-3.063 Y-1.127 Z-0.147 I-1.177 J-1.528
N395 X2.338 Y-2.271 Z-0.148 I1.884 J-0.4
N400 X1.035 Y3.087 Z-0.147 I-0.454 J1.869
N405 X-3.226 Y-0.402 Z-0.147 I-1.487 J-1.216
N410 X1.756 Y-2.732 Z-0.148 I1.737 J-0.813
N415 X1.7 Y2.761 Z-0.147 I-0.019 J1.916
N420 X-3.221 Y0.339 Z-0.147 I-1.717 J-0.844
N425 X1.087 Y-3.046 Z-0.148 I1.502 J-1.181
N430 X2.273 Y2.294 Z-0.147 I0.414 J1.862
N435 X-3.048 Y1.055 Z-0.147 I-1.856 J-0.432
N440 X0.367 Y-3.2 Z-0.148 I1.19 J-1.484
N445 X2.723 Y1.713 Z-0.147 I0.822 J1.713
N450 X-3.801 I-1.9
N455 X3.801 I1.9
N460 G01 X0.004 Y0.202 F1000.
N465 X0.144 Y0.594
N470 X0.026 Y0.211
N475 X-0.021 Y0.211
N480 X-0.069 Y0.2
N485 X-0.113 Y0.18
N490 X-0.116 Y0.147
N495 X-0.049 Y0.044
N500 X-0.421 Y0.323
N505 X-0.064 Y0.041
N510 X-0.065 Y0.028
N515 X-0.459 Y0.19
N520 X-0.045 Y0.016
N525 X-0.046 Y0.011
N530 X-0.184 Y0.025
N535 X-0.367 Y0.048
N540 X-0.046 Y0.003
N545 X-0.045 Y-0.001
N550 X-0.092 Y-0.012
N555 X-0.459 Y-0.06
N560 X-0.046 Y-0.009
N565 X-0.045 Y-0.014
N570 X-0.367 Y-0.152
N575 X-0.184 Y-0.079
N580 X-0.054 Y-0.035
N585 X-0.313 Y-0.24
N590 X-0.157 Y-0.127
N595 X-0.026 Y-0.029
N600 X-0.26 Y-0.339
N605 X-0.107 Y-0.149
N610 X-0.018 Y-0.034
N615 X-0.165 Y-0.399
N620 X-0.059 Y-0.152
N625 X-0.029 Y-0.184
N630 X-0.048 Y-0.367
N635 X-0.009 Y-0.092
N640 X0.009 Y-0.092
N645 X0.048 Y-0.367
N650 X0.029 Y-0.184
N655 X0.059 Y-0.152
N660 X0.165 Y-0.399
N665 X0.018 Y-0.034
N670 X0.107 Y-0.149
N675 X0.26 Y-0.339
N680 X0.026 Y-0.029
N685 X0.157 Y-0.127
N690 X0.313 Y-0.24
N695 X0.054 Y-0.035
N700 X0.184 Y-0.079
N705 X0.367 Y-0.152
N710 X0.045 Y-0.014
N715 X0.046 Y-0.009
N720 X0.459 Y-0.06
N725 X0.092 Y-0.012
N730 X0.045 Y-0.001
N735 X0.046 Y0.003
N740 X0.367 Y0.048
N745 X0.184 Y0.025
N750 X0.046 Y0.011
N755 X0.045 Y0.016
N760 X0.459 Y0.19
N765 X0.065 Y0.028
N770 X0.064 Y0.041
N775 X0.421 Y0.323
N780 X0.049 Y0.044
N785 X0.145 Y0.184
N790 X0.173 Y0.225
N795 X0.053 Y0.071
N800 X0.04 Y0.071
N805 X0.152 Y0.368
N810 X0.073 Y0.183
N815 X0.028 Y0.184
N820 X0.048 Y0.367
N825 X0.009 Y0.092
N830 X-0.009 Y0.092
N835 X-0.048 Y0.367
N840 X-0.028 Y0.184
N845 X-0.073 Y0.183
N850 X-0.152 Y0.368
N855 X-0.04 Y0.071
N860 X-0.085 Y0.112
N865 X-0.17 Y0.221
N870 G03 X-0.344 Y0.138 I-0.304 J-0.26
N875 G01 X-0.057 Y-0.019 Z0.005
N880 X-0.056 Y-0.019 Z0.014
N885 X-0.054 Y-0.018 Z0.023
N890 X-0.039 Y-0.037 Z0.032
N895 X-0.034 Y-0.034 Z0.041
N900 X-0.03 Y-0.028 Z0.048
N905 X-0.024 Y-0.023 Z0.054
N910 X-0.012 Y-0.021 Z0.058
N915 X-0.008 Y-0.013 Z0.062
N920 X-0.002 Y-0.005 Z0.063
N925 Z20.1
N930 X20.051 Y-2.646
N935 Z-9.45
N940 G03 X-1.507 Y3.202 Z-0.147 I-1.761 J1.127 F333.
N945 X-2.232 Y-2.74 Z-0.148 I-0.254 J-2.072
N950 X3.432 Y-0.826 Z-0.147 I1.976 J0.667
N955 X-0.739 Y3.447 Z-0.147 I-1.454 J1.491
N960 X-2.785 Y-2.155 Z-0.148 I-0.714 J-1.954
N965 X3.144 Y-1.576 Z-0.147 I2.068 J0.201
N970 X0.061 Y3.512 Z-0.147 I-1.075 J1.775
N975 X-3.189 Y-1.463 Z-0.148 I-1.134 J-1.735
N980 X2.695 Y-2.239 Z-0.147 I2.052 J-0.272
N985 X0.852 Y3.394 Z-0.147 I-0.642 J1.965
N990 X-3.424 Y-0.7 Z-0.148 I-1.492 J-1.427
N995 X2.109 Y-2.781 Z-0.147 I1.93 J-0.727
N1000 X1.593 Y3.101 Z-0.147 I-0.179 J2.052
N1005 X-3.481 Y0.095 Z-0.148 I-1.77 J-1.048
N1010 X1.419 Y-3.175 Z-0.147 I1.709 J-1.141
N1015 X2.246 Y2.65 Z-0.147 I0.289 J2.031
N1020 X-3.356 Y0.877 Z-0.148 I-1.954 J-0.618
N1025 X0.66 Y-3.401 Z-0.147 I1.4 J-1.493
N1030 X2.777 Y2.064 Z-0.147 I0.739 J1.906
N1035 X-3.058 Y1.608 Z-0.148 I-2.036 J-0.158
N1040 X-0.127 Y-3.449 Z-0.147 I1.022 J-1.765
N1045 X3.16 Y1.376 Z-0.147 I1.147 J1.683
N1050 X-2.605 Y2.252 Z-0.148 I-2.011 J0.306
N1055 X-0.901 Y-3.319 Z-0.147 I0.593 J-1.943
N1060 X3.377 Y0.622 Z-0.147 I1.493 J1.374
N1065 X-2.019 Y2.773 Z-0.148 I-1.882 J0.751
N1070 X-1.624 Y-3.016 Z-0.147 I0.137 J-2.019
N1075 X3.418 Y-0.159 Z-0.147 I1.759 J0.996
N1080 X-1.334 Y3.145 Z-0.148 I-1.657 J1.153
N1085 X-2.256 Y-2.56 Z-0.147 I-0.323 J-1.99
N1090 X3.28 Y-0.925 Z-0.147 I1.931 J0.569
N1095 X-0.584 Y3.353 Z-0.148 I-1.347 J1.493
N1100 X-2.767 Y-1.974 Z-0.147 I-0.762 J-1.858
N1105 X2.973 Y-1.639 Z-0.147 I2.002 J0.117
N1110 X0.191 Y3.386 Z-0.148 I-0.97 J1.753
N1115 X-3.131 Y-1.292 Z-0.147 I-1.159 J-1.631
N1120 X2.516 Y-2.26 Z-0.147 I1.969 J-0.339
N1125 X0.948 Y3.241 Z-0.148 I-0.546 J1.919
N1130 X-3.328 Y-0.546 Z-0.147 I-1.492 J-1.321
N1135 X1.93 Y-2.761 Z-0.147 I1.834 J-0.773
N1140 X1.652 Y2.931 Z-0.148 I-0.096 J1.985
N1145 X-3.353 Y0.221 Z-0.147 I-1.746 J-0.944
N1150 X1.25 Y-3.115 Z-0.147 I1.605 J-1.164
N1155 X2.264 Y2.471 Z-0.148 I0.355 J1.948
N1160 X-3.203 Y0.971 Z-0.147 I-1.907 J-0.522
N1165 X0.509 Y-3.303 Z-0.147 I1.294 J-1.492
N1170 X2.755 Y1.886 Z-0.148 I0.784 J1.81
N1175 X-2.889 Y1.665 Z-0.147 I-1.968 J-0.076
N1180 X-0.251 Y-3.32 Z-0.147 I0.919 J-1.739
N1185 X3.098 Y1.208 Z-0.148 I1.169 J1.579
N1190 X-2.426 Y2.268 Z-0.147 I-1.927 J0.37
N1195 X-0.993 Y-3.165 Z-0.147 I0.499 J-1.895
N1200 X3.278 Y0.473 Z-0.148 I1.49 J1.268
N1205 X-1.843 Y2.748 Z-0.147 I-1.786 J0.794
N1210 X-1.677 Y-2.846 Z-0.147 I0.057 J-1.951
N1215 X3.287 Y-0.281 Z-0.148 I1.732 J0.894
N1220 X-1.167 Y3.081 Z-0.147 I-1.553 J1.173
N1225 X-2.27 Y-2.383 Z-0.147 I-0.385 J-1.905
N1230 X3.126 Y-1.014 Z-0.148 I1.882 J0.476
N1235 X-0.438 Y3.253 Z-0.147 I-1.242 J1.489
N1240 X-2.739 Y-1.799 Z-0.147 I-0.804 J-1.762
N1245 X2.803 Y-1.69 Z-0.148 I1.933 J0.037
N1250 X0.31 Y3.254 Z-0.147 I-0.869 J1.724
N1255 X-3.064 Y-1.127 Z-0.147 I-1.177 J-1.528
N1260 X2.339 Y-2.271 Z-0.148 I1.884 J-0.4
N1265 X1.035 Y3.087 Z-0.147 I-0.454 J1.869
N1270 X-3.227 Y-0.402 Z-0.147 I-1.487 J-1.216
N1275 X1.756 Y-2.731 Z-0.148 I1.737 J-0.813
N1280 X1.701 Y2.761 Z-0.147 I-0.019 J1.916
N1285 X-3.221 Y0.338 Z-0.147 I-1.717 J-0.844
N1290 X1.087 Y-3.046 Z-0.148 I1.502 J-1.181
N1295 X2.273 Y2.295 Z-0.147 I0.414 J1.862
N1300 X-3.048 Y1.054 Z-0.147 I-1.856 J-0.432
N1305 X0.367 Y-3.2 Z-0.148 I1.19 J-1.484
N1310 X2.722 Y1.714 Z-0.147 I0.822 J1.713
N1315 X-3.8 I-1.9
N1320 X3.8 I1.9
N1325 G01 X0.005 Y0.202 F1000.
N1330 X0.144 Y0.594
N1335 X0.026 Y0.207
N1340 X-0.02 Y0.206
N1345 X-0.065 Y0.198
N1350 X-0.108 Y0.178
N1355 X-0.046 Y0.06
N1360 X-0.079 Y0.099
N1365 X-0.104 Y0.085
N1370 X-0.367 Y0.282
N1375 X-0.046 Y0.03
N1380 X-0.046 Y0.023
N1385 X-0.458 Y0.191
N1390 X-0.092 Y0.034
N1395 X-0.092 Y0.016
N1400 X-0.367 Y0.048
N1405 X-0.183 Y0.021
N1410 X-0.183 Y-0.021
N1415 X-0.367 Y-0.048
N1420 X-0.092 Y-0.016
N1425 X-0.092 Y-0.034
N1430 X-0.458 Y-0.191
N1435 X-0.046 Y-0.023
N1440 X-0.046 Y-0.03
N1445 X-0.367 Y-0.282
N1450 X-0.104 Y-0.085
N1455 X-0.079 Y-0.099
N1460 X-0.277 Y-0.361
N1465 X-0.03 Y-0.045
N1470 X-0.024 Y-0.046
N1475 X-0.152 Y-0.368
N1480 X-0.068 Y-0.169
N1485 X-0.004 Y-0.014
N1490 X-0.029 Y-0.184
N1495 X-0.048 Y-0.367
N1500 X-0.009 Y-0.092
N1505 X0.009 Y-0.092
N1510 X0.048 Y-0.367
N1515 X0.029 Y-0.184
N1520 X0.004 Y-0.014
N1525 X0.068 Y-0.169
N1530 X0.152 Y-0.368
N1535 X0.024 Y-0.046
N1540 X0.03 Y-0.045
N1545 X0.277 Y-0.361
N1550 X0.079 Y-0.099
N1555 X0.104 Y-0.085
N1560 X0.367 Y-0.282
N1565 X0.046 Y-0.03
N1570 X0.046 Y-0.023
N1575 X0.458 Y-0.191
N1580 X0.092 Y-0.034
N1585 X0.092 Y-0.016
N1590 X0.367 Y-0.048
N1595 X0.183 Y-0.021
N1600 X0.183 Y0.021
N1605 X0.367 Y0.048
N1610 X0.092 Y0.016
N1615 X0.092 Y0.034
N1620 X0.458 Y0.191
N1625 X0.046 Y0.023
N1630 X0.046 Y0.03
N1635 X0.367 Y0.282
N1640 X0.104 Y0.085
N1645 X0.079 Y0.099
N1650 X0.277 Y0.361
N1655 X0.03 Y0.045
N1660 X0.024 Y0.046
N1665 X0.152 Y0.368
N1670 X0.068 Y0.169
N1675 X0.004 Y0.014
N1680 X0.029 Y0.184
N1685 X0.048 Y0.367
N1690 X0.009 Y0.092
N1695 X-0.009 Y0.092
N1700 X-0.048 Y0.367
N1705 X-0.029 Y0.184
N1710 X-0.004 Y0.014
N1715 X-0.068 Y0.169
N1720 X-0.152 Y0.368
N1725 X-0.024 Y0.046
N1730 X-0.03 Y0.045
N1735 X-0.231 Y0.301
N1740 G03 X-0.341 Y0.144 I-0.309 J-0.254
N1745 G01 X-0.058 Y-0.018 Z0.005
N1750 X-0.056 Y-0.018 Z0.014
N1755 X-0.054 Y-0.017 Z0.023
N1760 X-0.04 Y-0.037 Z0.032
N1765 X-0.035 Y-0.032 Z0.041
N1770 X-0.03 Y-0.028 Z0.048
N1775 X-0.024 Y-0.023 Z0.054
N1780 X-0.013 Y-0.021 Z0.058
N1785 X-0.008 Y-0.013 Z0.062
N1790 X-0.002 Y-0.004 Z0.063
N1795 Z20.1
N1800 X20.042 Y-2.646
N1805 Z-9.45
N1810 G03 X-1.507 Y3.202 Z-0.147 I-1.761 J1.127 F333.
N1815 X-2.232 Y-2.74 Z-0.148 I-0.254 J-2.072
N1820 X3.432 Y-0.826 Z-0.147 I1.976 J0.667
N1825 X-0.739 Y3.447 Z-0.147 I-1.454 J1.491
N1830 X-2.785 Y-2.155 Z-0.148 I-0.714 J-1.954
N1835 X3.144 Y-1.576 Z-0.147 I2.068 J0.201
N1840 X0.061 Y3.512 Z-0.147 I-1.075 J1.775
N1845 X-3.189 Y-1.463 Z-0.148 I-1.134 J-1.735
N1850 X2.695 Y-2.239 Z-0.147 I2.052 J-0.272
N1855 X0.852 Y3.394 Z-0.147 I-0.642 J1.965
N1860 X-3.425 Y-0.7 Z-0.148 I-1.492 J-1.427
N1865 X2.11 Y-2.781 Z-0.147 I1.93 J-0.727
N1870 X1.593 Y3.101 Z-0.147 I-0.179 J2.052
N1875 X-3.481 Y0.095 Z-0.148 I-1.77 J-1.048
N1880 X1.419 Y-3.175 Z-0.147 I1.709 J-1.141
N1885 X2.246 Y2.649 Z-0.147 I0.289 J2.031
N1890 X-3.356 Y0.878 Z-0.148 I-1.954 J-0.618
N1895 X0.66 Y-3.402 Z-0.147 I1.4 J-1.493
N1900 X2.777 Y2.065 Z-0.147 I0.739 J1.906
N1905 X-3.059 Y1.608 Z-0.148 I-2.036 J-0.158
N1910 X-0.126 Y-3.449 Z-0.147 I1.022 J-1.765
N1915 X3.16 Y1.376 Z-0.147 I1.147 J1.683
N1920 X-2.605 Y2.252 Z-0.148 I-2.011 J0.306
N1925 X-0.901 Y-3.319 Z-0.147 I0.593 J-1.943
N1930 X3.377 Y0.622 Z-0.147 I1.493 J1.374
N1935 X-2.019 Y2.773 Z-0.148 I-1.882 J0.751
N1940 X-1.624 Y-3.017 Z-0.147 I0.137 J-2.019
N1945 X3.418 Y-0.158 Z-0.147 I1.759 J0.996
N1950 X-1.334 Y3.145 Z-0.148 I-1.657 J1.153
N1955 X-2.256 Y-2.56 Z-0.147 I-0.323 J-1.99
N1960 X3.28 Y-0.925 Z-0.147 I1.931 J0.569
N1965 X-0.584 Y3.353 Z-0.148 I-1.347 J1.493
N1970 X-2.767 Y-1.975 Z-0.147 I-0.762 J-1.858
N1975 X2.973 Y-1.638 Z-0.147 I2.002 J0.117
N1980 X0.191 Y3.386 Z-0.148 I-0.97 J1.753
N1985 X-3.131 Y-1.292 Z-0.147 I-1.159 J-1.631
N1990 X2.516 Y-2.26 Z-0.147 I1.969 J-0.339
N1995 X0.948 Y3.241 Z-0.148 I-0.546 J1.919
N2000 X-3.328 Y-0.546 Z-0.147 I-1.492 J-1.321
N2005 X1.93 Y-2.761 Z-0.147 I1.834 J-0.773
N2010 X1.652 Y2.931 Z-0.148 I-0.096 J1.985
N2015 X-3.353 Y0.221 Z-0.147 I-1.746 J-0.944
N2020 X1.25 Y-3.115 Z-0.147 I1.605 J-1.164
N2025 X2.264 Y2.471 Z-0.148 I0.355 J1.948
N2030 X-3.203 Y0.971 Z-0.147 I-1.907 J-0.522
N2035 X0.509 Y-3.303 Z-0.147 I1.294 J-1.492
N2040 X2.755 Y1.886 Z-0.148 I0.784 J1.81
N2045 X-2.889 Y1.665 Z-0.147 I-1.968 J-0.076
N2050 X-0.251 Y-3.32 Z-0.147 I0.919 J-1.739
N2055 X3.098 Y1.208 Z-0.148 I1.169 J1.579
N2060 X-2.426 Y2.267 Z-0.147 I-1.927 J0.37
N2065 X-0.993 Y-3.164 Z-0.147 I0.499 J-1.895
N2070 X3.278 Y0.473 Z-0.148 I1.49 J1.268
N2075 X-1.843 Y2.747 Z-0.147 I-1.786 J0.794
N2080 X-1.677 Y-2.846 Z-0.147 I0.057 J-1.951
N2085 X3.287 Y-0.28 Z-0.148 I1.732 J0.894
N2090 X-1.167 Y3.081 Z-0.147 I-1.553 J1.173
N2095 X-2.27 Y-2.383 Z-0.147 I-0.385 J-1.905
N2100 X3.126 Y-1.014 Z-0.148 I1.882 J0.476
N2105 X-0.438 Y3.253 Z-0.147 I-1.242 J1.489
N2110 X-2.739 Y-1.799 Z-0.147 I-0.804 J-1.762
N2115 X2.803 Y-1.69 Z-0.148 I1.933 J0.037
N2120 X0.31 Y3.254 Z-0.147 I-0.869 J1.724
N2125 X-3.064 Y-1.127 Z-0.147 I-1.177 J-1.528
N2130 X2.339 Y-2.271 Z-0.148 I1.884 J-0.4
N2135 X1.035 Y3.087 Z-0.147 I-0.454 J1.869
N2140 X-3.227 Y-0.402 Z-0.147 I-1.487 J-1.216
N2145 X1.756 Y-2.732 Z-0.148 I1.737 J-0.813
N2150 X1.7 Y2.761 Z-0.147 I-0.019 J1.916
N2155 X-3.22 Y0.339 Z-0.147 I-1.717 J-0.844
N2160 X1.087 Y-3.046 Z-0.148 I1.502 J-1.181
N2165 X2.273 Y2.294 Z-0.147 I0.414 J1.862
N2170 X-3.048 Y1.055 Z-0.147 I-1.856 J-0.432
N2175 X0.367 Y-3.2 Z-0.148 I1.19 J-1.484
N2180 X2.722 Y1.713 Z-0.147 I0.822 J1.713
N2185 X-3.8 I-1.9
N2190 X3.8 I1.9
N2195 G01 X0.005 Y0.202 F1000.
N2200 X0.144 Y0.595
N2205 X0.026 Y0.207
N2210 X-0.02 Y0.207
N2215 X-0.066 Y0.198
N2220 X-0.107 Y0.178
N2225 X-0.1 Y0.129
N2230 X-0.026 Y0.029
N2235 X-0.157 Y0.127
N2240 X-0.313 Y0.24
N2245 X-0.054 Y0.035
N2250 X-0.184 Y0.079
N2255 X-0.367 Y0.152
N2260 X-0.045 Y0.014
N2265 X-0.046 Y0.009
N2270 X-0.459 Y0.06
N2275 X-0.092 Y0.012
N2280 X-0.045 Y0.001
N2285 X-0.046 Y-0.003
N2290 X-0.367 Y-0.048
N2295 X-0.184 Y-0.025
N2300 X-0.046 Y-0.011
N2305 X-0.045 Y-0.016
N2310 X-0.459 Y-0.19
N2315 X-0.065 Y-0.028
N2320 X-0.064 Y-0.041
N2325 X-0.421 Y-0.323
N2330 X-0.049 Y-0.044
N2335 X-0.145 Y-0.184
N2340 X-0.173 Y-0.225
N2345 X-0.053 Y-0.071
N2350 X-0.04 Y-0.071
N2355 X-0.152 Y-0.368
N2360 X-0.073 Y-0.183
N2365 X-0.028 Y-0.184
N2370 X-0.048 Y-0.367
N2375 X-0.009 Y-0.092
N2380 X0.009 Y-0.092
N2385 X0.048 Y-0.367
N2390 X0.028 Y-0.184
N2395 X0.073 Y-0.183
N2400 X0.152 Y-0.368
N2405 X0.04 Y-0.071
N2410 X0.085 Y-0.112
N2415 X0.151 Y-0.198
N2420 X0.135 Y-0.17
N2425 X0.049 Y-0.044
N2430 X0.421 Y-0.323
N2435 X0.064 Y-0.041
N2440 X0.065 Y-0.028
N2445 X0.459 Y-0.19
N2450 X0.045 Y-0.016
N2455 X0.046 Y-0.011
N2460 X0.184 Y-0.025
N2465 X0.367 Y-0.048
N2470 X0.046 Y-0.003
N2475 X0.045 Y0.001
N2480 X0.092 Y0.012
N2485 X0.459 Y0.06
N2490 X0.046 Y0.009
N2495 X0.045 Y0.014
N2500 X0.367 Y0.152
N2505 X0.184 Y0.079
N2510 X0.054 Y0.035
N2515 X0.313 Y0.24
N2520 X0.157 Y0.127
N2525 X0.026 Y0.029
N2530 X0.26 Y0.339
N2535 X0.107 Y0.149
N2540 X0.018 Y0.034
N2545 X0.165 Y0.399
N2550 X0.059 Y0.152
N2555 X0.029 Y0.184
N2560 X0.048 Y0.367
N2565 X0.009 Y0.092
N2570 X-0.009 Y0.092
N2575 X-0.048 Y0.367
N2580 X-0.029 Y0.184
N2585 X-0.059 Y0.152
N2590 X-0.165 Y0.399
N2595 X-0.018 Y0.034
N2600 X-0.107 Y0.149
N2605 X-0.16 Y0.21
N2610 G03 X-0.662 Y-0.068 I-0.308 J-0.255
N2615 G01 X-0.037 Y-0.069 Z0.008
N2620 X-0.035 Y-0.066 Z0.022
N2625 X-0.032 Y-0.061 Z0.037
N2630 X-0.029 Y-0.054 Z0.05
N2635 X-0.023 Y-0.044 Z0.061
N2640 X-0.017 Y-0.032 Z0.069
N2645 X-0.011 Y-0.02 Z0.075
N2650 X-0.003 Y-0.007 Z0.078
N2655 Z30.1
N2660 G90

N2665 M09
N2670 G28 G91 Z0.
N2675 G49
N2680 G28 X0. Y0.
N2685 M30
%
