%
O1004
(T1 D=6. CR=0. - ZMIN=-19. - FLAT END MILL)
N10 G90 G94 G17 G49 G40 G80
N15 G21
(WHEN USING FUSION 360 FOR PERSONAL USE, THE FEEDRATE OF)
(RAPID MOVES IS REDUCED TO MATCH THE FEEDRATE OF CUTTING)
(MOVES, WHICH CAN INCREASE MACHINING TIME. UNRESTRICTED RAPID)
(MOVES ARE AVAILABLE WITH A FUSION 360 SUBSCRIPTION.)
N20 G28 G91 Z0.
N25 G90

(FACE1 2)
N30 T1 M06
N35 S5000 M03
N40 G54
N45 M08
N50 G00 X109.9 Y1.975
N55 G43 Z15. H01
N60 G91
N65 G01 Z-10. F1000.
N70 Z-5.4
N75 G18 G03 X-0.6 Z-0.6 I-0.6
N80 G01 X-0.29
N85 X-111.02
N90 G17 G02 Y3.934 J1.967
N95 G01 X111.02
N100 G03 Y3.933 J1.967
N105 G01 X-111.02
N110 G02 Y3.933 J1.967
N115 G01 X111.02
N120 G03 Y3.933 J1.967
N125 G01 X-111.02
N130 G02 Y3.934 J1.967
N135 G01 X111.02
N140 G03 Y3.933 J1.967
N145 G01 X-111.02
N150 G02 Y3.933 J1.967
N155 G01 X111.02
N160 G03 Y3.934 J1.967
N165 G01 X-111.02
N170 G02 Y3.933 J1.967
N175 G01 X111.02
N180 G03 Y3.933 J1.967
N185 G01 X-111.02
N190 G02 Y3.933 J1.967
N195 G01 X111.02
N200 G03 Y3.934 J1.967
N205 G01 X-111.02
N210 G02 Y3.933 J1.967
N215 G01 X111.02
N220 G18 G02 X0.6 Z0.6 K0.6
N225 G01 Z15.4
N230 G17
N235 G90
(WHEN USING FUSION 360 FOR PERSONAL USE, THE FEEDRATE OF)
(RAPID MOVES IS REDUCED TO MATCH THE FEEDRATE OF CUTTING)
(MOVES, WHICH CAN INCREASE MACHINING TIME. UNRESTRICTED RAPID)
(MOVES ARE AVAILABLE WITH A FUSION 360 SUBSCRIPTION.)

(2D CONTOUR1 2)
N240 G00 X106.6 Y-3.8
N245 G91
N250 G01 Z-5. F1000.
N255 Z-8.9 F333.
N260 G19 G03 Y0.6 Z-0.6 J0.6 F1000.
N265 G01 Y0.6
N270 G17 G03 X-0.6 Y0.6 I-0.6
N275 G01 X-105.
N280 G02 X-3. Y3. J3.
N285 G01 Y55.
N290 G02 X3. Y3. I3.
N295 G01 X105.
N300 G02 X3. Y-3. J-3.
N305 G01 Y-55.
N310 G02 X-3. Y-3. I-3.
N315 G03 X-0.6 Y-0.6 J-0.6
N320 G01 Y-0.6
N325 G19 G02 Y-0.6 Z0.6 K0.6
N330 G01 Z8.9
N335 X1.2
N340 Z-4.5 F333.
N345 Z-8.9
N350 G03 Y0.6 Z-0.6 J0.6 F1000.
N355 G01 Y0.6
N360 G17 G03 X-0.6 Y0.6 I-0.6
N365 G01 X-105.
N370 G02 X-3. Y3. J3.
N375 G01 Y55.
N380 G02 X3. Y3. I3.
N385 G01 X105.
N390 G02 X3. Y-3. J-3.
N395 G01 Y-55.
N400 G02 X-3. Y-3. I-3.
N405 G03 X-0.6 Y-0.6 J-0.6
N410 G01 Y-0.6
N415 G19 G02 Y-0.6 Z0.6 K0.6
N420 G01 Z13.4
N425 X1.2
N430 Z-9. F333.
N435 Z-8.9
N440 G03 Y0.6 Z-0.6 J0.6 F1000.
N445 G01 Y0.6
N450 G17 G03 X-0.6 Y0.6 I-0.6
N455 G01 X-105.
N460 G02 X-3. Y3. J3.
N465 G01 Y55.
N470 G02 X3. Y3. I3.
N475 G01 X105.
N480 G02 X3. Y-3. J-3.
N485 G01 Y-55.
N490 G02 X-3. Y-3. I-3.
N495 G03 X-0.6 Y-0.6 J-0.6
N500 G01 Y-0.6
N505 G19 G02 Y-0.6 Z0.6 K0.6
N510 G01 Z17.9
N515 X1.2
N520 Z-13.5 F333.
N525 Z-7.15
N530 G03 Y0.6 Z-0.6 J0.6 F1000.
N535 G01 Y0.6
N540 G17 G03 X-0.6 Y0.6 I-0.6
N545 G01 X-105.
N550 G02 X-3. Y3. J3.
N555 G01 Y55.
N560 G02 X3. Y3. I3.
N565 G01 X105.
N570 G02 X3. Y-3. J-3.
N575 G01 Y-55.
N580 G02 X-3. Y-3. I-3.
N585 G03 X-0.6 Y-0.6 J-0.6
N590 G01 Y-0.6
N595 G19 G02 Y-0.6 Z0.6 K0.6
N600 G01 Z20.65
N605 X1.2
N610 Z-16.25 F333.
N615 Z-7.15
N620 G03 Y0.6 Z-0.6 J0.6 F1000.
N625 G01 Y0.6
N630 G17 G03 X-0.6 Y0.6 I-0.6
N635 G01 X-105.
N640 G02 X-3. Y3. J3.
N645 G01 Y55.
N650 G02 X3. Y3. I3.
N655 G01 X105.
N660 G02 X3. Y-3. J-3.
N665 G01 Y-55.
N670 G02 X-3. Y-3. I-3.
N675 G03 X-0.6 Y-0.6 J-0.6
N680 G01 Y-0.6
N685 G19 G02 Y-0.6 Z0.6 K0.6
N690 G01 Z28.4
N695 G17
N700 G90
(WHEN USING FUSION 360 FOR PERSONAL USE, THE FEEDRATE OF)
(RAPID MOVES IS REDUCED TO MATCH THE FEEDRATE OF CUTTING)
(MOVES, WHICH CAN INCREASE MACHINING TIME. UNRESTRICTED RAPID)
(MOVES ARE AVAILABLE WITH A FUSION 360 SUBSCRIPTION.)

(2D ADAPTIVE1 2)
N705 G00 Z15.
N710 X77.791 Y25.574
N715 G91
N720 G01 Z-10. F1000.
N725 Z-2.45
N730 G03 X3.528 Y3.533 Z-0.206 I0.603 J2.926 F333.
N735 X-4.637 Y1.834 Z-0.207 I-2.921 J-0.607
N740 X0.156 Y-4.978 Z-0.206 I1.714 J-2.438
N745 X4.502 Y2.116 Z-0.207 I1.556 J2.537
N750 X-3.724 Y3.289 Z-0.206 I-2.943 J0.421
N755 X-1.54 Y-4.717 Z-0.206 I0.78 J-2.865
N760 X4.936 Y0.457 Z-0.207 I2.317 J1.851
N765 X-2.376 Y4.344 Z-0.206 I-2.615 J1.391
N770 X-3.04 Y-3.899 Z-0.207 I-0.239 J-2.949
N775 X4.779 Y-1.243 Z-0.206 I2.798 J0.949
N780 X-0.755 Y4.875 Z-0.207 I-1.979 J2.189
N785 X-4.169 Y-2.624 Z-0.206 I-1.223 J-2.682
N790 X4.057 Y-2.783 Z-0.206 I2.943 J-0.058
N795 X0.944 Y4.823 Z-0.207 I-1.113 J2.722
N800 X-4.796 Y-1.046 Z-0.206 I-2.054 J-2.099
N805 X2.859 Y-3.982 Z-0.207 I2.738 J-1.052
N810 X2.518 Y4.199 Z-0.206 I-0.121 J2.927
N815 X-4.847 Y0.644 Z-0.206 I-2.636 J-1.271
N820 X1.33 Y-4.699 Z-0.207 I2.209 J-1.913
N825 X3.781 Y3.081 Z-0.206 I0.878 J2.783
N830 X-4.323 Y2.246 Z-0.207 I-2.9 J-0.298
N835 X-0.346 Y-4.854 Z-0.206 I1.422 J-2.54
N840 X4.587 Y1.607 Z-0.206 I1.765 J2.311
N845 X-3.291 Y3.568 Z-0.207 I-2.818 J0.703
N850 X-1.967 Y-4.43 Z-0.206 I0.472 J-2.862
N855 X4.842 Y-0.048 Z-0.207 I2.437 J1.567
N860 X-1.875 Y4.457 Z-0.206 I-2.402 J1.613
N865 X-3.344 Y-3.485 Z-0.206 I-0.527 J-2.841
N870 X4.52 Y-1.684 Z-0.207 I2.814 J0.643
N875 X-0.246 Y4.811 Z-0.206 I-1.704 J2.325
N880 X-4.314 Y-2.132 Z-0.207 I-1.456 J-2.484
N885 X3.665 Y-3.11 Z-0.206 I2.854 J-0.351
N890 X1.398 Y4.592 Z-0.207 I-0.809 J2.755
N895 X-4.764 Y-0.538 Z-0.206 I-2.205 J-1.834
N900 X2.381 Y-4.154 Z-0.206 I2.555 J-1.295
N905 X2.865 Y3.828 Z-0.207 I0.175 J2.856
N910 X-4.645 Y1.11 Z-0.206 I-2.687 J-0.971
N915 X0.823 Y-4.698 Z-0.207 I1.955 J-2.079
N920 X3.981 Y2.616 Z-0.206 I1.131 J2.616
N925 X-5.7 I-2.85
N930 X5.7 I2.85
N935 G01 X0.004 Y0.24 F1000.
N940 X0.176 Y0.941
N945 X0.041 Y0.144
N950 X0.025 Y0.148
N955 X0.01 Y0.15
N960 X-0.003 Y0.15
N965 X-0.016 Y0.159
N970 X-0.031 Y0.168
N975 X-0.047 Y0.176
N980 X-0.064 Y0.181
N985 X-0.084 Y0.186
N990 X-0.103 Y0.188
N995 X-0.124 Y0.188
N1000 X-0.145 Y0.185
N1005 X-0.166 Y0.181
N1010 X-0.187 Y0.173
N1015 X-0.207 Y0.163
N1020 X-0.228 Y0.151
N1025 X-0.246 Y0.137
N1030 X-0.263 Y0.119
N1035 X-0.279 Y0.101
N1040 X-0.293 Y0.079
N1045 X-0.305 Y0.057
N1050 X-0.314 Y0.033
N1055 X-0.321 Y0.008
N1060 X-0.326 Y-0.019
N1065 X-0.327 Y-0.045
N1070 X-0.327 Y-0.072
N1075 X-0.323 Y-0.099
N1080 X-0.318 Y-0.126
N1085 X-0.309 Y-0.153
N1090 X-0.298 Y-0.178
N1095 X-0.285 Y-0.202
N1100 X-0.269 Y-0.227
N1105 X-0.251 Y-0.248
N1110 X-0.232 Y-0.269
N1115 X-0.21 Y-0.288
N1120 X-0.187 Y-0.305
N1125 X-0.162 Y-0.319
N1130 X-0.137 Y-0.333
N1135 X-0.11 Y-0.344
N1140 X-0.082 Y-0.352
N1145 X-0.053 Y-0.358
N1150 X-0.025 Y-0.361
N1155 X0.005 Y-0.364
N1160 X0.033 Y-0.362
N1165 X0.063 Y-0.358
N1170 X0.091 Y-0.353
N1175 X0.119 Y-0.344
N1180 X0.147 Y-0.334
N1185 X0.173 Y-0.322
N1190 X0.199 Y-0.306
N1195 X0.222 Y-0.29
N1200 X0.245 Y-0.271
N1205 X0.267 Y-0.251
N1210 X0.285 Y-0.228
N1215 X0.303 Y-0.205
N1220 X0.319 Y-0.18
N1225 X0.332 Y-0.154
N1230 X0.344 Y-0.127
N1235 X0.352 Y-0.099
N1240 X0.36 Y-0.07
N1245 X0.364 Y-0.041
N1250 X0.366 Y-0.012
N1255 X0.366 Y0.018
N1260 X0.363 Y0.047
N1265 X0.359 Y0.076
N1270 X0.351 Y0.104
N1275 X0.342 Y0.133
N1280 X0.33 Y0.159
N1285 X0.316 Y0.185
N1290 X0.3 Y0.211
N1295 X0.282 Y0.233
N1300 X0.263 Y0.256
N1305 X0.242 Y0.275
N1310 X0.218 Y0.295
N1315 X0.23 Y0.368
N1320 X0.362 Y0.698
N1325 X0.256 Y0.608
N1330 X0.169 Y0.514
N1335 X0.112 Y0.465
N1340 X0.069 Y0.44
N1345 X0.033 Y0.427
N1350 X-0.002 Y0.413
N1355 X-0.033 Y0.402
N1360 X-0.066 Y0.393
N1365 X-0.096 Y0.383
N1370 X-0.126 Y0.374
N1375 X-0.156 Y0.364
N1380 X-0.186 Y0.352
N1385 X-0.215 Y0.339
N1390 X-0.244 Y0.322
N1395 X-0.271 Y0.306
N1400 X-0.299 Y0.286
N1405 X-0.325 Y0.264
N1410 X-0.349 Y0.24
N1415 X-0.373 Y0.215
N1420 X-0.395 Y0.187
N1425 X-0.414 Y0.157
N1430 X-0.431 Y0.124
N1435 X-0.444 Y0.091
N1440 X-0.456 Y0.055
N1445 X-0.464 Y0.019
N1450 X-0.469 Y-0.019
N1455 X-0.471 Y-0.057
N1460 X-0.468 Y-0.095
N1465 X-0.463 Y-0.134
N1470 X-0.453 Y-0.171
N1475 X-0.442 Y-0.209
N1480 X-0.426 Y-0.245
N1485 X-0.407 Y-0.28
N1490 X-0.386 Y-0.313
N1495 X-0.361 Y-0.346
N1500 X-0.333 Y-0.374
N1505 X-0.304 Y-0.402
N1510 X-0.271 Y-0.427
N1515 X-0.237 Y-0.448
N1520 X-0.201 Y-0.468
N1525 X-0.163 Y-0.483
N1530 X-0.125 Y-0.496
N1535 X-0.084 Y-0.505
N1540 X-0.043 Y-0.512
N1545 X-0.002 Y-0.514
N1550 X0.039 Y-0.513
N1555 X0.08 Y-0.509
N1560 X0.121 Y-0.502
N1565 X0.161 Y-0.491
N1570 X0.2 Y-0.477
N1575 X0.238 Y-0.46
N1580 X0.275 Y-0.439
N1585 X0.308 Y-0.416
N1590 X0.342 Y-0.39
N1595 X0.371 Y-0.362
N1600 X0.4 Y-0.331
N1605 X0.425 Y-0.297
N1610 X0.448 Y-0.263
N1615 X0.468 Y-0.226
N1620 X0.484 Y-0.188
N1625 X0.498 Y-0.148
N1630 X0.508 Y-0.108
N1635 X0.516 Y-0.067
N1640 X0.519 Y-0.025
N1645 X0.519 Y0.016
N1650 X0.517 Y0.058
N1655 X0.51 Y0.1
N1660 X0.501 Y0.14
N1665 X0.488 Y0.18
N1670 X0.472 Y0.218
N1675 X0.453 Y0.256
N1680 X0.431 Y0.291
N1685 X0.417 Y0.333
N1690 X0.447 Y0.421
N1695 X0.428 Y0.473
N1700 X0.401 Y0.522
N1705 X0.364 Y0.562
N1710 X0.314 Y0.581
N1715 X0.259 Y0.59
N1720 X0.206 Y0.594
N1725 X0.154 Y0.594
N1730 X0.104 Y0.592
N1735 X0.055 Y0.589
N1740 X0.007 Y0.584
N1745 X-0.039 Y0.577
N1750 X-0.085 Y0.568
N1755 X-0.129 Y0.556
N1760 X-0.173 Y0.542
N1765 X-0.216 Y0.526
N1770 X-0.257 Y0.507
N1775 X-0.298 Y0.486
N1780 X-0.338 Y0.463
N1785 X-0.375 Y0.436
N1790 X-0.412 Y0.407
N1795 X-0.446 Y0.376
N1800 X-0.479 Y0.341
N1805 X-0.508 Y0.304
N1810 X-0.536 Y0.265
N1815 X-0.561 Y0.222
N1820 X-0.581 Y0.179
N1825 X-0.598 Y0.132
N1830 X-0.612 Y0.084
N1835 X-0.621 Y0.036
N1840 X-0.626 Y-0.015
N1845 X-0.628 Y-0.065
N1850 X-0.624 Y-0.117
N1855 X-0.616 Y-0.167
N1860 X-0.605 Y-0.217
N1865 X-0.589 Y-0.267
N1870 X-0.568 Y-0.314
N1875 X-0.544 Y-0.361
N1880 X-0.516 Y-0.406
N1885 X-0.483 Y-0.447
N1890 X-0.448 Y-0.487
N1895 X-0.409 Y-0.523
N1900 X-0.366 Y-0.555
N1905 X-0.322 Y-0.586
N1910 X-0.275 Y-0.61
N1915 X-0.225 Y-0.633
N1920 X-0.174 Y-0.65
N1925 X-0.122 Y-0.663
N1930 X-0.068 Y-0.672
N1935 X-0.014 Y-0.676
N1940 X0.04 Y-0.676
N1945 X0.095 Y-0.672
N1950 X0.148 Y-0.662
N1955 X0.202 Y-0.649
N1960 X0.252 Y-0.632
N1965 X0.303 Y-0.609
N1970 X0.351 Y-0.584
N1975 X0.397 Y-0.554
N1980 X0.441 Y-0.52
N1985 X0.481 Y-0.484
N1990 X0.518 Y-0.443
N1995 X0.553 Y-0.401
N2000 X0.583 Y-0.355
N2005 X0.61 Y-0.307
N2010 X0.633 Y-0.258
N2015 X0.651 Y-0.206
N2020 X0.666 Y-0.153
N2025 X0.676 Y-0.099
N2030 X0.682 Y-0.044
N2035 X0.684 Y0.01
N2040 X0.68 Y0.066
N2045 X0.674 Y0.119
N2050 X0.661 Y0.174
N2055 X0.646 Y0.226
N2060 X0.628 Y0.278
N2065 X0.623 Y0.338
N2070 X0.613 Y0.4
N2075 X0.597 Y0.461
N2080 X0.572 Y0.521
N2085 X0.538 Y0.575
N2090 X0.494 Y0.621
N2095 X0.443 Y0.66
N2100 X0.387 Y0.69
N2105 X0.328 Y0.714
N2110 X0.268 Y0.733
N2115 X0.206 Y0.745
N2120 X0.145 Y0.753
N2125 X0.083 Y0.756
N2130 X0.021 Y0.755
N2135 X-0.038 Y0.749
N2140 X-0.098 Y0.74
N2145 X-0.157 Y0.728
N2150 X-0.214 Y0.71
N2155 X-0.27 Y0.691
N2160 X-0.324 Y0.667
N2165 X-0.378 Y0.639
N2170 X-0.428 Y0.608
N2175 X-0.478 Y0.574
N2180 X-0.524 Y0.536
N2185 X-0.569 Y0.495
N2190 X-0.609 Y0.449
N2195 X-0.647 Y0.402
N2200 X-0.681 Y0.35
N2205 X-0.712 Y0.296
N2210 X-0.737 Y0.24
N2215 X-0.759 Y0.181
N2220 X-0.775 Y0.12
N2225 X-0.787 Y0.057
N2230 X-0.793 Y-0.005
N2235 X-0.795 Y-0.07
N2240 X-0.79 Y-0.134
N2245 X-0.782 Y-0.198
N2250 X-0.766 Y-0.261
N2255 X-0.747 Y-0.323
N2260 X-0.721 Y-0.384
N2265 X-0.691 Y-0.443
N2270 X-0.656 Y-0.498
N2275 X-0.616 Y-0.551
N2280 X-0.571 Y-0.601
N2285 X-0.523 Y-0.647
N2290 X-0.471 Y-0.689
N2295 X-0.415 Y-0.726
N2300 X-0.356 Y-0.758
N2305 X-0.295 Y-0.787
N2310 X-0.231 Y-0.81
N2315 X-0.166 Y-0.826
N2320 X-0.099 Y-0.839
N2325 X-0.031 Y-0.846
N2330 X0.036 Y-0.846
N2335 X0.105 Y-0.841
N2340 X0.171 Y-0.832
N2345 X0.239 Y-0.815
N2350 X0.303 Y-0.795
N2355 X0.366 Y-0.768
N2360 X0.427 Y-0.736
N2365 X0.485 Y-0.701
N2370 X0.54 Y-0.659
N2375 X0.591 Y-0.615
N2380 X0.639 Y-0.565
N2385 X0.682 Y-0.512
N2390 X0.722 Y-0.456
N2395 X0.756 Y-0.397
N2400 X0.786 Y-0.335
N2405 X0.81 Y-0.27
N2410 X0.829 Y-0.205
N2415 X0.843 Y-0.138
N2420 X0.852 Y-0.07
N2425 X0.855 Y-0.001
N2430 X0.852 Y0.068
N2435 X0.844 Y0.136
N2440 X0.835 Y0.204
N2445 X0.824 Y0.273
N2450 X0.808 Y0.343
N2455 X0.789 Y0.411
N2460 X0.768 Y0.483
N2465 X0.74 Y0.553
N2470 X0.703 Y0.619
N2475 X0.658 Y0.68
N2480 X0.605 Y0.736
N2485 X0.545 Y0.784
N2490 X0.481 Y0.825
N2495 X0.411 Y0.858
N2500 X0.34 Y0.885
N2505 X0.267 Y0.906
N2510 X0.192 Y0.919
N2515 X0.014 Y0.109
N2520 X0.006 Y0.058
N2525 X0.004 Y0.059
N2530 X0.001 Y0.058
N2535 Y1.868
N2540 X-0.048 Y0.956
N2545 X-0.082 Y0.797
N2550 X-0.148 Y0.805
N2555 X-0.217 Y0.806
N2560 X-0.288 Y0.806
N2565 X-0.359 Y0.796
N2570 X-0.428 Y0.776
N2575 X-0.494 Y0.749
N2580 X-0.559 Y0.713
N2585 X-0.619 Y0.671
N2590 X-0.675 Y0.623
N2595 X-0.728 Y0.571
N2600 X-0.776 Y0.514
N2605 X-0.084 Y0.047
N2610 X-0.214 Y0.096
N2615 X-0.228 Y0.058
N2620 X-0.234 Y0.02
N2625 X-9.056
N2630 X-0.418 Y-0.021
N2635 X-0.444 Y-0.058
N2640 X-0.457 Y-0.098
N2645 X-0.52 Y-0.156
N2650 X-0.555 Y-0.216
N2655 X-0.569 Y-0.276
N2660 X-0.615 Y-0.362
N2665 X-0.635 Y-0.446
N2670 X-0.613 Y-0.509
N2675 X-0.601 Y-0.586
N2680 X-0.584 Y-0.67
N2685 X-0.55 Y-0.742
N2690 X-0.502 Y-0.807
N2695 X-0.439 Y-0.851
N2700 X-0.37 Y-0.883
N2705 X-0.301 Y-0.91
N2710 X-0.229 Y-0.929
N2715 X-0.159 Y-0.945
N2720 X-0.086 Y-0.954
N2725 X-0.014 Y-0.957
N2730 X0.059 Y-0.956
N2735 X0.131 Y-0.949
N2740 X0.202 Y-0.936
N2745 X0.273 Y-0.918
N2750 X0.342 Y-0.895
N2755 X0.408 Y-0.866
N2760 X0.471 Y-0.834
N2765 X0.533 Y-0.796
N2770 X0.59 Y-0.754
N2775 X0.645 Y-0.708
N2780 X0.696 Y-0.658
N2785 X0.743 Y-0.604
N2790 X0.785 Y-0.548
N2795 X0.013 Y-0.007
N2800 X0.224 Y-0.107
N2805 X0.24 Y-0.066
N2810 X0.248 Y-0.022
N2815 X10.538
N2820 X0.505 Y0.025
N2825 X0.386 Y0.051
N2830 X0.468 Y0.1
N2835 X0.476 Y0.143
N2840 X0.563 Y0.219
N2845 X0.557 Y0.27
N2850 X0.626 Y0.368
N2855 X0.663 Y0.466
N2860 X0.638 Y0.53
N2865 X0.65 Y0.634
N2870 X0.63 Y0.722
N2875 X0.319 Y0.43
N2880 X0.151 Y0.257
N2885 X0.093 Y0.282
N2890 X0.032 Y0.296
N2895 G03 X-0.62 Y0.579 Z0.2 I-0.6 J-0.021
N2900 X-0.317 Y-0.104 I0.02 J-0.6
N2905 G01 X-6.137 Y-4.172
N2910 G03 X-0.262 Y-0.476 I0.337 J-0.496
N2915 X0.579 Y-0.62 Z-0.2 I0.6 J-0.02
N2920 G01 X3.478
N2925 X0.251 Y0.013
N2930 X0.306 Y0.04
N2935 X0.331 Y0.07
N2940 X0.393 Y0.118
N2945 X0.392 Y0.153
N2950 X0.468 Y0.227
N2955 X0.286 Y0.169
N2960 X0.182 Y0.127
N2965 X0.16 Y0.156
N2970 X0.133 Y0.178
N2975 G03 X-0.217 Y0.82 Z0.2 I-0.519 J0.301
N2980 X-0.526 Y0.038 I-0.302 J-0.519
N2985 G01 X-2.362 Y-0.953
N2990 G03 X-0.376 Y-0.536 I0.224 J-0.556
N2995 X0.579 Y-0.62 Z-0.2 I0.6 J-0.02
N3000 G01 X0.218
N3005 X0.217 Y0.012
N3010 X0.435 Y0.027
N3015 X0.217 Y0.018
N3020 X0.218 Y0.026
N3025 X0.217 Y0.068
N3030 X0.245 Y0.086
N3035 X0.095 Y0.039
N3040 X0.095 Y0.056
N3045 X0.326 Y0.206
N3050 X0.054 Y0.042
N3055 X0.055 Y0.051
N3060 X0.259 Y0.258
N3065 X0.051 Y0.055
N3070 X0.041 Y0.054
N3075 X0.205 Y0.326
N3080 X0.057 Y0.097
N3085 X0.039 Y0.097
N3090 X0.084 Y0.241
N3095 X0.068 Y0.218
N3100 X0.026 Y0.217
N3105 X0.018 Y0.217
N3110 X0.028 Y0.435
N3115 X0.011 Y0.218
N3120 Y7.264
N3125 G03 X-0.095 Y0.304 I-0.6 J-0.021
N3130 G01 X-0.115 Y0.179
N3135 G02 X-0.011 Y0.631 I0.505 J0.325
N3140 G03 X0.221 Y0.754 I-1.36 J0.809
N3145 G01 Y5.001
N3150 X-0.024 Y0.486
N3155 X-0.048 Y0.36
N3160 X-0.088 Y0.415
N3165 X-0.129 Y0.43
N3170 X-0.194 Y0.499
N3175 X-0.249 Y0.511
N3180 X-0.328 Y0.558
N3185 X-0.425 Y0.605
N3190 X-0.351 Y0.423
N3195 X-0.203 Y0.199
N3200 X-0.239 Y0.155
N3205 X-0.265 Y0.102
N3210 X-0.281 Y0.047
N3215 G03 X-0.617 Y-0.582 Z0.2 I-0.017 J-0.6
N3220 X0.071 Y-0.302 I0.6 J-0.018
N3225 G01 X2.242 Y-4.169
N3230 G03 X0.508 Y-0.316 I0.528 J0.284
N3235 X0.62 Y0.579 Z-0.2 I0.02 J0.6
N3240 G01 Y1.739
N3245 X-0.011 Y0.218
N3250 X-0.028 Y0.435
N3255 X-0.018 Y0.217
N3260 X-0.026 Y0.217
N3265 X-0.068 Y0.218
N3270 X-0.084 Y0.241
N3275 X-0.039 Y0.097
N3280 X-0.057 Y0.097
N3285 X-0.205 Y0.326
N3290 X-0.041 Y0.054
N3295 X-0.051 Y0.055
N3300 X-0.259 Y0.258
N3305 X-0.055 Y0.051
N3310 X-0.054 Y0.042
N3315 X-0.326 Y0.206
N3320 X-0.095 Y0.056
N3325 X-0.095 Y0.039
N3330 X-0.245 Y0.086
N3335 X-0.217 Y0.068
N3340 X-0.218 Y0.026
N3345 X-0.217 Y0.018
N3350 X-0.435 Y0.027
N3355 X-0.217 Y0.012
N3360 X-3.12
N3365 G03 X-0.254 Y-0.056 Z0.056 J-0.6
N3370 G01 X-0.077 Y-0.03 Z0.017
N3375 X-0.079 Y-0.019 Z0.017
N3380 X-0.082 Y-0.007 Z0.018
N3385 X-0.26 Y-0.007 Z0.055
N3390 X-0.174 Y-0.004 Z0.037
N3395 X-7.054 Y-0.182
N3400 X-0.094 Y0.005
N3405 X-0.093 Y0.019
N3410 X-0.069 Y0.026 Z-0.016
N3415 X-0.066 Y0.034 Z-0.015
N3420 G03 X-0.754 Y0.221 Z-0.169 I-0.809 J-1.36
N3425 G01 X-3.478
N3430 X-0.23 Y-0.011
N3435 X-0.3 Y-0.04
N3440 X-0.331 Y-0.071
N3445 X-0.381 Y-0.114
N3450 X-0.388 Y-0.151
N3455 X-0.453 Y-0.22
N3460 X-0.45 Y-0.265
N3465 X-0.506 Y-0.355
N3470 X-0.52 Y-0.432
N3475 X-0.523 Y-0.51
N3480 X-0.546 Y-0.626
N3485 X-0.54 Y-0.729
N3490 X-0.499 Y-0.803
N3495 X-0.439 Y-0.851
N3500 X-0.372 Y-0.882
N3505 X-0.307 Y-0.907
N3510 X-0.243 Y-0.927
N3515 X-0.181 Y-0.94
N3520 X-0.119 Y-0.95
N3525 X-0.058 Y-0.956
N3530 X0.006 Y-0.958
N3535 X0.071 Y-0.955
N3540 X0.133 Y-0.948
N3545 X0.194 Y-0.938
N3550 X0.253 Y-0.924
N3555 X0.311 Y-0.906
N3560 X0.367 Y-0.884
N3565 X0.425 Y-0.859
N3570 X0.48 Y-0.828
N3575 X0.532 Y-0.796
N3580 X0.582 Y-0.761
N3585 X0.628 Y-0.724
N3590 X0.355 Y-0.361
N3595 X0.213 Y-0.177
N3600 X0.244 Y-0.132
N3605 X0.265 Y-0.082
N3610 X0.276 Y-0.027
N3615 X3.471
N3620 G03 X0.579 Y0.62 Z0.2 I-0.021 J0.6
N3625 G01 X-0.001 Y0.021
N3630 X-1.417 Y20.739
N3635 X-0.004 Y0.061 Z-0.013
N3640 G03 X-0.577 Y0.559 Z-0.187 I-0.599 J-0.041
N3645 G01 X-2.609
N3650 X-0.353 Y-0.018
N3655 X-0.275 Y-0.036
N3660 X-0.279 Y-0.059
N3665 X-0.325 Y-0.098
N3670 X-0.352 Y-0.137
N3675 X-0.374 Y-0.181
N3680 X-0.42 Y-0.248
N3685 X-0.427 Y-0.299
N3690 X-0.466 Y-0.387
N3695 X-0.484 Y-0.472
N3700 X-0.476 Y-0.546
N3705 X-0.495 Y-0.67
N3710 X-0.488 Y-0.783
N3715 X-0.439 Y-0.851
N3720 X-0.373 Y-0.882
N3725 X-0.31 Y-0.906
N3730 X-0.248 Y-0.925
N3735 X-0.189 Y-0.939
N3740 X-0.133 Y-0.949
N3745 X-0.075 Y-0.954
N3750 X-0.021 Y-0.958
N3755 X0.035 Y-0.957
N3760 X0.089 Y-0.954
N3765 X0.145 Y-0.946
N3770 X0.198 Y-0.937
N3775 X0.251 Y-0.924
N3780 X0.302 Y-0.909
N3785 X0.352 Y-0.891
N3790 X0.401 Y-0.87
N3795 X0.448 Y-0.846
N3800 X0.495 Y-0.82
N3805 X0.54 Y-0.79
N3810 X0.244 Y-0.315
N3815 X0.222 Y-0.228
N3820 X0.268 Y-0.172
N3825 X0.3 Y-0.107
N3830 X0.317 Y-0.036
N3835 X2.953
N3840 G03 X0.579 Y0.616 Z0.199 I-0.021 J0.6
N3845 G01 Y0.004 Z0.001
N3850 X-0.558 Y20.76
N3855 X-0.001 Y0.036 Z-0.008
N3860 G03 X-0.578 Y0.584 Z-0.192 I-0.6 J-0.016
N3865 G01 X-2.609
N3870 X-0.261 Y-0.013
N3875 X-0.241 Y-0.032
N3880 X-0.273 Y-0.058
N3885 X-0.306 Y-0.092
N3890 X-0.315 Y-0.123
N3895 X-0.369 Y-0.179
N3900 X-0.363 Y-0.213
N3905 X-0.424 Y-0.298
N3910 X-0.408 Y-0.339
N3915 X-0.464 Y-0.452
N3920 X-0.451 Y-0.517
N3925 X-0.463 Y-0.627
N3930 X-0.469 Y-0.752
N3935 X-0.439 Y-0.851
N3940 X-0.371 Y-0.883
N3945 X-0.31 Y-0.906
N3950 X-0.25 Y-0.924
N3955 X-0.193 Y-0.938
N3960 X-0.138 Y-0.948
N3965 X-0.086 Y-0.954
N3970 X-0.034 Y-0.957
N3975 X0.015 Y-0.958
N3980 X0.064 Y-0.955
N3985 X0.112 Y-0.951
N3990 X0.161 Y-0.944
N3995 X0.208 Y-0.935
N4000 X0.256 Y-0.923
N4005 X0.301 Y-0.909
N4010 X0.347 Y-0.893
N4015 X0.389 Y-0.875
N4020 X0.432 Y-0.855
N4025 X0.474 Y-0.832
N4030 X0.195 Y-0.292
N4035 X0.174 Y-0.212
N4040 X0.212 Y-0.174
N4045 X0.242 Y-0.13
N4050 X0.263 Y-0.079
N4055 X0.273 Y-0.027
N4060 X2.724
N4065 G03 X0.579 Y0.606 Z0.197 I-0.021 J0.6
N4070 G01 Y0.014 Z0.003
N4075 X-0.214 Y20.76
N4080 Y0.027 Z-0.006
N4085 G03 X-0.579 Y0.593 Z-0.194 I-0.6 J-0.006
N4090 G01 X-2.392
N4095 X-0.277 Y-0.014
N4100 X-0.229 Y-0.03
N4105 X-0.273 Y-0.058
N4110 X-0.278 Y-0.084
N4115 X-0.316 Y-0.123
N4120 X-0.339 Y-0.164
N4125 X-0.358 Y-0.211
N4130 X-0.395 Y-0.278
N4135 X-0.402 Y-0.333
N4140 X-0.433 Y-0.422
N4145 X-0.448 Y-0.514
N4150 X-0.44 Y-0.595
N4155 X-0.454 Y-0.729
N4160 X-0.439 Y-0.851
N4165 X-0.37 Y-0.883
N4170 X-0.308 Y-0.907
N4175 X-0.249 Y-0.925
N4180 X-0.195 Y-0.937
N4185 X-0.142 Y-0.947
N4190 X-0.092 Y-0.954
N4195 X-0.044 Y-0.956
N4200 X0.003 Y-0.958
N4205 X0.047 Y-0.957
N4210 X0.092 Y-0.953
N4215 X0.135 Y-0.948
N4220 X0.178 Y-0.941
N4225 X0.221 Y-0.932
N4230 X0.263 Y-0.921
N4235 X0.305 Y-0.908
N4240 X0.345 Y-0.893
N4245 X0.384 Y-0.877
N4250 X0.392 Y-0.789
N4255 X0.199 Y-0.33
N4260 X0.172 Y-0.23
N4265 X0.217 Y-0.189
N4270 X0.25 Y-0.142
N4275 X0.274 Y-0.087
N4280 X0.286 Y-0.03
N4285 X2.6
N4290 G03 X0.579 Y0.596 Z0.195 I-0.021 J0.6
N4295 G01 Y0.024 Z0.005
N4300 X0.118 Y20.76
N4305 Y0.017 Z-0.004
N4310 G03 X-0.579 Y0.603 Z-0.196 I-0.6 J0.003
N4315 G01 X-2.392
N4320 X-0.222 Y-0.011
N4325 X-0.229 Y-0.03
N4330 X-0.268 Y-0.057
N4335 X-0.27 Y-0.081
N4340 X-0.315 Y-0.123
N4345 X-0.32 Y-0.156
N4350 X-0.359 Y-0.211
N4355 X-0.374 Y-0.263
N4360 X-0.401 Y-0.332
N4365 X-0.415 Y-0.405
N4370 X-0.445 Y-0.51
N4375 X-0.425 Y-0.575
N4380 X-0.444 Y-0.713
N4385 X-0.439 Y-0.85
N4390 X-0.369 Y-0.884
N4395 X-0.307 Y-0.907
N4400 X-0.249 Y-0.925
N4405 X-0.196 Y-0.937
N4410 X-0.145 Y-0.947
N4415 X-0.097 Y-0.952
N4420 X-0.051 Y-0.957
N4425 X-0.008 Y-0.957
N4430 X0.035 Y-0.958
N4435 X0.076 Y-0.954
N4440 X0.116 Y-0.951
N4445 X0.155 Y-0.945
N4450 X0.195 Y-0.938
N4455 X0.232 Y-0.929
N4460 X0.271 Y-0.918
N4465 X0.309 Y-0.907
N4470 X0.347 Y-0.892
N4475 X0.331 Y-0.729
N4480 X0.209 Y-0.376
N4485 X0.171 Y-0.243
N4490 X0.219 Y-0.201
N4495 X0.256 Y-0.151
N4500 X0.282 Y-0.093
N4505 X0.296 Y-0.032
N4510 X2.522
N4515 G03 X0.579 Y0.59 Z0.194 I-0.021 J0.6
N4520 G01 X0.001 Y0.03 Z0.006
N4525 X0.325 Y20.76
N4530 Y0.011 Z-0.002
N4535 G03 X-0.579 Y0.609 Z-0.198 I-0.6 J0.009
N4540 G01 X-2.391
N4545 X-0.15 Y-0.007
N4550 X-0.232 Y-0.032
N4555 X-0.262 Y-0.058
N4560 X-0.271 Y-0.083
N4565 X-0.315 Y-0.125
N4570 X-0.313 Y-0.154
N4575 X-0.363 Y-0.216
N4580 X-0.36 Y-0.257
N4585 X-0.406 Y-0.341
N4590 X-0.4 Y-0.395
N4595 X-0.441 Y-0.512
N4600 X-0.424 Y-0.579
N4605 X-0.435 Y-0.709
N4610 X-0.434 Y-0.854
N4615 X-0.364 Y-0.886
N4620 X-0.302 Y-0.909
N4625 X-0.245 Y-0.925
N4630 X-0.194 Y-0.938
N4635 X-0.145 Y-0.947
N4640 X-0.099 Y-0.953
N4645 X-0.055 Y-0.956
N4650 X-0.013 Y-0.957
N4655 X0.027 Y-0.958
N4660 X0.066 Y-0.955
N4665 X0.103 Y-0.952
N4670 X0.14 Y-0.948
N4675 X0.176 Y-0.941
N4680 X0.211 Y-0.934
N4685 X0.247 Y-0.926
N4690 X0.281 Y-0.915
N4695 X0.322 Y-0.902
N4700 X0.29 Y-0.666
N4705 X0.198 Y-0.37
N4710 X0.17 Y-0.249
N4715 X0.219 Y-0.207
N4720 X0.259 Y-0.155
N4725 X0.286 Y-0.096
N4730 X0.3 Y-0.033
N4735 X2.471
N4740 G03 X0.579 Y0.586 Z0.193 I-0.021 J0.6
N4745 G01 Y0.034 Z0.007
N4750 X0.457 Y20.76
N4755 Y0.007 Z-0.002
N4760 G03 X-0.579 Y0.613 Z-0.198 I-0.6 J0.013
N4765 G01 X-2.174
N4770 X-0.256 Y-0.013
N4775 X-0.226 Y-0.029
N4780 X-0.259 Y-0.056
N4785 X-0.265 Y-0.079
N4790 X-0.309 Y-0.121
N4795 X-0.309 Y-0.15
N4800 X-0.353 Y-0.207
N4805 X-0.359 Y-0.253
N4810 X-0.394 Y-0.327
N4815 X-0.401 Y-0.391
N4820 X-0.434 Y-0.497
N4825 X-0.416 Y-0.562
N4830 X-0.435 Y-0.699
N4835 X-0.434 Y-0.841
N4840 X-0.369 Y-0.884
N4845 X-0.307 Y-0.907
N4850 X-0.25 Y-0.924
N4855 X-0.2 Y-0.937
N4860 X-0.151 Y-0.946
N4865 X-0.106 Y-0.952
N4870 X-0.063 Y-0.955
N4875 X-0.023 Y-0.958
N4880 X0.015 Y-0.957
N4885 X0.052 Y-0.957
N4890 X0.087 Y-0.953
N4895 X0.122 Y-0.95
N4900 X0.155 Y-0.945
N4905 X0.189 Y-0.939
N4910 X0.221 Y-0.932
N4915 X0.256 Y-0.923
N4920 X0.299 Y-0.909
N4925 X0.272 Y-0.663
N4930 X0.251 Y-0.496
N4935 X0.011 Y-0.019
N4940 X0.174 Y-0.227
N4945 X0.215 Y-0.187
N4950 X0.249 Y-0.14
N4955 X0.272 Y-0.086
N4960 X0.284 Y-0.029
N4965 X2.441
N4970 G03 X0.579 Y0.578 Z0.191 I-0.021 J0.6
N4975 G01 X0.001 Y0.042 Z0.009
N4980 X0.752 Y20.759
N4985 Y0.001
N4990 G03 X-0.578 Y0.62 Z-0.2 I-0.6 J0.02
N4995 G01 X-2.392
N5000 X-0.15 Y-0.007
N5005 X-0.233 Y-0.033
N5010 X-0.253 Y-0.056
N5015 X-0.272 Y-0.084
N5020 X-0.308 Y-0.123
N5025 X-0.31 Y-0.153
N5030 X-0.361 Y-0.216
N5035 X-0.35 Y-0.251
N5040 X-0.407 Y-0.343
N5045 X-0.388 Y-0.385
N5050 X-0.433 Y-0.504
N5055 X-0.425 Y-0.584
N5060 X-0.43 Y-0.703
N5065 X-0.432 Y-0.854
N5070 X-0.362 Y-0.887
N5075 X-0.301 Y-0.909
N5080 X-0.246 Y-0.926
N5085 X-0.195 Y-0.937
N5090 X-0.149 Y-0.946
N5095 X-0.106 Y-0.952
N5100 X-0.065 Y-0.956
N5105 X-0.027 Y-0.957
N5110 X0.01 Y-0.958
N5115 X0.046 Y-0.956
N5120 X0.079 Y-0.955
N5125 X0.112 Y-0.951
N5130 X0.144 Y-0.947
N5135 X0.176 Y-0.941
N5140 X0.208 Y-0.935
N5145 X0.243 Y-0.926
N5150 X0.292 Y-0.912
N5155 X0.249 Y-0.615
N5160 X0.183 Y-0.366
N5165 X0.168 Y-0.259
N5170 X0.221 Y-0.216
N5175 X0.263 Y-0.162
N5180 X0.292 Y-0.101
N5185 X0.308 Y-0.034
N5190 X2.406
N5195 G03 X0.579 Y0.576 Z0.191 I-0.021 J0.6
N5200 G01 X0.002 Y0.044 Z0.009
N5205 X0.801 Y20.757
N5210 Y0.003
N5215 G03 X-0.579 Y0.62 Z-0.2 I-0.6 J0.02
N5220 G01 X-2.174
N5225 X-0.23 Y-0.011
N5230 X-0.224 Y-0.03
N5235 X-0.256 Y-0.055
N5240 X-0.263 Y-0.078
N5245 X-0.307 Y-0.12
N5250 X-0.306 Y-0.149
N5255 X-0.351 Y-0.206
N5260 X-0.355 Y-0.25
N5265 X-0.392 Y-0.325
N5270 X-0.397 Y-0.387
N5275 X-0.431 Y-0.494
N5280 X-0.413 Y-0.559
N5285 X-0.435 Y-0.698
N5290 X-0.434 Y-0.842
N5295 X-0.37 Y-0.884
N5300 X-0.307 Y-0.907
N5305 X-0.252 Y-0.924
N5310 X-0.203 Y-0.936
N5315 X-0.156 Y-0.945
N5320 X-0.114 Y-0.951
N5325 X-0.073 Y-0.954
N5330 X-0.036 Y-0.957
N5335 X-0.001 Y-0.958
N5340 X0.033 Y-0.957
N5345 X0.066 Y-0.956
N5350 X0.097 Y-0.952
N5355 X0.128 Y-0.95
N5360 X0.158 Y-0.944
N5365 X0.191 Y-0.939
N5370 X0.226 Y-0.93
N5375 X0.275 Y-0.918
N5380 X0.236 Y-0.611
N5385 X0.235 Y-0.488
N5390 X0.025 Y-0.042
N5395 X0.172 Y-0.234
N5400 X0.217 Y-0.194
N5405 X0.253 Y-0.145
N5410 X0.277 Y-0.09
N5415 X0.289 Y-0.03
N5420 X2.393
N5425 G03 X0.578 Y0.57 Z0.189 I-0.021 J0.6
N5430 G01 X0.002 Y0.05 Z0.011
N5435 X1.033 Y20.751
N5440 X0.001 Y0.009
N5445 G03 X-0.579 Y0.62 Z-0.2 I-0.6 J0.02
N5450 G01 X-2.174
N5455 X-0.318 Y-0.016
N5460 X-0.229 Y-0.03
N5465 X-0.25 Y-0.053
N5470 X-0.267 Y-0.08
N5475 X-0.304 Y-0.119
N5480 X-0.305 Y-0.148
N5485 X-0.356 Y-0.209
N5490 X-0.347 Y-0.244
N5495 X-0.401 Y-0.333
N5500 X-0.387 Y-0.377
N5505 X-0.431 Y-0.495
N5510 X-0.418 Y-0.565
N5515 X-0.432 Y-0.694
N5520 X-0.436 Y-0.845
N5525 X-0.37 Y-0.884
N5530 X-0.308 Y-0.907
N5535 X-0.253 Y-0.924
N5540 X-0.204 Y-0.935
N5545 X-0.159 Y-0.945
N5550 X-0.118 Y-0.95
N5555 X-0.078 Y-0.955
N5560 X-0.042 Y-0.956
N5565 X-0.007 Y-0.958
N5570 X0.025 Y-0.957
N5575 X0.057 Y-0.956
N5580 X0.087 Y-0.954
N5585 X0.117 Y-0.951
N5590 X0.147 Y-0.946
N5595 X0.18 Y-0.941
N5600 X0.217 Y-0.932
N5605 X0.268 Y-0.92
N5610 X0.233 Y-0.612
N5615 X0.221 Y-0.465
N5620 X0.025 Y-0.044
N5625 X0.172 Y-0.237
N5630 X0.218 Y-0.196
N5635 X0.253 Y-0.146
N5640 X0.279 Y-0.09
N5645 X0.291 Y-0.031
N5650 X2.376
N5655 G03 X0.578 Y0.564 Z0.188 I-0.021 J0.6
N5660 G01 X0.004 Y0.056 Z0.012
N5665 X1.25 Y20.744
N5670 X0.001 Y0.016
N5675 G03 X-0.579 Y0.62 Z-0.2 I-0.6 J0.02
N5680 G01 X-2.392
N5685 X-0.179 Y-0.009
N5690 X-0.229 Y-0.03
N5695 X-0.25 Y-0.053
N5700 X-0.267 Y-0.081
N5705 X-0.306 Y-0.119
N5710 X-0.305 Y-0.148
N5715 X-0.357 Y-0.21
N5720 X-0.347 Y-0.244
N5725 X-0.401 Y-0.333
N5730 X-0.388 Y-0.378
N5735 X-0.433 Y-0.496
N5740 X-0.419 Y-0.567
N5745 X-0.434 Y-0.697
N5750 X-0.439 Y-0.85
N5755 X-0.369 Y-0.884
N5760 X-0.308 Y-0.906
N5765 X-0.255 Y-0.923
N5770 X-0.206 Y-0.936
N5775 X-0.162 Y-0.944
N5780 X-0.121 Y-0.95
N5785 X-0.083 Y-0.954
N5790 X-0.048 Y-0.956
N5795 X-0.013 Y-0.958
N5800 X0.018 Y-0.957
N5805 X0.048 Y-0.957
N5810 X0.079 Y-0.954
N5815 X0.108 Y-0.952
N5820 X0.138 Y-0.948
N5825 X0.171 Y-0.942
N5830 X0.21 Y-0.934
N5835 X0.257 Y-0.906
N5840 X0.226 Y-0.605
N5845 X0.217 Y-0.462
N5850 X0.029 Y-0.051
N5855 X0.172 Y-0.238
N5860 X0.217 Y-0.198
N5865 X0.255 Y-0.148
N5870 X0.279 Y-0.091
N5875 X0.293 Y-0.031
N5880 X2.364
N5885 G03 X0.578 Y0.564 Z0.188 I-0.021 J0.6
N5890 G01 X0.003 Y0.056 Z0.012
N5895 X1.235 Y20.745
N5900 X0.001 Y0.015
N5905 G03 X-0.579 Y0.62 Z-0.2 I-0.6 J0.02
N5910 G01 X-2.174
N5915 X-0.27 Y-0.014
N5920 X-0.229 Y-0.03
N5925 X-0.249 Y-0.053
N5930 X-0.267 Y-0.08
N5935 X-0.305 Y-0.119
N5940 X-0.305 Y-0.148
N5945 X-0.357 Y-0.21
N5950 X-0.347 Y-0.244
N5955 X-0.401 Y-0.333
N5960 X-0.389 Y-0.379
N5965 X-0.432 Y-0.496
N5970 X-0.42 Y-0.567
N5975 X-0.436 Y-0.7
N5980 X-0.439 Y-0.851
N5985 X-0.37 Y-0.884
N5990 X-0.309 Y-0.906
N5995 X-0.256 Y-0.923
N6000 X-0.208 Y-0.935
N6005 X-0.165 Y-0.943
N6010 X-0.124 Y-0.95
N6015 X-0.088 Y-0.953
N6020 X-0.053 Y-0.957
N6025 X-0.02 Y-0.957
N6030 X0.012 Y-0.958
N6035 X0.041 Y-0.957
N6040 X0.071 Y-0.955
N6045 X0.1 Y-0.952
N6050 X0.131 Y-0.949
N6055 X0.164 Y-0.943
N6060 X0.204 Y-0.936
N6065 X0.248 Y-0.887
N6070 X0.221 Y-0.601
N6075 X0.213 Y-0.461
N6080 X0.033 Y-0.057
N6085 X0.171 Y-0.24
N6090 X0.218 Y-0.2
N6095 X0.255 Y-0.149
N6100 X0.281 Y-0.092
N6105 X0.294 Y-0.031
N6110 X2.354
N6115 G03 X0.578 Y0.559 Z0.187 I-0.021 J0.6
N6120 G01 X0.004 Y0.061 Z0.013
N6125 X1.424 Y20.739
N6130 X0.001 Y0.021
N6135 G03 X-0.579 Y0.62 Z-0.2 I-0.6 J0.02
N6140 G01 X-2.392
N6145 X-0.149 Y-0.007
N6150 X-0.233 Y-0.033
N6155 X-0.25 Y-0.055
N6160 X-0.272 Y-0.084
N6165 X-0.307 Y-0.122
N6170 X-0.309 Y-0.152
N6175 X-0.36 Y-0.216
N6180 X-0.349 Y-0.249
N6185 X-0.407 Y-0.342
N6190 X-0.388 Y-0.385
N6195 X-0.434 Y-0.504
N6200 X-0.428 Y-0.588
N6205 X-0.437 Y-0.712
N6210 X-0.433 Y-0.855
N6215 X-0.364 Y-0.885
N6220 X-0.306 Y-0.908
N6225 X-0.253 Y-0.923
N6230 X-0.207 Y-0.936
N6235 X-0.164 Y-0.943
N6240 X-0.125 Y-0.95
N6245 X-0.089 Y-0.953
N6250 X-0.055 Y-0.956
N6255 X-0.024 Y-0.958
N6260 X0.008 Y-0.957
N6265 X0.037 Y-0.957
N6270 X0.066 Y-0.956
N6275 X0.096 Y-0.953
N6280 X0.128 Y-0.949
N6285 X0.162 Y-0.944
N6290 X0.203 Y-0.935
N6295 X0.237 Y-0.843
N6300 X0.215 Y-0.582
N6305 X0.213 Y-0.457
N6310 X0.023 Y-0.041
N6315 X0.171 Y-0.24
N6320 X0.218 Y-0.198
N6325 X0.255 Y-0.149
N6330 X0.281 Y-0.092
N6335 X0.293 Y-0.031
N6340 X2.347
N6345 G03 X0.578 Y0.56 Z0.187 I-0.021 J0.6
N6350 G01 X0.004 Y0.06 Z0.013
N6355 X1.386 Y20.74
N6360 X0.001 Y0.02
N6365 G03 X-0.579 Y0.62 Z-0.2 I-0.6 J0.02
N6370 G01 X-2.174
N6375 X-0.227 Y-0.011
N6380 X-0.225 Y-0.03
N6385 X-0.255 Y-0.054
N6390 X-0.263 Y-0.079
N6395 X-0.308 Y-0.12
N6400 X-0.306 Y-0.149
N6405 X-0.352 Y-0.207
N6410 X-0.356 Y-0.25
N6415 X-0.393 Y-0.326
N6420 X-0.4 Y-0.39
N6425 X-0.434 Y-0.498
N6430 X-0.419 Y-0.567
N6435 X-0.443 Y-0.711
N6440 X-0.439 Y-0.851
N6445 X-0.371 Y-0.883
N6450 X-0.311 Y-0.906
N6455 X-0.259 Y-0.922
N6460 X-0.213 Y-0.933
N6465 X-0.17 Y-0.943
N6470 X-0.132 Y-0.948
N6475 X-0.096 Y-0.953
N6480 X-0.062 Y-0.956
N6485 X-0.031 Y-0.957
N6490 Y-0.958
N6495 X0.029 Y-0.957
N6500 X0.059 Y-0.956
N6505 X0.088 Y-0.954
N6510 X0.119 Y-0.95
N6515 X0.154 Y-0.945
N6520 X0.195 Y-0.938
N6525 X0.236 Y-0.863
N6530 X0.214 Y-0.593
N6535 X0.208 Y-0.458
N6540 X0.036 Y-0.064
N6545 X0.171 Y-0.243
N6550 X0.219 Y-0.202
N6555 X0.256 Y-0.15
N6560 X0.282 Y-0.093
N6565 X0.296 Y-0.032
N6570 X2.34
N6575 G03 X0.577 Y0.555 Z0.186 I-0.021 J0.6
N6580 G01 X0.005 Y0.065 Z0.014
N6585 X1.559 Y20.735
N6590 X0.001 Y0.025
N6595 G03 X-0.579 Y0.62 Z-0.2 I-0.6 J0.02
N6600 G01 X-2.174
N6605 X-0.318 Y-0.016
N6610 X-0.229 Y-0.03
N6615 X-0.25 Y-0.054
N6620 X-0.267 Y-0.08
N6625 X-0.307 Y-0.119
N6630 X-0.306 Y-0.148
N6635 X-0.357 Y-0.211
N6640 X-0.35 Y-0.246
N6645 X-0.401 Y-0.333
N6650 X-0.393 Y-0.383
N6655 X-0.437 Y-0.5
N6660 X-0.425 Y-0.575
N6665 X-0.443 Y-0.711
N6670 X-0.439 Y-0.851
N6675 X-0.371 Y-0.883
N6680 X-0.312 Y-0.905
N6685 X-0.261 Y-0.922
N6690 X-0.215 Y-0.933
N6695 X-0.173 Y-0.942
N6700 X-0.134 Y-0.948
N6705 X-0.1 Y-0.953
N6710 X-0.066 Y-0.955
N6715 X-0.035 Y-0.957
N6720 X-0.005 Y-0.958
N6725 X0.024 Y-0.957
N6730 X0.054 Y-0.957
N6735 X0.083 Y-0.954
N6740 X0.115 Y-0.95
N6745 X0.15 Y-0.946
N6750 X0.193 Y-0.938
N6755 X0.229 Y-0.847
N6760 X0.211 Y-0.589
N6765 X0.208 Y-0.459
N6770 X0.037 Y-0.067
N6775 X0.171 Y-0.244
N6780 X0.219 Y-0.202
N6785 X0.256 Y-0.152
N6790 X0.283 Y-0.093
N6795 X0.296 Y-0.032
N6800 X2.336
N6805 G03 X0.577 Y0.55 Z0.185 I-0.021 J0.6
N6810 G01 X0.005 Y0.07 Z0.015
N6815 X1.724 Y20.731
N6820 X0.002 Y0.029
N6825 G03 X-0.579 Y0.62 Z-0.2 I-0.6 J0.02
N6830 G01 X-2.391
N6835 X-0.185 Y-0.009
N6840 X-0.229 Y-0.03
N6845 X-0.253 Y-0.054
N6850 X-0.267 Y-0.08
N6855 X-0.309 Y-0.121
N6860 X-0.306 Y-0.148
N6865 X-0.358 Y-0.211
N6870 X-0.353 Y-0.248
N6875 X-0.401 Y-0.333
N6880 X-0.396 Y-0.386
N6885 X-0.439 Y-0.503
N6890 X-0.427 Y-0.577
N6895 X-0.445 Y-0.716
N6900 X-0.44 Y-0.851
N6905 X-0.371 Y-0.883
N6910 X-0.314 Y-0.905
N6915 X-0.262 Y-0.921
N6920 X-0.217 Y-0.933
N6925 X-0.175 Y-0.941
N6930 X-0.138 Y-0.948
N6935 X-0.103 Y-0.952
N6940 X-0.071 Y-0.955
N6945 X-0.039 Y-0.957
N6950 X-0.009 Y-0.958
N6955 X0.02 Y-0.957
N6960 X0.049 Y-0.957
N6965 X0.079 Y-0.954
N6970 X0.111 Y-0.951
N6975 X0.148 Y-0.947
N6980 X0.19 Y-0.938
N6985 X0.225 Y-0.837
N6990 X0.209 Y-0.587
N6995 X0.206 Y-0.458
N7000 X0.038 Y-0.069
N7005 X0.171 Y-0.245
N7010 X0.219 Y-0.202
N7015 X0.257 Y-0.152
N7020 X0.283 Y-0.094
N7025 X0.297 Y-0.032
N7030 X2.331
N7035 G03 X0.577 Y0.552 Z0.185 I-0.021 J0.6
N7040 G01 X0.006 Y0.068 Z0.015
N7045 X1.668 Y20.732
N7050 X0.001 Y0.028
N7055 G03 X-0.578 Y0.62 Z-0.2 I-0.6 J0.02
N7060 G01 X-2.175
N7065 X-0.284 Y-0.014
N7070 X-0.229 Y-0.03
N7075 X-0.252 Y-0.054
N7080 X-0.268 Y-0.08
N7085 X-0.308 Y-0.121
N7090 X-0.307 Y-0.148
N7095 X-0.358 Y-0.211
N7100 X-0.354 Y-0.248
N7105 X-0.401 Y-0.333
N7110 X-0.397 Y-0.388
N7115 X-0.44 Y-0.504
N7120 X-0.429 Y-0.58
N7125 X-0.447 Y-0.719
N7130 X-0.439 Y-0.851
N7135 X-0.373 Y-0.883
N7140 X-0.314 Y-0.904
N7145 X-0.264 Y-0.921
N7150 X-0.218 Y-0.932
N7155 X-0.178 Y-0.941
N7160 X-0.141 Y-0.948
N7165 X-0.106 Y-0.951
N7170 X-0.074 Y-0.955
N7175 X-0.043 Y-0.957
N7180 X-0.013 Y-0.958
N7185 X0.017 Y-0.957
N7190 X0.045 Y-0.957
N7195 X0.076 Y-0.954
N7200 X0.108 Y-0.952
N7205 X0.145 Y-0.947
N7210 X0.189 Y-0.939
N7215 X0.221 Y-0.826
N7220 X0.207 Y-0.584
N7225 X0.205 Y-0.457
N7230 X0.038 Y-0.07
N7235 X0.171 Y-0.245
N7240 X0.219 Y-0.203
N7245 X0.257 Y-0.152
N7250 X0.284 Y-0.094
N7255 X0.297 Y-0.032
N7260 X2.328
N7265 G03 X0.577 Y0.547 Z0.184 I-0.021 J0.6
N7270 G01 X0.006 Y0.073 Z0.016
N7275 X1.824 Y20.728
N7280 X0.002 Y0.032
N7285 G03 X-0.579 Y0.62 Z-0.2 I-0.6 J0.02
N7290 G01 X-2.391
N7295 X-0.158 Y-0.008
N7300 X-0.229 Y-0.03
N7305 X-0.254 Y-0.054
N7310 X-0.267 Y-0.08
N7315 X-0.311 Y-0.121
N7320 X-0.308 Y-0.15
N7325 X-0.358 Y-0.211
N7330 X-0.356 Y-0.25
N7335 X-0.401 Y-0.333
N7340 X-0.401 Y-0.39
N7345 X-0.441 Y-0.506
N7350 X-0.431 Y-0.583
N7355 X-0.451 Y-0.724
N7360 X-0.439 Y-0.851
N7365 X-0.373 Y-0.882
N7370 X-0.315 Y-0.904
N7375 X-0.265 Y-0.921
N7380 X-0.221 Y-0.932
N7385 X-0.18 Y-0.94
N7390 X-0.143 Y-0.947
N7395 X-0.109 Y-0.952
N7400 X-0.077 Y-0.954
N7405 X-0.046 Y-0.957
N7410 X-0.017 Y-0.957
N7415 X0.013 Y-0.958
N7420 X0.043 Y-0.957
N7425 X0.073 Y-0.955
N7430 X0.105 Y-0.952
N7435 X0.143 Y-0.947
N7440 X0.187 Y-0.939
N7445 X0.218 Y-0.819
N7450 X0.206 Y-0.581
N7455 X0.204 Y-0.457
N7460 X0.038 Y-0.07
N7465 X0.171 Y-0.246
N7470 X0.219 Y-0.203
N7475 X0.257 Y-0.153
N7480 X0.284 Y-0.094
N7485 X0.297 Y-0.032
N7490 X2.326
N7495 G03 X0.577 Y0.549 Z0.185 I-0.021 J0.6
N7500 G01 X0.006 Y0.071 Z0.015
N7505 X1.761 Y20.73
N7510 X0.002 Y0.03
N7515 G03 X-0.579 Y0.62 Z-0.2 I-0.6 J0.02
N7520 G01 X-2.174
N7525 X-0.263 Y-0.013
N7530 X-0.229 Y-0.03
N7535 X-0.254 Y-0.055
N7540 X-0.268 Y-0.08
N7545 X-0.31 Y-0.12
N7550 X-0.308 Y-0.15
N7555 X-0.358 Y-0.211
N7560 X-0.357 Y-0.251
N7565 X-0.401 Y-0.332
N7570 X-0.402 Y-0.392
N7575 X-0.442 Y-0.507
N7580 X-0.433 Y-0.585
N7585 X-0.452 Y-0.728
N7590 X-0.44 Y-0.851
N7595 X-0.373 Y-0.882
N7600 X-0.316 Y-0.904
N7605 X-0.267 Y-0.919
N7610 X-0.222 Y-0.932
N7615 X-0.182 Y-0.94
N7620 X-0.145 Y-0.947
N7625 X-0.112 Y-0.951
N7630 X-0.08 Y-0.954
N7635 X-0.049 Y-0.957
N7640 X-0.019 Y-0.957
N7645 X0.01 Y-0.958
N7650 X0.04 Y-0.957
N7655 X0.071 Y-0.955
N7660 X0.103 Y-0.952
N7665 X0.141 Y-0.947
N7670 X0.186 Y-0.94
N7675 X0.215 Y-0.811
N7680 X0.205 Y-0.578
N7685 X0.203 Y-0.456
N7690 X0.038 Y-0.07
N7695 X0.171 Y-0.245
N7700 X0.219 Y-0.204
N7705 X0.257 Y-0.153
N7710 X0.284 Y-0.094
N7715 X0.298 Y-0.032
N7720 X2.322
N7725 G03 X0.577 Y0.545 Z0.184 I-0.021 J0.6
N7730 G01 X0.007 Y0.075 Z0.016
N7735 X1.911 Y20.725
N7740 X0.002 Y0.035
N7745 G03 X-0.578 Y0.62 Z-0.2 I-0.6 J0.02
N7750 G01 X-2.392
N7755 X-0.15 Y-0.007
N7760 X-0.23 Y-0.032
N7765 X-0.257 Y-0.055
N7770 X-0.269 Y-0.082
N7775 X-0.312 Y-0.123
N7780 X-0.31 Y-0.151
N7785 X-0.361 Y-0.215
N7790 X-0.359 Y-0.254
N7795 X-0.404 Y-0.337
N7800 X-0.403 Y-0.396
N7805 X-0.445 Y-0.513
N7810 X-0.437 Y-0.595
N7815 X-0.455 Y-0.737
N7820 X-0.436 Y-0.853
N7825 X-0.372 Y-0.883
N7830 X-0.315 Y-0.904
N7835 X-0.265 Y-0.92
N7840 X-0.222 Y-0.932
N7845 X-0.182 Y-0.94
N7850 X-0.147 Y-0.946
N7855 X-0.112 Y-0.951
N7860 X-0.081 Y-0.955
N7865 X-0.051 Y-0.956
N7870 X-0.02 Y-0.958
N7875 X0.008 Y-0.957
N7880 X0.039 Y-0.957
N7885 X0.069 Y-0.955
N7890 X0.104 Y-0.952
N7895 X0.141 Y-0.948
N7900 X0.187 Y-0.939
N7905 X0.211 Y-0.789
N7910 X0.202 Y-0.569
N7915 X0.204 Y-0.454
N7920 X0.032 Y-0.059
N7925 X0.171 Y-0.245
N7930 X0.219 Y-0.203
N7935 X0.257 Y-0.152
N7940 X0.284 Y-0.094
N7945 X0.297 Y-0.032
N7950 X2.321
N7955 G03 X0.576 Y0.546 Z0.184 I-0.021 J0.6
N7960 G01 X0.007 Y0.074 Z0.016
N7965 X1.843 Y20.727
N7970 X0.002 Y0.033
N7975 G03 X-0.579 Y0.62 Z-0.2 I-0.6 J0.02
N7980 G01 X-2.174
N7985 X-0.253 Y-0.013
N7990 X-0.227 Y-0.029
N7995 X-0.259 Y-0.056
N8000 X-0.265 Y-0.079
N8005 X-0.311 Y-0.121
N8010 X-0.311 Y-0.151
N8015 X-0.355 Y-0.209
N8020 X-0.365 Y-0.256
N8025 X-0.397 Y-0.33
N8030 X-0.409 Y-0.399
N8035 X-0.444 Y-0.509
N8040 X-0.434 Y-0.587
N8045 X-0.459 Y-0.737
N8050 X-0.439 Y-0.851
N8055 X-0.374 Y-0.881
N8060 X-0.318 Y-0.904
N8065 X-0.269 Y-0.919
N8070 X-0.225 Y-0.931
N8075 X-0.185 Y-0.939
N8080 X-0.15 Y-0.946
N8085 X-0.116 Y-0.951
N8090 X-0.084 Y-0.954
N8095 X-0.054 Y-0.956
N8100 X-0.024 Y-0.958
N8105 X0.006 Y-0.957
N8110 X0.036 Y-0.957
N8115 X0.066 Y-0.956
N8120 X0.1 Y-0.952
N8125 X0.138 Y-0.948
N8130 X0.184 Y-0.94
N8135 X0.212 Y-0.8
N8140 X0.202 Y-0.573
N8145 X0.202 Y-0.454
N8150 X0.022 Y-0.04
N8155 X0.159 Y-0.233
N8160 X0.202 Y-0.196
N8165 X0.238 Y-0.151
N8170 X0.263 Y-0.101
N8175 X0.278 Y-0.046
N8180 X0.288 Y-0.018
N8185 X0.217 Y-0.012
N8190 X1.918
N8195 G03 X0.576 Y0.542 Z0.183 I-0.021 J0.6
N8200 G01 X0.007 Y0.078 Z0.017
N8205 X1.989 Y20.723
N8210 X0.003 Y0.037
N8215 G03 X-0.579 Y0.62 Z-0.2 I-0.6 J0.02
N8220 G01 X-2.392
N8225 X-0.149 Y-0.007
N8230 X-0.232 Y-0.032
N8235 X-0.258 Y-0.057
N8240 X-0.271 Y-0.083
N8245 X-0.314 Y-0.124
N8250 X-0.311 Y-0.153
N8255 X-0.363 Y-0.216
N8260 X-0.362 Y-0.258
N8265 X-0.406 Y-0.341
N8270 X-0.406 Y-0.4
N8275 X-0.447 Y-0.519
N8280 X-0.442 Y-0.605
N8285 X-0.46 Y-0.747
N8290 X-0.01 Y-0.02
N8295 X-0.084 Y-0.203
N8300 X-0.051 Y-0.213
N8305 X-0.017 Y-0.219
N8310 G03 X0.62 Y-0.578 Z0.2 I0.6 J0.021
N8315 X0.382 Y0.154 I-0.02 J0.6
N8320 G01 X3.962 Y3.576
N8325 G03 X0.198 Y0.425 I-0.402 J0.445
N8330 X-0.579 Y0.62 Z-0.2 I-0.6 J0.02
N8335 G01 X-1.522
N8340 X-0.217 Y-0.012
N8345 X-0.435 Y-0.027
N8350 X-0.217 Y-0.018
N8355 X-0.218 Y-0.026
N8360 X-0.217 Y-0.068
N8365 X-0.245 Y-0.086
N8370 X-0.095 Y-0.039
N8375 X-0.095 Y-0.056
N8380 X-0.326 Y-0.206
N8385 X-0.054 Y-0.042
N8390 X-0.055 Y-0.051
N8395 X-0.259 Y-0.258
N8400 X-0.051 Y-0.055
N8405 X-0.041 Y-0.054
N8410 X-0.205 Y-0.326
N8415 X-0.057 Y-0.097
N8420 X-0.039 Y-0.097
N8425 X-0.084 Y-0.241
N8430 X-0.068 Y-0.218
N8435 X-0.026 Y-0.217
N8440 X-0.018 Y-0.217
N8445 X-0.028 Y-0.435
N8450 X-0.011 Y-0.218
N8455 Y-15.872
N8460 X0.011 Y-0.218
N8465 X0.028 Y-0.435
N8470 X0.018 Y-0.217
N8475 X0.026 Y-0.217
N8480 X0.068 Y-0.218
N8485 X0.084 Y-0.241
N8490 X0.039 Y-0.097
N8495 X0.057 Y-0.097
N8500 X0.205 Y-0.326
N8505 X0.041 Y-0.054
N8510 X0.051 Y-0.055
N8515 X0.259 Y-0.258
N8520 X0.055 Y-0.051
N8525 X0.054 Y-0.042
N8530 X0.326 Y-0.206
N8535 X0.095 Y-0.056
N8540 X0.095 Y-0.039
N8545 X0.245 Y-0.086
N8550 X0.217 Y-0.068
N8555 X0.218 Y-0.026
N8560 X0.217 Y-0.018
N8565 X0.147 Y-0.009
N8570 G03 X0.592 Y0.428 I0.017 J0.6
N8575 G01 X0.027 Y0.09 Z0.007
N8580 X0.026 Y0.087 Z0.022
N8585 X0.025 Y0.084 Z0.036
N8590 X0.023 Y0.077 Z0.05
N8595 X0.02 Y0.068 Z0.061
N8600 X0.018 Y0.059 Z0.071
N8605 X0.014 Y0.047 Z0.081
N8610 X0.01 Y0.034 Z0.087
N8615 X0.007 Y0.021 Z0.091
N8620 X0.002 Y0.008 Z0.094
N8625 Z19.9
N8630 G90

M05


(DRILL1 2)
N30 T18 M06
N35 S5000 M03
N40 G54
N45 M08
N50 G00 X73. Y28.5
N55 G43 Z15. H18
N60 G91
N65 G00 Z-10.
N70 Z-6.
N75 Z-3.
N80 G01 Z-4.5 F1000.
N85 G00 Z7.5
N90 Z-5.5
N95 G01 Z-4.5 F1000.
N100 G00 Z10.
N105 Z-8.
N110 G01 Z-4.5 F1000.
N115 G00 Z12.5
N120 Z-10.5
N125 G01 Z-4.5 F1000.
N130 G04 P1000
N135 G00 Z21.
N140 X-19.5
N145 Z-6.
N150 Z-3.
N155 G01 Z-4.5 F1000.
N160 G00 Z7.5
N165 Z-5.5
N170 G01 Z-4.5 F1000.
N175 G00 Z10.
N180 Z-8.
N185 G01 Z-4.5 F1000.
N190 G00 Z12.5
N195 Z-10.5
N200 G01 Z-4.5 F1000.
N205 G04 P1000
N210 G00 Z21.
N215 X-19.5
N220 Z-6.
N225 Z-3.
N230 G01 Z-4.5 F1000.
N235 G00 Z7.5
N240 Z-5.5
N245 G01 Z-4.5 F1000.
N250 G00 Z10.
N255 Z-8.
N260 G01 Z-4.5 F1000.
N265 G00 Z12.5
N270 Z-10.5
N275 G01 Z-4.5 F1000.
N280 G04 P1000
N285 G00 Z21.
N290 Z10.
N295 G90

M05

(2D ADAPTIVE4)
N30 T5 M06
N35 S5000 M03
N40 G54
N45 M08
N50 G00 X35.761 Y27.373
N55 G43 Z15. H05
N60 G91
N65 G01 Z-10. F1000.
N70 Z-9.45
N75 G03 X-1.506 Y3.202 Z-0.147 I-1.761 J1.127 F333.
N80 X-2.233 Y-2.74 Z-0.148 I-0.254 J-2.072
N85 X3.432 Y-0.826 Z-0.147 I1.976 J0.667
N90 X-0.739 Y3.447 Z-0.147 I-1.454 J1.491
N95 X-2.784 Y-2.155 Z-0.148 I-0.714 J-1.954
N100 X3.143 Y-1.576 Z-0.147 I2.068 J0.201
N105 X0.061 Y3.512 Z-0.147 I-1.075 J1.775
N110 X-3.188 Y-1.463 Z-0.148 I-1.134 J-1.735
N115 X2.694 Y-2.239 Z-0.147 I2.052 J-0.272
N120 X0.852 Y3.394 Z-0.147 I-0.642 J1.965
N125 X-3.424 Y-0.7 Z-0.148 I-1.492 J-1.427
N130 X2.11 Y-2.781 Z-0.147 I1.93 J-0.727
N135 X1.592 Y3.101 Z-0.147 I-0.179 J2.052
N140 X-3.48 Y0.095 Z-0.148 I-1.77 J-1.048
N145 X1.419 Y-3.175 Z-0.147 I1.709 J-1.141
N150 X2.245 Y2.649 Z-0.147 I0.289 J2.031
N155 X-3.356 Y0.877 Z-0.148 I-1.954 J-0.618
N160 X0.661 Y-3.401 Z-0.147 I1.4 J-1.493
N165 X2.777 Y2.065 Z-0.147 I0.739 J1.906
N170 X-3.059 Y1.608 Z-0.148 I-2.036 J-0.158
N175 X-0.127 Y-3.449 Z-0.147 I1.022 J-1.765
N180 X3.161 Y1.376 Z-0.147 I1.147 J1.683
N185 X-2.605 Y2.252 Z-0.148 I-2.011 J0.306
N190 X-0.902 Y-3.319 Z-0.147 I0.593 J-1.943
N195 X3.378 Y0.622 Z-0.147 I1.493 J1.374
N200 X-2.02 Y2.773 Z-0.148 I-1.882 J0.751
N205 X-1.623 Y-3.017 Z-0.147 I0.137 J-2.019
N210 X3.417 Y-0.158 Z-0.147 I1.759 J0.996
N215 X-1.334 Y3.145 Z-0.148 I-1.657 J1.153
N220 X-2.256 Y-2.56 Z-0.147 I-0.323 J-1.99
N225 X3.28 Y-0.925 Z-0.147 I1.931 J0.569
N230 X-0.584 Y3.353 Z-0.148 I-1.347 J1.493
N235 X-2.767 Y-1.975 Z-0.147 I-0.762 J-1.858
N240 X2.974 Y-1.638 Z-0.147 I2.002 J0.117
N245 X0.19 Y3.386 Z-0.148 I-0.97 J1.753
N250 X-3.13 Y-1.292 Z-0.147 I-1.159 J-1.631
N255 X2.515 Y-2.261 Z-0.147 I1.969 J-0.339
N260 X0.949 Y3.242 Z-0.148 I-0.546 J1.919
N265 X-3.329 Y-0.546 Z-0.147 I-1.492 J-1.321
N270 X1.93 Y-2.761 Z-0.147 I1.834 J-0.773
N275 X1.652 Y2.931 Z-0.148 I-0.096 J1.985
N280 X-3.353 Y0.221 Z-0.147 I-1.746 J-0.944
N285 X1.25 Y-3.115 Z-0.147 I1.605 J-1.164
N290 X2.264 Y2.471 Z-0.148 I0.355 J1.948
N295 X-3.203 Y0.971 Z-0.147 I-1.907 J-0.522
N300 X0.51 Y-3.303 Z-0.147 I1.294 J-1.492
N305 X2.754 Y1.886 Z-0.148 I0.784 J1.81
N310 X-2.888 Y1.665 Z-0.147 I-1.968 J-0.076
N315 X-0.251 Y-3.32 Z-0.147 I0.919 J-1.739
N320 X3.098 Y1.208 Z-0.148 I1.169 J1.579
N325 X-2.427 Y2.267 Z-0.147 I-1.927 J0.37
N330 X-0.993 Y-3.164 Z-0.147 I0.499 J-1.895
N335 X3.278 Y0.473 Z-0.148 I1.49 J1.268
N340 X-1.842 Y2.747 Z-0.147 I-1.786 J0.794
N345 X-1.678 Y-2.846 Z-0.147 I0.057 J-1.951
N350 X3.288 Y-0.28 Z-0.148 I1.732 J0.894
N355 X-1.168 Y3.081 Z-0.147 I-1.553 J1.173
N360 X-2.27 Y-2.383 Z-0.147 I-0.385 J-1.905
N365 X3.126 Y-1.014 Z-0.148 I1.882 J0.476
N370 X-0.437 Y3.253 Z-0.147 I-1.242 J1.489
N375 X-2.74 Y-1.799 Z-0.147 I-0.804 J-1.762
N380 X2.804 Y-1.69 Z-0.148 I1.933 J0.037
N385 X0.309 Y3.254 Z-0.147 I-0.869 J1.724
N390 X-3.063 Y-1.127 Z-0.147 I-1.177 J-1.528
N395 X2.338 Y-2.271 Z-0.148 I1.884 J-0.4
N400 X1.035 Y3.087 Z-0.147 I-0.454 J1.869
N405 X-3.226 Y-0.402 Z-0.147 I-1.487 J-1.216
N410 X1.756 Y-2.732 Z-0.148 I1.737 J-0.813
N415 X1.7 Y2.761 Z-0.147 I-0.019 J1.916
N420 X-3.221 Y0.339 Z-0.147 I-1.717 J-0.844
N425 X1.087 Y-3.046 Z-0.148 I1.502 J-1.181
N430 X2.273 Y2.294 Z-0.147 I0.414 J1.862
N435 X-3.048 Y1.055 Z-0.147 I-1.856 J-0.432
N440 X0.367 Y-3.2 Z-0.148 I1.19 J-1.484
N445 X2.723 Y1.713 Z-0.147 I0.822 J1.713
N450 X-3.801 I-1.9
N455 X3.801 I1.9
N460 G01 X0.004 Y0.202 F1000.
N465 X0.144 Y0.594
N470 X0.026 Y0.211
N475 X-0.021 Y0.211
N480 X-0.069 Y0.2
N485 X-0.113 Y0.18
N490 X-0.116 Y0.147
N495 X-0.049 Y0.044
N500 X-0.421 Y0.323
N505 X-0.064 Y0.041
N510 X-0.065 Y0.028
N515 X-0.459 Y0.19
N520 X-0.045 Y0.016
N525 X-0.046 Y0.011
N530 X-0.184 Y0.025
N535 X-0.367 Y0.048
N540 X-0.046 Y0.003
N545 X-0.045 Y-0.001
N550 X-0.092 Y-0.012
N555 X-0.459 Y-0.06
N560 X-0.046 Y-0.009
N565 X-0.045 Y-0.014
N570 X-0.367 Y-0.152
N575 X-0.184 Y-0.079
N580 X-0.054 Y-0.035
N585 X-0.313 Y-0.24
N590 X-0.157 Y-0.127
N595 X-0.026 Y-0.029
N600 X-0.26 Y-0.339
N605 X-0.107 Y-0.149
N610 X-0.018 Y-0.034
N615 X-0.165 Y-0.399
N620 X-0.059 Y-0.152
N625 X-0.029 Y-0.184
N630 X-0.048 Y-0.367
N635 X-0.009 Y-0.092
N640 X0.009 Y-0.092
N645 X0.048 Y-0.367
N650 X0.029 Y-0.184
N655 X0.059 Y-0.152
N660 X0.165 Y-0.399
N665 X0.018 Y-0.034
N670 X0.107 Y-0.149
N675 X0.26 Y-0.339
N680 X0.026 Y-0.029
N685 X0.157 Y-0.127
N690 X0.313 Y-0.24
N695 X0.054 Y-0.035
N700 X0.184 Y-0.079
N705 X0.367 Y-0.152
N710 X0.045 Y-0.014
N715 X0.046 Y-0.009
N720 X0.459 Y-0.06
N725 X0.092 Y-0.012
N730 X0.045 Y-0.001
N735 X0.046 Y0.003
N740 X0.367 Y0.048
N745 X0.184 Y0.025
N750 X0.046 Y0.011
N755 X0.045 Y0.016
N760 X0.459 Y0.19
N765 X0.065 Y0.028
N770 X0.064 Y0.041
N775 X0.421 Y0.323
N780 X0.049 Y0.044
N785 X0.145 Y0.184
N790 X0.173 Y0.225
N795 X0.053 Y0.071
N800 X0.04 Y0.071
N805 X0.152 Y0.368
N810 X0.073 Y0.183
N815 X0.028 Y0.184
N820 X0.048 Y0.367
N825 X0.009 Y0.092
N830 X-0.009 Y0.092
N835 X-0.048 Y0.367
N840 X-0.028 Y0.184
N845 X-0.073 Y0.183
N850 X-0.152 Y0.368
N855 X-0.04 Y0.071
N860 X-0.085 Y0.112
N865 X-0.17 Y0.221
N870 G03 X-0.344 Y0.138 I-0.304 J-0.26
N875 G01 X-0.057 Y-0.019 Z0.005
N880 X-0.056 Y-0.019 Z0.014
N885 X-0.054 Y-0.018 Z0.023
N890 X-0.039 Y-0.037 Z0.032
N895 X-0.034 Y-0.034 Z0.041
N900 X-0.03 Y-0.028 Z0.048
N905 X-0.024 Y-0.023 Z0.054
N910 X-0.012 Y-0.021 Z0.058
N915 X-0.008 Y-0.013 Z0.062
N920 X-0.002 Y-0.005 Z0.063
N925 Z20.1
N930 X20.051 Y-2.646
N935 Z-9.45
N940 G03 X-1.507 Y3.202 Z-0.147 I-1.761 J1.127 F333.
N945 X-2.232 Y-2.74 Z-0.148 I-0.254 J-2.072
N950 X3.432 Y-0.826 Z-0.147 I1.976 J0.667
N955 X-0.739 Y3.447 Z-0.147 I-1.454 J1.491
N960 X-2.785 Y-2.155 Z-0.148 I-0.714 J-1.954
N965 X3.144 Y-1.576 Z-0.147 I2.068 J0.201
N970 X0.061 Y3.512 Z-0.147 I-1.075 J1.775
N975 X-3.189 Y-1.463 Z-0.148 I-1.134 J-1.735
N980 X2.695 Y-2.239 Z-0.147 I2.052 J-0.272
N985 X0.852 Y3.394 Z-0.147 I-0.642 J1.965
N990 X-3.424 Y-0.7 Z-0.148 I-1.492 J-1.427
N995 X2.109 Y-2.781 Z-0.147 I1.93 J-0.727
N1000 X1.593 Y3.101 Z-0.147 I-0.179 J2.052
N1005 X-3.481 Y0.095 Z-0.148 I-1.77 J-1.048
N1010 X1.419 Y-3.175 Z-0.147 I1.709 J-1.141
N1015 X2.246 Y2.65 Z-0.147 I0.289 J2.031
N1020 X-3.356 Y0.877 Z-0.148 I-1.954 J-0.618
N1025 X0.66 Y-3.401 Z-0.147 I1.4 J-1.493
N1030 X2.777 Y2.064 Z-0.147 I0.739 J1.906
N1035 X-3.058 Y1.608 Z-0.148 I-2.036 J-0.158
N1040 X-0.127 Y-3.449 Z-0.147 I1.022 J-1.765
N1045 X3.16 Y1.376 Z-0.147 I1.147 J1.683
N1050 X-2.605 Y2.252 Z-0.148 I-2.011 J0.306
N1055 X-0.901 Y-3.319 Z-0.147 I0.593 J-1.943
N1060 X3.377 Y0.622 Z-0.147 I1.493 J1.374
N1065 X-2.019 Y2.773 Z-0.148 I-1.882 J0.751
N1070 X-1.624 Y-3.016 Z-0.147 I0.137 J-2.019
N1075 X3.418 Y-0.159 Z-0.147 I1.759 J0.996
N1080 X-1.334 Y3.145 Z-0.148 I-1.657 J1.153
N1085 X-2.256 Y-2.56 Z-0.147 I-0.323 J-1.99
N1090 X3.28 Y-0.925 Z-0.147 I1.931 J0.569
N1095 X-0.584 Y3.353 Z-0.148 I-1.347 J1.493
N1100 X-2.767 Y-1.974 Z-0.147 I-0.762 J-1.858
N1105 X2.973 Y-1.639 Z-0.147 I2.002 J0.117
N1110 X0.191 Y3.386 Z-0.148 I-0.97 J1.753
N1115 X-3.131 Y-1.292 Z-0.147 I-1.159 J-1.631
N1120 X2.516 Y-2.26 Z-0.147 I1.969 J-0.339
N1125 X0.948 Y3.241 Z-0.148 I-0.546 J1.919
N1130 X-3.328 Y-0.546 Z-0.147 I-1.492 J-1.321
N1135 X1.93 Y-2.761 Z-0.147 I1.834 J-0.773
N1140 X1.652 Y2.931 Z-0.148 I-0.096 J1.985
N1145 X-3.353 Y0.221 Z-0.147 I-1.746 J-0.944
N1150 X1.25 Y-3.115 Z-0.147 I1.605 J-1.164
N1155 X2.264 Y2.471 Z-0.148 I0.355 J1.948
N1160 X-3.203 Y0.971 Z-0.147 I-1.907 J-0.522
N1165 X0.509 Y-3.303 Z-0.147 I1.294 J-1.492
N1170 X2.755 Y1.886 Z-0.148 I0.784 J1.81
N1175 X-2.889 Y1.665 Z-0.147 I-1.968 J-0.076
N1180 X-0.251 Y-3.32 Z-0.147 I0.919 J-1.739
N1185 X3.098 Y1.208 Z-0.148 I1.169 J1.579
N1190 X-2.426 Y2.268 Z-0.147 I-1.927 J0.37
N1195 X-0.993 Y-3.165 Z-0.147 I0.499 J-1.895
N1200 X3.278 Y0.473 Z-0.148 I1.49 J1.268
N1205 X-1.843 Y2.748 Z-0.147 I-1.786 J0.794
N1210 X-1.677 Y-2.846 Z-0.147 I0.057 J-1.951
N1215 X3.287 Y-0.281 Z-0.148 I1.732 J0.894
N1220 X-1.167 Y3.081 Z-0.147 I-1.553 J1.173
N1225 X-2.27 Y-2.383 Z-0.147 I-0.385 J-1.905
N1230 X3.126 Y-1.014 Z-0.148 I1.882 J0.476
N1235 X-0.438 Y3.253 Z-0.147 I-1.242 J1.489
N1240 X-2.739 Y-1.799 Z-0.147 I-0.804 J-1.762
N1245 X2.803 Y-1.69 Z-0.148 I1.933 J0.037
N1250 X0.31 Y3.254 Z-0.147 I-0.869 J1.724
N1255 X-3.064 Y-1.127 Z-0.147 I-1.177 J-1.528
N1260 X2.339 Y-2.271 Z-0.148 I1.884 J-0.4
N1265 X1.035 Y3.087 Z-0.147 I-0.454 J1.869
N1270 X-3.227 Y-0.402 Z-0.147 I-1.487 J-1.216
N1275 X1.756 Y-2.731 Z-0.148 I1.737 J-0.813
N1280 X1.701 Y2.761 Z-0.147 I-0.019 J1.916
N1285 X-3.221 Y0.338 Z-0.147 I-1.717 J-0.844
N1290 X1.087 Y-3.046 Z-0.148 I1.502 J-1.181
N1295 X2.273 Y2.295 Z-0.147 I0.414 J1.862
N1300 X-3.048 Y1.054 Z-0.147 I-1.856 J-0.432
N1305 X0.367 Y-3.2 Z-0.148 I1.19 J-1.484
N1310 X2.722 Y1.714 Z-0.147 I0.822 J1.713
N1315 X-3.8 I-1.9
N1320 X3.8 I1.9
N1325 G01 X0.005 Y0.202 F1000.
N1330 X0.144 Y0.594
N1335 X0.026 Y0.207
N1340 X-0.02 Y0.206
N1345 X-0.065 Y0.198
N1350 X-0.108 Y0.178
N1355 X-0.046 Y0.06
N1360 X-0.079 Y0.099
N1365 X-0.104 Y0.085
N1370 X-0.367 Y0.282
N1375 X-0.046 Y0.03
N1380 X-0.046 Y0.023
N1385 X-0.458 Y0.191
N1390 X-0.092 Y0.034
N1395 X-0.092 Y0.016
N1400 X-0.367 Y0.048
N1405 X-0.183 Y0.021
N1410 X-0.183 Y-0.021
N1415 X-0.367 Y-0.048
N1420 X-0.092 Y-0.016
N1425 X-0.092 Y-0.034
N1430 X-0.458 Y-0.191
N1435 X-0.046 Y-0.023
N1440 X-0.046 Y-0.03
N1445 X-0.367 Y-0.282
N1450 X-0.104 Y-0.085
N1455 X-0.079 Y-0.099
N1460 X-0.277 Y-0.361
N1465 X-0.03 Y-0.045
N1470 X-0.024 Y-0.046
N1475 X-0.152 Y-0.368
N1480 X-0.068 Y-0.169
N1485 X-0.004 Y-0.014
N1490 X-0.029 Y-0.184
N1495 X-0.048 Y-0.367
N1500 X-0.009 Y-0.092
N1505 X0.009 Y-0.092
N1510 X0.048 Y-0.367
N1515 X0.029 Y-0.184
N1520 X0.004 Y-0.014
N1525 X0.068 Y-0.169
N1530 X0.152 Y-0.368
N1535 X0.024 Y-0.046
N1540 X0.03 Y-0.045
N1545 X0.277 Y-0.361
N1550 X0.079 Y-0.099
N1555 X0.104 Y-0.085
N1560 X0.367 Y-0.282
N1565 X0.046 Y-0.03
N1570 X0.046 Y-0.023
N1575 X0.458 Y-0.191
N1580 X0.092 Y-0.034
N1585 X0.092 Y-0.016
N1590 X0.367 Y-0.048
N1595 X0.183 Y-0.021
N1600 X0.183 Y0.021
N1605 X0.367 Y0.048
N1610 X0.092 Y0.016
N1615 X0.092 Y0.034
N1620 X0.458 Y0.191
N1625 X0.046 Y0.023
N1630 X0.046 Y0.03
N1635 X0.367 Y0.282
N1640 X0.104 Y0.085
N1645 X0.079 Y0.099
N1650 X0.277 Y0.361
N1655 X0.03 Y0.045
N1660 X0.024 Y0.046
N1665 X0.152 Y0.368
N1670 X0.068 Y0.169
N1675 X0.004 Y0.014
N1680 X0.029 Y0.184
N1685 X0.048 Y0.367
N1690 X0.009 Y0.092
N1695 X-0.009 Y0.092
N1700 X-0.048 Y0.367
N1705 X-0.029 Y0.184
N1710 X-0.004 Y0.014
N1715 X-0.068 Y0.169
N1720 X-0.152 Y0.368
N1725 X-0.024 Y0.046
N1730 X-0.03 Y0.045
N1735 X-0.231 Y0.301
N1740 G03 X-0.341 Y0.144 I-0.309 J-0.254
N1745 G01 X-0.058 Y-0.018 Z0.005
N1750 X-0.056 Y-0.018 Z0.014
N1755 X-0.054 Y-0.017 Z0.023
N1760 X-0.04 Y-0.037 Z0.032
N1765 X-0.035 Y-0.032 Z0.041
N1770 X-0.03 Y-0.028 Z0.048
N1775 X-0.024 Y-0.023 Z0.054
N1780 X-0.013 Y-0.021 Z0.058
N1785 X-0.008 Y-0.013 Z0.062
N1790 X-0.002 Y-0.004 Z0.063
N1795 Z20.1
N1800 X20.042 Y-2.646
N1805 Z-9.45
N1810 G03 X-1.507 Y3.202 Z-0.147 I-1.761 J1.127 F333.
N1815 X-2.232 Y-2.74 Z-0.148 I-0.254 J-2.072
N1820 X3.432 Y-0.826 Z-0.147 I1.976 J0.667
N1825 X-0.739 Y3.447 Z-0.147 I-1.454 J1.491
N1830 X-2.785 Y-2.155 Z-0.148 I-0.714 J-1.954
N1835 X3.144 Y-1.576 Z-0.147 I2.068 J0.201
N1840 X0.061 Y3.512 Z-0.147 I-1.075 J1.775
N1845 X-3.189 Y-1.463 Z-0.148 I-1.134 J-1.735
N1850 X2.695 Y-2.239 Z-0.147 I2.052 J-0.272
N1855 X0.852 Y3.394 Z-0.147 I-0.642 J1.965
N1860 X-3.425 Y-0.7 Z-0.148 I-1.492 J-1.427
N1865 X2.11 Y-2.781 Z-0.147 I1.93 J-0.727
N1870 X1.593 Y3.101 Z-0.147 I-0.179 J2.052
N1875 X-3.481 Y0.095 Z-0.148 I-1.77 J-1.048
N1880 X1.419 Y-3.175 Z-0.147 I1.709 J-1.141
N1885 X2.246 Y2.649 Z-0.147 I0.289 J2.031
N1890 X-3.356 Y0.878 Z-0.148 I-1.954 J-0.618
N1895 X0.66 Y-3.402 Z-0.147 I1.4 J-1.493
N1900 X2.777 Y2.065 Z-0.147 I0.739 J1.906
N1905 X-3.059 Y1.608 Z-0.148 I-2.036 J-0.158
N1910 X-0.126 Y-3.449 Z-0.147 I1.022 J-1.765
N1915 X3.16 Y1.376 Z-0.147 I1.147 J1.683
N1920 X-2.605 Y2.252 Z-0.148 I-2.011 J0.306
N1925 X-0.901 Y-3.319 Z-0.147 I0.593 J-1.943
N1930 X3.377 Y0.622 Z-0.147 I1.493 J1.374
N1935 X-2.019 Y2.773 Z-0.148 I-1.882 J0.751
N1940 X-1.624 Y-3.017 Z-0.147 I0.137 J-2.019
N1945 X3.418 Y-0.158 Z-0.147 I1.759 J0.996
N1950 X-1.334 Y3.145 Z-0.148 I-1.657 J1.153
N1955 X-2.256 Y-2.56 Z-0.147 I-0.323 J-1.99
N1960 X3.28 Y-0.925 Z-0.147 I1.931 J0.569
N1965 X-0.584 Y3.353 Z-0.148 I-1.347 J1.493
N1970 X-2.767 Y-1.975 Z-0.147 I-0.762 J-1.858
N1975 X2.973 Y-1.638 Z-0.147 I2.002 J0.117
N1980 X0.191 Y3.386 Z-0.148 I-0.97 J1.753
N1985 X-3.131 Y-1.292 Z-0.147 I-1.159 J-1.631
N1990 X2.516 Y-2.26 Z-0.147 I1.969 J-0.339
N1995 X0.948 Y3.241 Z-0.148 I-0.546 J1.919
N2000 X-3.328 Y-0.546 Z-0.147 I-1.492 J-1.321
N2005 X1.93 Y-2.761 Z-0.147 I1.834 J-0.773
N2010 X1.652 Y2.931 Z-0.148 I-0.096 J1.985
N2015 X-3.353 Y0.221 Z-0.147 I-1.746 J-0.944
N2020 X1.25 Y-3.115 Z-0.147 I1.605 J-1.164
N2025 X2.264 Y2.471 Z-0.148 I0.355 J1.948
N2030 X-3.203 Y0.971 Z-0.147 I-1.907 J-0.522
N2035 X0.509 Y-3.303 Z-0.147 I1.294 J-1.492
N2040 X2.755 Y1.886 Z-0.148 I0.784 J1.81
N2045 X-2.889 Y1.665 Z-0.147 I-1.968 J-0.076
N2050 X-0.251 Y-3.32 Z-0.147 I0.919 J-1.739
N2055 X3.098 Y1.208 Z-0.148 I1.169 J1.579
N2060 X-2.426 Y2.267 Z-0.147 I-1.927 J0.37
N2065 X-0.993 Y-3.164 Z-0.147 I0.499 J-1.895
N2070 X3.278 Y0.473 Z-0.148 I1.49 J1.268
N2075 X-1.843 Y2.747 Z-0.147 I-1.786 J0.794
N2080 X-1.677 Y-2.846 Z-0.147 I0.057 J-1.951
N2085 X3.287 Y-0.28 Z-0.148 I1.732 J0.894
N2090 X-1.167 Y3.081 Z-0.147 I-1.553 J1.173
N2095 X-2.27 Y-2.383 Z-0.147 I-0.385 J-1.905
N2100 X3.126 Y-1.014 Z-0.148 I1.882 J0.476
N2105 X-0.438 Y3.253 Z-0.147 I-1.242 J1.489
N2110 X-2.739 Y-1.799 Z-0.147 I-0.804 J-1.762
N2115 X2.803 Y-1.69 Z-0.148 I1.933 J0.037
N2120 X0.31 Y3.254 Z-0.147 I-0.869 J1.724
N2125 X-3.064 Y-1.127 Z-0.147 I-1.177 J-1.528
N2130 X2.339 Y-2.271 Z-0.148 I1.884 J-0.4
N2135 X1.035 Y3.087 Z-0.147 I-0.454 J1.869
N2140 X-3.227 Y-0.402 Z-0.147 I-1.487 J-1.216
N2145 X1.756 Y-2.732 Z-0.148 I1.737 J-0.813
N2150 X1.7 Y2.761 Z-0.147 I-0.019 J1.916
N2155 X-3.22 Y0.339 Z-0.147 I-1.717 J-0.844
N2160 X1.087 Y-3.046 Z-0.148 I1.502 J-1.181
N2165 X2.273 Y2.294 Z-0.147 I0.414 J1.862
N2170 X-3.048 Y1.055 Z-0.147 I-1.856 J-0.432
N2175 X0.367 Y-3.2 Z-0.148 I1.19 J-1.484
N2180 X2.722 Y1.713 Z-0.147 I0.822 J1.713
N2185 X-3.8 I-1.9
N2190 X3.8 I1.9
N2195 G01 X0.005 Y0.202 F1000.
N2200 X0.144 Y0.595
N2205 X0.026 Y0.207
N2210 X-0.02 Y0.207
N2215 X-0.066 Y0.198
N2220 X-0.107 Y0.178
N2225 X-0.1 Y0.129
N2230 X-0.026 Y0.029
N2235 X-0.157 Y0.127
N2240 X-0.313 Y0.24
N2245 X-0.054 Y0.035
N2250 X-0.184 Y0.079
N2255 X-0.367 Y0.152
N2260 X-0.045 Y0.014
N2265 X-0.046 Y0.009
N2270 X-0.459 Y0.06
N2275 X-0.092 Y0.012
N2280 X-0.045 Y0.001
N2285 X-0.046 Y-0.003
N2290 X-0.367 Y-0.048
N2295 X-0.184 Y-0.025
N2300 X-0.046 Y-0.011
N2305 X-0.045 Y-0.016
N2310 X-0.459 Y-0.19
N2315 X-0.065 Y-0.028
N2320 X-0.064 Y-0.041
N2325 X-0.421 Y-0.323
N2330 X-0.049 Y-0.044
N2335 X-0.145 Y-0.184
N2340 X-0.173 Y-0.225
N2345 X-0.053 Y-0.071
N2350 X-0.04 Y-0.071
N2355 X-0.152 Y-0.368
N2360 X-0.073 Y-0.183
N2365 X-0.028 Y-0.184
N2370 X-0.048 Y-0.367
N2375 X-0.009 Y-0.092
N2380 X0.009 Y-0.092
N2385 X0.048 Y-0.367
N2390 X0.028 Y-0.184
N2395 X0.073 Y-0.183
N2400 X0.152 Y-0.368
N2405 X0.04 Y-0.071
N2410 X0.085 Y-0.112
N2415 X0.151 Y-0.198
N2420 X0.135 Y-0.17
N2425 X0.049 Y-0.044
N2430 X0.421 Y-0.323
N2435 X0.064 Y-0.041
N2440 X0.065 Y-0.028
N2445 X0.459 Y-0.19
N2450 X0.045 Y-0.016
N2455 X0.046 Y-0.011
N2460 X0.184 Y-0.025
N2465 X0.367 Y-0.048
N2470 X0.046 Y-0.003
N2475 X0.045 Y0.001
N2480 X0.092 Y0.012
N2485 X0.459 Y0.06
N2490 X0.046 Y0.009
N2495 X0.045 Y0.014
N2500 X0.367 Y0.152
N2505 X0.184 Y0.079
N2510 X0.054 Y0.035
N2515 X0.313 Y0.24
N2520 X0.157 Y0.127
N2525 X0.026 Y0.029
N2530 X0.26 Y0.339
N2535 X0.107 Y0.149
N2540 X0.018 Y0.034
N2545 X0.165 Y0.399
N2550 X0.059 Y0.152
N2555 X0.029 Y0.184
N2560 X0.048 Y0.367
N2565 X0.009 Y0.092
N2570 X-0.009 Y0.092
N2575 X-0.048 Y0.367
N2580 X-0.029 Y0.184
N2585 X-0.059 Y0.152
N2590 X-0.165 Y0.399
N2595 X-0.018 Y0.034
N2600 X-0.107 Y0.149
N2605 X-0.16 Y0.21
N2610 G03 X-0.662 Y-0.068 I-0.308 J-0.255
N2615 G01 X-0.037 Y-0.069 Z0.008
N2620 X-0.035 Y-0.066 Z0.022
N2625 X-0.032 Y-0.061 Z0.037
N2630 X-0.029 Y-0.054 Z0.05
N2635 X-0.023 Y-0.044 Z0.061
N2640 X-0.017 Y-0.032 Z0.069
N2645 X-0.011 Y-0.02 Z0.075
N2650 X-0.003 Y-0.007 Z0.078
N2655 Z30.1
N2660 G90

N8635 M09
N8640 G28 G91 Z0.
N8645 G49
N8650 G28 X0. Y0.
N8655 M30
%
